( pcb2gcode 1.1.4 )

G94     ( Inches per minute feed rate. )
G20     ( Units == INCHES.             )
G90     ( Absolute coordinates.        )
S10000  ( RPM spindle speed.           )
M3      ( Spindle on clockwise.        )

G64 P0.00500 ( set maximum deviation from commanded toolpath )

G04 P0 ( dwell for no time -- G64 should not smooth over this point )
G00 Z2.00000 ( retract )

G00 X6.25200 Y-3.75846 ( rapid move to begin. )
G01 Z-0.40000 F60.00000 ( plunge. )
G04 P0 ( dwell for no time -- G64 should not smooth over this point )
X6.25200 Y-3.75846
X6.25200 Y-4.63746
X5.32200 Y-4.63746
X5.32200 Y-3.70846
X5.32300 Y-3.70846
X5.32300 Y-3.70746
X6.25100 Y-3.70746
X6.25100 Y-3.70846
X6.25200 Y-3.70846
X6.25200 Y-3.75846
G01 Z-0.80000 F60.00000 ( plunge. )
G04 P0 ( dwell for no time -- G64 should not smooth over this point )
X6.25200 Y-3.75846
X6.25200 Y-4.63746
X5.32200 Y-4.63746
X5.32200 Y-3.70846
X5.32300 Y-3.70846
X5.32300 Y-3.70746
X6.25100 Y-3.70746
X6.25100 Y-3.70846
X6.25200 Y-3.70846
X6.25200 Y-3.75846
G01 Z-1.20000 F60.00000 ( plunge. )
G04 P0 ( dwell for no time -- G64 should not smooth over this point )
X6.25200 Y-3.75846
X6.25200 Y-4.63746
X5.32200 Y-4.63746
X5.32200 Y-3.70846
X5.32300 Y-3.70846
X5.32300 Y-3.70746
X6.25100 Y-3.70746
X6.25100 Y-3.70846
X6.25200 Y-3.70846
X6.25200 Y-3.75846
G04 P0 ( dwell for no time -- G64 should not smooth over this point )
G00 Z2.00000 ( retract )

G00 X5.67400 Y-4.26346 ( rapid move to begin. )
G01 Z-0.40000 F60.00000 ( plunge. )
G04 P0 ( dwell for no time -- G64 should not smooth over this point )
X5.67400 Y-4.26346
X5.67400 Y-4.27846
X5.67300 Y-4.27846
X5.67300 Y-4.28046
X5.67200 Y-4.28046
X5.67200 Y-4.28146
X5.67100 Y-4.28146
X5.67100 Y-4.28246
X5.67000 Y-4.28246
X5.67000 Y-4.28346
X5.66900 Y-4.28346
X5.66900 Y-4.28446
X5.66800 Y-4.28446
X5.66800 Y-4.28746
X5.66900 Y-4.28746
X5.66900 Y-4.28846
X5.67000 Y-4.28846
X5.67000 Y-4.28946
X5.67100 Y-4.28946
X5.67100 Y-4.29046
X5.67200 Y-4.29046
X5.67200 Y-4.29146
X5.67300 Y-4.29146
X5.67300 Y-4.29346
X5.67400 Y-4.29346
X5.67400 Y-4.31246
X5.67300 Y-4.31246
X5.67300 Y-4.31546
X5.67200 Y-4.31546
X5.67200 Y-4.35846
X5.60100 Y-4.35846
X5.60100 Y-4.35746
X5.59900 Y-4.35746
X5.59900 Y-4.35646
X5.59700 Y-4.35646
X5.59700 Y-4.35546
X5.59500 Y-4.35546
X5.59500 Y-4.35446
X5.59400 Y-4.35446
X5.59400 Y-4.35346
X5.59200 Y-4.35346
X5.59200 Y-4.35246
X5.59100 Y-4.35246
X5.59100 Y-4.35046
X5.59000 Y-4.35046
X5.59000 Y-4.34846
X5.58900 Y-4.34846
X5.58900 Y-4.34446
X5.58800 Y-4.34446
X5.58800 Y-4.34046
X5.58700 Y-4.34046
X5.58700 Y-4.23046
X5.58800 Y-4.23046
X5.58800 Y-4.22646
X5.58900 Y-4.22646
X5.58900 Y-4.22346
X5.59000 Y-4.22346
X5.59000 Y-4.22146
X5.59100 Y-4.22146
X5.59100 Y-4.21946
X5.59200 Y-4.21946
X5.59200 Y-4.21846
X5.59300 Y-4.21846
X5.59300 Y-4.21746
X5.59400 Y-4.21746
X5.59400 Y-4.21646
X5.59500 Y-4.21646
X5.59500 Y-4.21546
X5.59700 Y-4.21546
X5.59700 Y-4.21446
X5.59900 Y-4.21446
X5.59900 Y-4.21346
X5.60100 Y-4.21346
X5.60100 Y-4.21246
X5.67200 Y-4.21246
X5.67200 Y-4.25546
X5.67300 Y-4.25546
X5.67300 Y-4.26046
X5.67400 Y-4.26046
X5.67400 Y-4.26346
G01 Z-0.80000 F60.00000 ( plunge. )
G04 P0 ( dwell for no time -- G64 should not smooth over this point )
X5.67400 Y-4.26346
X5.67400 Y-4.27846
X5.67300 Y-4.27846
X5.67300 Y-4.28046
X5.67200 Y-4.28046
X5.67200 Y-4.28146
X5.67100 Y-4.28146
X5.67100 Y-4.28246
X5.67000 Y-4.28246
X5.67000 Y-4.28346
X5.66900 Y-4.28346
X5.66900 Y-4.28446
X5.66800 Y-4.28446
X5.66800 Y-4.28746
X5.66900 Y-4.28746
X5.66900 Y-4.28846
X5.67000 Y-4.28846
X5.67000 Y-4.28946
X5.67100 Y-4.28946
X5.67100 Y-4.29046
X5.67200 Y-4.29046
X5.67200 Y-4.29146
X5.67300 Y-4.29146
X5.67300 Y-4.29346
X5.67400 Y-4.29346
X5.67400 Y-4.31246
X5.67300 Y-4.31246
X5.67300 Y-4.31546
X5.67200 Y-4.31546
X5.67200 Y-4.35846
X5.60100 Y-4.35846
X5.60100 Y-4.35746
X5.59900 Y-4.35746
X5.59900 Y-4.35646
X5.59700 Y-4.35646
X5.59700 Y-4.35546
X5.59500 Y-4.35546
X5.59500 Y-4.35446
X5.59400 Y-4.35446
X5.59400 Y-4.35346
X5.59200 Y-4.35346
X5.59200 Y-4.35246
X5.59100 Y-4.35246
X5.59100 Y-4.35046
X5.59000 Y-4.35046
X5.59000 Y-4.34846
X5.58900 Y-4.34846
X5.58900 Y-4.34446
X5.58800 Y-4.34446
X5.58800 Y-4.34046
X5.58700 Y-4.34046
X5.58700 Y-4.23046
X5.58800 Y-4.23046
X5.58800 Y-4.22646
X5.58900 Y-4.22646
X5.58900 Y-4.22346
X5.59000 Y-4.22346
X5.59000 Y-4.22146
X5.59100 Y-4.22146
X5.59100 Y-4.21946
X5.59200 Y-4.21946
X5.59200 Y-4.21846
X5.59300 Y-4.21846
X5.59300 Y-4.21746
X5.59400 Y-4.21746
X5.59400 Y-4.21646
X5.59500 Y-4.21646
X5.59500 Y-4.21546
X5.59700 Y-4.21546
X5.59700 Y-4.21446
X5.59900 Y-4.21446
X5.59900 Y-4.21346
X5.60100 Y-4.21346
X5.60100 Y-4.21246
X5.67200 Y-4.21246
X5.67200 Y-4.25546
X5.67300 Y-4.25546
X5.67300 Y-4.26046
X5.67400 Y-4.26046
X5.67400 Y-4.26346
G01 Z-1.20000 F60.00000 ( plunge. )
G04 P0 ( dwell for no time -- G64 should not smooth over this point )
X5.67400 Y-4.26346
X5.67400 Y-4.27846
X5.67300 Y-4.27846
X5.67300 Y-4.28046
X5.67200 Y-4.28046
X5.67200 Y-4.28146
X5.67100 Y-4.28146
X5.67100 Y-4.28246
X5.67000 Y-4.28246
X5.67000 Y-4.28346
X5.66900 Y-4.28346
X5.66900 Y-4.28446
X5.66800 Y-4.28446
X5.66800 Y-4.28746
X5.66900 Y-4.28746
X5.66900 Y-4.28846
X5.67000 Y-4.28846
X5.67000 Y-4.28946
X5.67100 Y-4.28946
X5.67100 Y-4.29046
X5.67200 Y-4.29046
X5.67200 Y-4.29146
X5.67300 Y-4.29146
X5.67300 Y-4.29346
X5.67400 Y-4.29346
X5.67400 Y-4.31246
X5.67300 Y-4.31246
X5.67300 Y-4.31546
X5.67200 Y-4.31546
X5.67200 Y-4.35846
X5.60100 Y-4.35846
X5.60100 Y-4.35746
X5.59900 Y-4.35746
X5.59900 Y-4.35646
X5.59700 Y-4.35646
X5.59700 Y-4.35546
X5.59500 Y-4.35546
X5.59500 Y-4.35446
X5.59400 Y-4.35446
X5.59400 Y-4.35346
X5.59200 Y-4.35346
X5.59200 Y-4.35246
X5.59100 Y-4.35246
X5.59100 Y-4.35046
X5.59000 Y-4.35046
X5.59000 Y-4.34846
X5.58900 Y-4.34846
X5.58900 Y-4.34446
X5.58800 Y-4.34446
X5.58800 Y-4.34046
X5.58700 Y-4.34046
X5.58700 Y-4.23046
X5.58800 Y-4.23046
X5.58800 Y-4.22646
X5.58900 Y-4.22646
X5.58900 Y-4.22346
X5.59000 Y-4.22346
X5.59000 Y-4.22146
X5.59100 Y-4.22146
X5.59100 Y-4.21946
X5.59200 Y-4.21946
X5.59200 Y-4.21846
X5.59300 Y-4.21846
X5.59300 Y-4.21746
X5.59400 Y-4.21746
X5.59400 Y-4.21646
X5.59500 Y-4.21646
X5.59500 Y-4.21546
X5.59700 Y-4.21546
X5.59700 Y-4.21446
X5.59900 Y-4.21446
X5.59900 Y-4.21346
X5.60100 Y-4.21346
X5.60100 Y-4.21246
X5.67200 Y-4.21246
X5.67200 Y-4.25546
X5.67300 Y-4.25546
X5.67300 Y-4.26046
X5.67400 Y-4.26046
X5.67400 Y-4.26346
G04 P0 ( dwell for no time -- G64 should not smooth over this point )
G00 Z2.00000 ( retract )

G00 X5.71500 Y-4.26346 ( rapid move to begin. )
G01 Z-0.40000 F60.00000 ( plunge. )
G04 P0 ( dwell for no time -- G64 should not smooth over this point )
X5.71500 Y-4.26346
X5.71500 Y-4.26746
X5.71400 Y-4.26746
X5.71400 Y-4.27546
X5.71300 Y-4.27546
X5.71300 Y-4.29546
X5.71400 Y-4.29546
X5.71400 Y-4.30446
X5.71500 Y-4.30446
X5.71500 Y-4.30946
X5.71600 Y-4.30946
X5.71600 Y-4.31246
X5.71700 Y-4.31246
X5.71700 Y-4.31446
X5.71800 Y-4.31446
X5.71800 Y-4.31946
X5.71900 Y-4.31946
X5.71900 Y-4.35846
X5.67200 Y-4.35846
X5.67200 Y-4.31546
X5.67300 Y-4.31546
X5.67300 Y-4.31246
X5.67400 Y-4.31246
X5.67400 Y-4.29346
X5.67300 Y-4.29346
X5.67300 Y-4.29146
X5.67200 Y-4.29146
X5.67200 Y-4.29046
X5.67100 Y-4.29046
X5.67100 Y-4.28946
X5.67000 Y-4.28946
X5.67000 Y-4.28846
X5.66900 Y-4.28846
X5.66900 Y-4.28746
X5.66800 Y-4.28746
X5.66800 Y-4.28446
X5.66900 Y-4.28446
X5.66900 Y-4.28346
X5.67000 Y-4.28346
X5.67000 Y-4.28246
X5.67100 Y-4.28246
X5.67100 Y-4.28146
X5.67200 Y-4.28146
X5.67200 Y-4.28046
X5.67300 Y-4.28046
X5.67300 Y-4.27846
X5.67400 Y-4.27846
X5.67400 Y-4.26046
X5.67300 Y-4.26046
X5.67300 Y-4.25546
X5.67200 Y-4.25546
X5.67200 Y-4.21246
X5.71900 Y-4.21246
X5.71900 Y-4.25146
X5.71800 Y-4.25146
X5.71800 Y-4.25646
X5.71700 Y-4.25646
X5.71700 Y-4.25946
X5.71600 Y-4.25946
X5.71600 Y-4.26246
X5.71500 Y-4.26246
X5.71500 Y-4.26346
G01 Z-0.80000 F60.00000 ( plunge. )
G04 P0 ( dwell for no time -- G64 should not smooth over this point )
X5.71500 Y-4.26346
X5.71500 Y-4.26746
X5.71400 Y-4.26746
X5.71400 Y-4.27546
X5.71300 Y-4.27546
X5.71300 Y-4.29546
X5.71400 Y-4.29546
X5.71400 Y-4.30446
X5.71500 Y-4.30446
X5.71500 Y-4.30946
X5.71600 Y-4.30946
X5.71600 Y-4.31246
X5.71700 Y-4.31246
X5.71700 Y-4.31446
X5.71800 Y-4.31446
X5.71800 Y-4.31946
X5.71900 Y-4.31946
X5.71900 Y-4.35846
X5.67200 Y-4.35846
X5.67200 Y-4.31546
X5.67300 Y-4.31546
X5.67300 Y-4.31246
X5.67400 Y-4.31246
X5.67400 Y-4.29346
X5.67300 Y-4.29346
X5.67300 Y-4.29146
X5.67200 Y-4.29146
X5.67200 Y-4.29046
X5.67100 Y-4.29046
X5.67100 Y-4.28946
X5.67000 Y-4.28946
X5.67000 Y-4.28846
X5.66900 Y-4.28846
X5.66900 Y-4.28746
X5.66800 Y-4.28746
X5.66800 Y-4.28446
X5.66900 Y-4.28446
X5.66900 Y-4.28346
X5.67000 Y-4.28346
X5.67000 Y-4.28246
X5.67100 Y-4.28246
X5.67100 Y-4.28146
X5.67200 Y-4.28146
X5.67200 Y-4.28046
X5.67300 Y-4.28046
X5.67300 Y-4.27846
X5.67400 Y-4.27846
X5.67400 Y-4.26046
X5.67300 Y-4.26046
X5.67300 Y-4.25546
X5.67200 Y-4.25546
X5.67200 Y-4.21246
X5.71900 Y-4.21246
X5.71900 Y-4.25146
X5.71800 Y-4.25146
X5.71800 Y-4.25646
X5.71700 Y-4.25646
X5.71700 Y-4.25946
X5.71600 Y-4.25946
X5.71600 Y-4.26246
X5.71500 Y-4.26246
X5.71500 Y-4.26346
G01 Z-1.20000 F60.00000 ( plunge. )
G04 P0 ( dwell for no time -- G64 should not smooth over this point )
X5.71500 Y-4.26346
X5.71500 Y-4.26746
X5.71400 Y-4.26746
X5.71400 Y-4.27546
X5.71300 Y-4.27546
X5.71300 Y-4.29546
X5.71400 Y-4.29546
X5.71400 Y-4.30446
X5.71500 Y-4.30446
X5.71500 Y-4.30946
X5.71600 Y-4.30946
X5.71600 Y-4.31246
X5.71700 Y-4.31246
X5.71700 Y-4.31446
X5.71800 Y-4.31446
X5.71800 Y-4.31946
X5.71900 Y-4.31946
X5.71900 Y-4.35846
X5.67200 Y-4.35846
X5.67200 Y-4.31546
X5.67300 Y-4.31546
X5.67300 Y-4.31246
X5.67400 Y-4.31246
X5.67400 Y-4.29346
X5.67300 Y-4.29346
X5.67300 Y-4.29146
X5.67200 Y-4.29146
X5.67200 Y-4.29046
X5.67100 Y-4.29046
X5.67100 Y-4.28946
X5.67000 Y-4.28946
X5.67000 Y-4.28846
X5.66900 Y-4.28846
X5.66900 Y-4.28746
X5.66800 Y-4.28746
X5.66800 Y-4.28446
X5.66900 Y-4.28446
X5.66900 Y-4.28346
X5.67000 Y-4.28346
X5.67000 Y-4.28246
X5.67100 Y-4.28246
X5.67100 Y-4.28146
X5.67200 Y-4.28146
X5.67200 Y-4.28046
X5.67300 Y-4.28046
X5.67300 Y-4.27846
X5.67400 Y-4.27846
X5.67400 Y-4.26046
X5.67300 Y-4.26046
X5.67300 Y-4.25546
X5.67200 Y-4.25546
X5.67200 Y-4.21246
X5.71900 Y-4.21246
X5.71900 Y-4.25146
X5.71800 Y-4.25146
X5.71800 Y-4.25646
X5.71700 Y-4.25646
X5.71700 Y-4.25946
X5.71600 Y-4.25946
X5.71600 Y-4.26246
X5.71500 Y-4.26246
X5.71500 Y-4.26346
G04 P0 ( dwell for no time -- G64 should not smooth over this point )
G00 Z2.00000 ( retract )

G00 X5.76700 Y-4.26346 ( rapid move to begin. )
G01 Z-0.40000 F60.00000 ( plunge. )
G04 P0 ( dwell for no time -- G64 should not smooth over this point )
X5.76700 Y-4.26346
X5.76700 Y-4.28646
X5.76800 Y-4.28646
X5.76800 Y-4.28846
X5.76900 Y-4.28846
X5.76900 Y-4.28946
X5.77000 Y-4.28946
X5.77000 Y-4.29046
X5.77100 Y-4.29046
X5.77100 Y-4.29146
X5.77200 Y-4.29146
X5.77200 Y-4.33046
X5.77100 Y-4.33046
X5.77100 Y-4.33346
X5.77000 Y-4.33346
X5.77000 Y-4.35846
X5.71900 Y-4.35846
X5.71900 Y-4.31946
X5.71800 Y-4.31946
X5.71800 Y-4.31446
X5.71700 Y-4.31446
X5.71700 Y-4.31246
X5.71600 Y-4.31246
X5.71600 Y-4.30946
X5.71500 Y-4.30946
X5.71500 Y-4.30446
X5.71400 Y-4.30446
X5.71400 Y-4.29546
X5.71300 Y-4.29546
X5.71300 Y-4.27546
X5.71400 Y-4.27546
X5.71400 Y-4.26746
X5.71500 Y-4.26746
X5.71500 Y-4.26246
X5.71600 Y-4.26246
X5.71600 Y-4.25946
X5.71700 Y-4.25946
X5.71700 Y-4.25646
X5.71800 Y-4.25646
X5.71800 Y-4.25146
X5.71900 Y-4.25146
X5.71900 Y-4.21246
X5.76500 Y-4.21246
X5.76500 Y-4.24546
X5.76600 Y-4.24546
X5.76600 Y-4.25046
X5.76700 Y-4.25046
X5.76700 Y-4.26346
G01 Z-0.80000 F60.00000 ( plunge. )
G04 P0 ( dwell for no time -- G64 should not smooth over this point )
X5.76700 Y-4.26346
X5.76700 Y-4.28646
X5.76800 Y-4.28646
X5.76800 Y-4.28846
X5.76900 Y-4.28846
X5.76900 Y-4.28946
X5.77000 Y-4.28946
X5.77000 Y-4.29046
X5.77100 Y-4.29046
X5.77100 Y-4.29146
X5.77200 Y-4.29146
X5.77200 Y-4.33046
X5.77100 Y-4.33046
X5.77100 Y-4.33346
X5.77000 Y-4.33346
X5.77000 Y-4.35846
X5.71900 Y-4.35846
X5.71900 Y-4.31946
X5.71800 Y-4.31946
X5.71800 Y-4.31446
X5.71700 Y-4.31446
X5.71700 Y-4.31246
X5.71600 Y-4.31246
X5.71600 Y-4.30946
X5.71500 Y-4.30946
X5.71500 Y-4.30446
X5.71400 Y-4.30446
X5.71400 Y-4.29546
X5.71300 Y-4.29546
X5.71300 Y-4.27546
X5.71400 Y-4.27546
X5.71400 Y-4.26746
X5.71500 Y-4.26746
X5.71500 Y-4.26246
X5.71600 Y-4.26246
X5.71600 Y-4.25946
X5.71700 Y-4.25946
X5.71700 Y-4.25646
X5.71800 Y-4.25646
X5.71800 Y-4.25146
X5.71900 Y-4.25146
X5.71900 Y-4.21246
X5.76500 Y-4.21246
X5.76500 Y-4.24546
X5.76600 Y-4.24546
X5.76600 Y-4.25046
X5.76700 Y-4.25046
X5.76700 Y-4.26346
G01 Z-1.20000 F60.00000 ( plunge. )
G04 P0 ( dwell for no time -- G64 should not smooth over this point )
X5.76700 Y-4.26346
X5.76700 Y-4.28646
X5.76800 Y-4.28646
X5.76800 Y-4.28846
X5.76900 Y-4.28846
X5.76900 Y-4.28946
X5.77000 Y-4.28946
X5.77000 Y-4.29046
X5.77100 Y-4.29046
X5.77100 Y-4.29146
X5.77200 Y-4.29146
X5.77200 Y-4.33046
X5.77100 Y-4.33046
X5.77100 Y-4.33346
X5.77000 Y-4.33346
X5.77000 Y-4.35846
X5.71900 Y-4.35846
X5.71900 Y-4.31946
X5.71800 Y-4.31946
X5.71800 Y-4.31446
X5.71700 Y-4.31446
X5.71700 Y-4.31246
X5.71600 Y-4.31246
X5.71600 Y-4.30946
X5.71500 Y-4.30946
X5.71500 Y-4.30446
X5.71400 Y-4.30446
X5.71400 Y-4.29546
X5.71300 Y-4.29546
X5.71300 Y-4.27546
X5.71400 Y-4.27546
X5.71400 Y-4.26746
X5.71500 Y-4.26746
X5.71500 Y-4.26246
X5.71600 Y-4.26246
X5.71600 Y-4.25946
X5.71700 Y-4.25946
X5.71700 Y-4.25646
X5.71800 Y-4.25646
X5.71800 Y-4.25146
X5.71900 Y-4.25146
X5.71900 Y-4.21246
X5.76500 Y-4.21246
X5.76500 Y-4.24546
X5.76600 Y-4.24546
X5.76600 Y-4.25046
X5.76700 Y-4.25046
X5.76700 Y-4.26346
G04 P0 ( dwell for no time -- G64 should not smooth over this point )
G00 Z2.00000 ( retract )

G00 X5.81600 Y-4.26346 ( rapid move to begin. )
G01 Z-0.40000 F60.00000 ( plunge. )
G04 P0 ( dwell for no time -- G64 should not smooth over this point )
X5.81600 Y-4.26346
X5.81600 Y-4.27246
X5.81500 Y-4.27246
X5.81500 Y-4.27446
X5.81400 Y-4.27446
X5.81400 Y-4.27546
X5.81300 Y-4.27546
X5.81300 Y-4.27646
X5.81200 Y-4.27646
X5.81200 Y-4.27746
X5.81100 Y-4.27746
X5.81100 Y-4.35846
X5.77000 Y-4.35846
X5.77000 Y-4.33346
X5.77100 Y-4.33346
X5.77100 Y-4.33046
X5.77200 Y-4.33046
X5.77200 Y-4.29146
X5.77100 Y-4.29146
X5.77100 Y-4.29046
X5.77000 Y-4.29046
X5.77000 Y-4.28946
X5.76900 Y-4.28946
X5.76900 Y-4.28846
X5.76800 Y-4.28846
X5.76800 Y-4.28646
X5.76700 Y-4.28646
X5.76700 Y-4.25046
X5.76600 Y-4.25046
X5.76600 Y-4.24546
X5.76500 Y-4.24546
X5.76500 Y-4.21246
X5.81600 Y-4.21246
X5.81600 Y-4.26346
G01 Z-0.80000 F60.00000 ( plunge. )
G04 P0 ( dwell for no time -- G64 should not smooth over this point )
X5.81600 Y-4.26346
X5.81600 Y-4.27246
X5.81500 Y-4.27246
X5.81500 Y-4.27446
X5.81400 Y-4.27446
X5.81400 Y-4.27546
X5.81300 Y-4.27546
X5.81300 Y-4.27646
X5.81200 Y-4.27646
X5.81200 Y-4.27746
X5.81100 Y-4.27746
X5.81100 Y-4.35846
X5.77000 Y-4.35846
X5.77000 Y-4.33346
X5.77100 Y-4.33346
X5.77100 Y-4.33046
X5.77200 Y-4.33046
X5.77200 Y-4.29146
X5.77100 Y-4.29146
X5.77100 Y-4.29046
X5.77000 Y-4.29046
X5.77000 Y-4.28946
X5.76900 Y-4.28946
X5.76900 Y-4.28846
X5.76800 Y-4.28846
X5.76800 Y-4.28646
X5.76700 Y-4.28646
X5.76700 Y-4.25046
X5.76600 Y-4.25046
X5.76600 Y-4.24546
X5.76500 Y-4.24546
X5.76500 Y-4.21246
X5.81600 Y-4.21246
X5.81600 Y-4.26346
G01 Z-1.20000 F60.00000 ( plunge. )
G04 P0 ( dwell for no time -- G64 should not smooth over this point )
X5.81600 Y-4.26346
X5.81600 Y-4.27246
X5.81500 Y-4.27246
X5.81500 Y-4.27446
X5.81400 Y-4.27446
X5.81400 Y-4.27546
X5.81300 Y-4.27546
X5.81300 Y-4.27646
X5.81200 Y-4.27646
X5.81200 Y-4.27746
X5.81100 Y-4.27746
X5.81100 Y-4.35846
X5.77000 Y-4.35846
X5.77000 Y-4.33346
X5.77100 Y-4.33346
X5.77100 Y-4.33046
X5.77200 Y-4.33046
X5.77200 Y-4.29146
X5.77100 Y-4.29146
X5.77100 Y-4.29046
X5.77000 Y-4.29046
X5.77000 Y-4.28946
X5.76900 Y-4.28946
X5.76900 Y-4.28846
X5.76800 Y-4.28846
X5.76800 Y-4.28646
X5.76700 Y-4.28646
X5.76700 Y-4.25046
X5.76600 Y-4.25046
X5.76600 Y-4.24546
X5.76500 Y-4.24546
X5.76500 Y-4.21246
X5.81600 Y-4.21246
X5.81600 Y-4.26346
G04 P0 ( dwell for no time -- G64 should not smooth over this point )
G00 Z2.00000 ( retract )

G00 X5.85000 Y-4.26346 ( rapid move to begin. )
G01 Z-0.40000 F60.00000 ( plunge. )
G04 P0 ( dwell for no time -- G64 should not smooth over this point )
X5.85000 Y-4.26346
X5.85000 Y-4.26746
X5.84900 Y-4.26746
X5.84900 Y-4.27346
X5.84800 Y-4.27346
X5.84800 Y-4.27546
X5.84700 Y-4.27546
X5.84700 Y-4.27646
X5.84600 Y-4.27646
X5.84600 Y-4.28646
X5.84700 Y-4.28646
X5.84700 Y-4.29346
X5.84800 Y-4.29346
X5.84800 Y-4.29446
X5.84900 Y-4.29446
X5.84900 Y-4.30846
X5.85000 Y-4.30846
X5.85000 Y-4.31246
X5.85100 Y-4.31246
X5.85100 Y-4.35846
X5.81100 Y-4.35846
X5.81100 Y-4.27746
X5.81200 Y-4.27746
X5.81200 Y-4.27646
X5.81300 Y-4.27646
X5.81300 Y-4.27546
X5.81400 Y-4.27546
X5.81400 Y-4.27446
X5.81500 Y-4.27446
X5.81500 Y-4.27246
X5.81600 Y-4.27246
X5.81600 Y-4.21246
X5.85300 Y-4.21246
X5.85300 Y-4.25446
X5.85200 Y-4.25446
X5.85200 Y-4.25946
X5.85100 Y-4.25946
X5.85100 Y-4.26246
X5.85000 Y-4.26246
X5.85000 Y-4.26346
G01 Z-0.80000 F60.00000 ( plunge. )
G04 P0 ( dwell for no time -- G64 should not smooth over this point )
X5.85000 Y-4.26346
X5.85000 Y-4.26746
X5.84900 Y-4.26746
X5.84900 Y-4.27346
X5.84800 Y-4.27346
X5.84800 Y-4.27546
X5.84700 Y-4.27546
X5.84700 Y-4.27646
X5.84600 Y-4.27646
X5.84600 Y-4.28646
X5.84700 Y-4.28646
X5.84700 Y-4.29346
X5.84800 Y-4.29346
X5.84800 Y-4.29446
X5.84900 Y-4.29446
X5.84900 Y-4.30846
X5.85000 Y-4.30846
X5.85000 Y-4.31246
X5.85100 Y-4.31246
X5.85100 Y-4.35846
X5.81100 Y-4.35846
X5.81100 Y-4.27746
X5.81200 Y-4.27746
X5.81200 Y-4.27646
X5.81300 Y-4.27646
X5.81300 Y-4.27546
X5.81400 Y-4.27546
X5.81400 Y-4.27446
X5.81500 Y-4.27446
X5.81500 Y-4.27246
X5.81600 Y-4.27246
X5.81600 Y-4.21246
X5.85300 Y-4.21246
X5.85300 Y-4.25446
X5.85200 Y-4.25446
X5.85200 Y-4.25946
X5.85100 Y-4.25946
X5.85100 Y-4.26246
X5.85000 Y-4.26246
X5.85000 Y-4.26346
G01 Z-1.20000 F60.00000 ( plunge. )
G04 P0 ( dwell for no time -- G64 should not smooth over this point )
X5.85000 Y-4.26346
X5.85000 Y-4.26746
X5.84900 Y-4.26746
X5.84900 Y-4.27346
X5.84800 Y-4.27346
X5.84800 Y-4.27546
X5.84700 Y-4.27546
X5.84700 Y-4.27646
X5.84600 Y-4.27646
X5.84600 Y-4.28646
X5.84700 Y-4.28646
X5.84700 Y-4.29346
X5.84800 Y-4.29346
X5.84800 Y-4.29446
X5.84900 Y-4.29446
X5.84900 Y-4.30846
X5.85000 Y-4.30846
X5.85000 Y-4.31246
X5.85100 Y-4.31246
X5.85100 Y-4.35846
X5.81100 Y-4.35846
X5.81100 Y-4.27746
X5.81200 Y-4.27746
X5.81200 Y-4.27646
X5.81300 Y-4.27646
X5.81300 Y-4.27546
X5.81400 Y-4.27546
X5.81400 Y-4.27446
X5.81500 Y-4.27446
X5.81500 Y-4.27246
X5.81600 Y-4.27246
X5.81600 Y-4.21246
X5.85300 Y-4.21246
X5.85300 Y-4.25446
X5.85200 Y-4.25446
X5.85200 Y-4.25946
X5.85100 Y-4.25946
X5.85100 Y-4.26246
X5.85000 Y-4.26246
X5.85000 Y-4.26346
G04 P0 ( dwell for no time -- G64 should not smooth over this point )
G00 Z2.00000 ( retract )

G00 X5.88400 Y-4.26346 ( rapid move to begin. )
G01 Z-0.40000 F60.00000 ( plunge. )
G04 P0 ( dwell for no time -- G64 should not smooth over this point )
X5.88400 Y-4.26346
X5.88500 Y-4.26346
X5.88500 Y-4.27146
X5.88600 Y-4.27146
X5.88600 Y-4.27446
X5.88700 Y-4.27446
X5.88700 Y-4.27546
X5.88800 Y-4.27546
X5.88800 Y-4.27646
X5.88900 Y-4.27646
X5.88900 Y-4.27746
X5.89000 Y-4.27746
X5.89000 Y-4.31146
X5.88900 Y-4.31146
X5.88900 Y-4.31846
X5.88800 Y-4.31846
X5.88800 Y-4.35846
X5.85100 Y-4.35846
X5.85100 Y-4.31246
X5.85000 Y-4.31246
X5.85000 Y-4.30846
X5.84900 Y-4.30846
X5.84900 Y-4.29446
X5.84800 Y-4.29446
X5.84800 Y-4.29346
X5.84700 Y-4.29346
X5.84700 Y-4.28646
X5.84600 Y-4.28646
X5.84600 Y-4.27646
X5.84700 Y-4.27646
X5.84700 Y-4.27546
X5.84800 Y-4.27546
X5.84800 Y-4.27346
X5.84900 Y-4.27346
X5.84900 Y-4.26746
X5.85000 Y-4.26746
X5.85000 Y-4.26246
X5.85100 Y-4.26246
X5.85100 Y-4.25946
X5.85200 Y-4.25946
X5.85200 Y-4.25446
X5.85300 Y-4.25446
X5.85300 Y-4.21246
X5.88400 Y-4.21246
X5.88400 Y-4.26346
G01 Z-0.80000 F60.00000 ( plunge. )
G04 P0 ( dwell for no time -- G64 should not smooth over this point )
X5.88400 Y-4.26346
X5.88500 Y-4.26346
X5.88500 Y-4.27146
X5.88600 Y-4.27146
X5.88600 Y-4.27446
X5.88700 Y-4.27446
X5.88700 Y-4.27546
X5.88800 Y-4.27546
X5.88800 Y-4.27646
X5.88900 Y-4.27646
X5.88900 Y-4.27746
X5.89000 Y-4.27746
X5.89000 Y-4.31146
X5.88900 Y-4.31146
X5.88900 Y-4.31846
X5.88800 Y-4.31846
X5.88800 Y-4.35846
X5.85100 Y-4.35846
X5.85100 Y-4.31246
X5.85000 Y-4.31246
X5.85000 Y-4.30846
X5.84900 Y-4.30846
X5.84900 Y-4.29446
X5.84800 Y-4.29446
X5.84800 Y-4.29346
X5.84700 Y-4.29346
X5.84700 Y-4.28646
X5.84600 Y-4.28646
X5.84600 Y-4.27646
X5.84700 Y-4.27646
X5.84700 Y-4.27546
X5.84800 Y-4.27546
X5.84800 Y-4.27346
X5.84900 Y-4.27346
X5.84900 Y-4.26746
X5.85000 Y-4.26746
X5.85000 Y-4.26246
X5.85100 Y-4.26246
X5.85100 Y-4.25946
X5.85200 Y-4.25946
X5.85200 Y-4.25446
X5.85300 Y-4.25446
X5.85300 Y-4.21246
X5.88400 Y-4.21246
X5.88400 Y-4.26346
G01 Z-1.20000 F60.00000 ( plunge. )
G04 P0 ( dwell for no time -- G64 should not smooth over this point )
X5.88400 Y-4.26346
X5.88500 Y-4.26346
X5.88500 Y-4.27146
X5.88600 Y-4.27146
X5.88600 Y-4.27446
X5.88700 Y-4.27446
X5.88700 Y-4.27546
X5.88800 Y-4.27546
X5.88800 Y-4.27646
X5.88900 Y-4.27646
X5.88900 Y-4.27746
X5.89000 Y-4.27746
X5.89000 Y-4.31146
X5.88900 Y-4.31146
X5.88900 Y-4.31846
X5.88800 Y-4.31846
X5.88800 Y-4.35846
X5.85100 Y-4.35846
X5.85100 Y-4.31246
X5.85000 Y-4.31246
X5.85000 Y-4.30846
X5.84900 Y-4.30846
X5.84900 Y-4.29446
X5.84800 Y-4.29446
X5.84800 Y-4.29346
X5.84700 Y-4.29346
X5.84700 Y-4.28646
X5.84600 Y-4.28646
X5.84600 Y-4.27646
X5.84700 Y-4.27646
X5.84700 Y-4.27546
X5.84800 Y-4.27546
X5.84800 Y-4.27346
X5.84900 Y-4.27346
X5.84900 Y-4.26746
X5.85000 Y-4.26746
X5.85000 Y-4.26246
X5.85100 Y-4.26246
X5.85100 Y-4.25946
X5.85200 Y-4.25946
X5.85200 Y-4.25446
X5.85300 Y-4.25446
X5.85300 Y-4.21246
X5.88400 Y-4.21246
X5.88400 Y-4.26346
G04 P0 ( dwell for no time -- G64 should not smooth over this point )
G00 Z2.00000 ( retract )

G00 X5.96600 Y-4.26346 ( rapid move to begin. )
G01 Z-0.40000 F60.00000 ( plunge. )
G04 P0 ( dwell for no time -- G64 should not smooth over this point )
X5.96600 Y-4.26346
X5.96600 Y-4.31746
X5.96500 Y-4.31746
X5.96500 Y-4.31846
X5.96400 Y-4.31846
X5.96400 Y-4.31946
X5.95500 Y-4.31946
X5.95500 Y-4.35646
X5.95400 Y-4.35646
X5.95400 Y-4.35746
X5.95300 Y-4.35746
X5.95300 Y-4.35846
X5.88800 Y-4.35846
X5.88800 Y-4.31846
X5.88900 Y-4.31846
X5.88900 Y-4.31146
X5.89000 Y-4.31146
X5.89000 Y-4.27746
X5.88900 Y-4.27746
X5.88900 Y-4.27646
X5.88800 Y-4.27646
X5.88800 Y-4.27546
X5.88700 Y-4.27546
X5.88700 Y-4.27446
X5.88600 Y-4.27446
X5.88600 Y-4.27146
X5.88500 Y-4.27146
X5.88500 Y-4.26346
X5.88400 Y-4.26346
X5.88400 Y-4.21246
X5.96400 Y-4.21246
X5.96400 Y-4.21346
X5.96500 Y-4.21346
X5.96500 Y-4.21446
X5.96600 Y-4.21446
X5.96600 Y-4.26346
G01 Z-0.80000 F60.00000 ( plunge. )
G04 P0 ( dwell for no time -- G64 should not smooth over this point )
X5.96600 Y-4.26346
X5.96600 Y-4.31746
X5.96500 Y-4.31746
X5.96500 Y-4.31846
X5.96400 Y-4.31846
X5.96400 Y-4.31946
X5.95500 Y-4.31946
X5.95500 Y-4.35646
X5.95400 Y-4.35646
X5.95400 Y-4.35746
X5.95300 Y-4.35746
X5.95300 Y-4.35846
X5.88800 Y-4.35846
X5.88800 Y-4.31846
X5.88900 Y-4.31846
X5.88900 Y-4.31146
X5.89000 Y-4.31146
X5.89000 Y-4.27746
X5.88900 Y-4.27746
X5.88900 Y-4.27646
X5.88800 Y-4.27646
X5.88800 Y-4.27546
X5.88700 Y-4.27546
X5.88700 Y-4.27446
X5.88600 Y-4.27446
X5.88600 Y-4.27146
X5.88500 Y-4.27146
X5.88500 Y-4.26346
X5.88400 Y-4.26346
X5.88400 Y-4.21246
X5.96400 Y-4.21246
X5.96400 Y-4.21346
X5.96500 Y-4.21346
X5.96500 Y-4.21446
X5.96600 Y-4.21446
X5.96600 Y-4.26346
G01 Z-1.20000 F60.00000 ( plunge. )
G04 P0 ( dwell for no time -- G64 should not smooth over this point )
X5.96600 Y-4.26346
X5.96600 Y-4.31746
X5.96500 Y-4.31746
X5.96500 Y-4.31846
X5.96400 Y-4.31846
X5.96400 Y-4.31946
X5.95500 Y-4.31946
X5.95500 Y-4.35646
X5.95400 Y-4.35646
X5.95400 Y-4.35746
X5.95300 Y-4.35746
X5.95300 Y-4.35846
X5.88800 Y-4.35846
X5.88800 Y-4.31846
X5.88900 Y-4.31846
X5.88900 Y-4.31146
X5.89000 Y-4.31146
X5.89000 Y-4.27746
X5.88900 Y-4.27746
X5.88900 Y-4.27646
X5.88800 Y-4.27646
X5.88800 Y-4.27546
X5.88700 Y-4.27546
X5.88700 Y-4.27446
X5.88600 Y-4.27446
X5.88600 Y-4.27146
X5.88500 Y-4.27146
X5.88500 Y-4.26346
X5.88400 Y-4.26346
X5.88400 Y-4.21246
X5.96400 Y-4.21246
X5.96400 Y-4.21346
X5.96500 Y-4.21346
X5.96500 Y-4.21446
X5.96600 Y-4.21446
X5.96600 Y-4.26346

G04 P0 ( dwell for no time -- G64 should not smooth over this point )
G00 Z10.00000 ( retract )

M9 ( Coolant off. )
M2 ( Program end. )

