(G-CODE GENERATED BY FLATCAM v2024.4 - www.flatcam.org - Version Date: 2024/04/15)

(Name: test_CNC-Edge_Cuts.gbr_cutout_cnc)
(Type: G-code from Geometry)
(Units: MM)

(Created on Thursday, 09 April 2026 at 12:49)



G01 F120.00

M5
G00 Z15.0000
G00 X0.0000 Y0.0000
T1
M6    
(MSG, Change to Tool Dia = 2.4000)
M0
G00 Z15.0000

M03
G01 F120.00
G00 X7.4000 Y1.3250
G01 F60.00
G01 Z-0.6000
G01 F120.00
G01 X0.0000 Y1.3250
G01 X-0.0662 Y1.3233
G01 X-0.1956 Y1.3105
G01 X-0.3208 Y1.2856
G01 X-0.4452 Y1.2479
G01 X-0.5654 Y1.1983
G01 X-0.6822 Y1.1358
G01 X-0.7883 Y1.0650
G01 X-0.8889 Y0.9826
G01 X-0.9809 Y0.8907
G01 X-1.0650 Y0.7883
G01 X-1.1371 Y0.6801
G01 X-1.1972 Y0.5676
G01 X-1.2471 Y0.4475
G01 X-1.2850 Y0.3231
G01 X-1.3108 Y0.1932
G01 X-1.3233 Y0.0662
G01 X-1.3250 Y-0.0000
G01 X-1.3250 Y-13.9500
G00 X-1.3250 Y-13.9500
G01 F60.00
G01 Z-1.2000
G01 F120.00
G01 X-1.3250 Y-0.0000
G01 X-1.3233 Y0.0662
G01 X-1.3108 Y0.1932
G01 X-1.2850 Y0.3231
G01 X-1.2471 Y0.4475
G01 X-1.1972 Y0.5676
G01 X-1.1371 Y0.6801
G01 X-1.0650 Y0.7883
G01 X-0.9809 Y0.8907
G01 X-0.8889 Y0.9826
G01 X-0.7883 Y1.0650
G01 X-0.6822 Y1.1358
G01 X-0.5654 Y1.1983
G01 X-0.4452 Y1.2479
G01 X-0.3208 Y1.2856
G01 X-0.1956 Y1.3105
G01 X-0.0662 Y1.3233
G01 X0.0000 Y1.3250
G01 X7.4000 Y1.3250
G00 X7.4000 Y1.3250
G01 F60.00
G01 Z-1.8000
G01 F120.00
G01 X0.0000 Y1.3250
G01 X-0.0662 Y1.3233
G01 X-0.1956 Y1.3105
G01 X-0.3208 Y1.2856
G01 X-0.4452 Y1.2479
G01 X-0.5654 Y1.1983
G01 X-0.6822 Y1.1358
G01 X-0.7883 Y1.0650
G01 X-0.8889 Y0.9826
G01 X-0.9809 Y0.8907
G01 X-1.0650 Y0.7883
G01 X-1.1371 Y0.6801
G01 X-1.1972 Y0.5676
G01 X-1.2471 Y0.4475
G01 X-1.2850 Y0.3231
G01 X-1.3108 Y0.1932
G01 X-1.3233 Y0.0662
G01 X-1.3250 Y-0.0000
G01 X-1.3250 Y-13.9500
G00 Z2.0000
G00 X13.8000 Y1.3250
G01 F60.00
G01 Z-0.6000
G01 F120.00
G01 X21.0000 Y1.3250
G01 X21.0662 Y1.3233
G01 X21.1956 Y1.3105
G01 X21.3208 Y1.2856
G01 X21.4452 Y1.2479
G01 X21.5654 Y1.1983
G01 X21.6822 Y1.1358
G01 X21.7903 Y1.0635
G01 X21.8907 Y0.9809
G01 X21.9809 Y0.8907
G01 X22.0635 Y0.7903
G01 X22.1371 Y0.6801
G01 X22.1983 Y0.5654
G01 X22.2479 Y0.4452
G01 X22.2850 Y0.3231
G01 X22.3108 Y0.1932
G01 X22.3233 Y0.0662
G01 X22.3250 Y-0.0000
G01 X22.3250 Y-13.9500
G00 X22.3250 Y-13.9500
G01 F60.00
G01 Z-1.2000
G01 F120.00
G01 X22.3250 Y-0.0000
G01 X22.3233 Y0.0662
G01 X22.3108 Y0.1932
G01 X22.2850 Y0.3231
G01 X22.2479 Y0.4452
G01 X22.1983 Y0.5654
G01 X22.1371 Y0.6801
G01 X22.0635 Y0.7903
G01 X21.9809 Y0.8907
G01 X21.8907 Y0.9809
G01 X21.7903 Y1.0635
G01 X21.6822 Y1.1358
G01 X21.5654 Y1.1983
G01 X21.4452 Y1.2479
G01 X21.3208 Y1.2856
G01 X21.1956 Y1.3105
G01 X21.0662 Y1.3233
G01 X21.0000 Y1.3250
G01 X13.8000 Y1.3250
G00 X13.8000 Y1.3250
G01 F60.00
G01 Z-1.8000
G01 F120.00
G01 X21.0000 Y1.3250
G01 X21.0662 Y1.3233
G01 X21.1956 Y1.3105
G01 X21.3208 Y1.2856
G01 X21.4452 Y1.2479
G01 X21.5654 Y1.1983
G01 X21.6822 Y1.1358
G01 X21.7903 Y1.0635
G01 X21.8907 Y0.9809
G01 X21.9809 Y0.8907
G01 X22.0635 Y0.7903
G01 X22.1371 Y0.6801
G01 X22.1983 Y0.5654
G01 X22.2479 Y0.4452
G01 X22.2850 Y0.3231
G01 X22.3108 Y0.1932
G01 X22.3233 Y0.0662
G01 X22.3250 Y-0.0000
G01 X22.3250 Y-13.9500
G00 Z2.0000
G00 X22.3250 Y-20.3500
G01 F60.00
G01 Z-0.6000
G01 F120.00
G01 X22.3250 Y-34.5000
G01 X22.3233 Y-34.5662
G01 X22.3108 Y-34.6932
G01 X22.2850 Y-34.8231
G01 X22.2471 Y-34.9475
G01 X22.1983 Y-35.0654
G01 X22.1371 Y-35.1801
G01 X22.0635 Y-35.2903
G01 X21.9809 Y-35.3907
G01 X21.8889 Y-35.4826
G01 X21.7903 Y-35.5635
G01 X21.6822 Y-35.6358
G01 X21.5676 Y-35.6972
G01 X21.4452 Y-35.7479
G01 X21.3208 Y-35.7856
G01 X21.1956 Y-35.8105
G01 X21.0662 Y-35.8233
G01 X21.0000 Y-35.8250
G01 X13.8000 Y-35.8250
G00 X13.8000 Y-35.8250
G01 F60.00
G01 Z-1.2000
G01 F120.00
G01 X21.0000 Y-35.8250
G01 X21.0662 Y-35.8233
G01 X21.1956 Y-35.8105
G01 X21.3208 Y-35.7856
G01 X21.4452 Y-35.7479
G01 X21.5676 Y-35.6972
G01 X21.6822 Y-35.6358
G01 X21.7903 Y-35.5635
G01 X21.8889 Y-35.4826
G01 X21.9809 Y-35.3907
G01 X22.0635 Y-35.2903
G01 X22.1371 Y-35.1801
G01 X22.1983 Y-35.0654
G01 X22.2471 Y-34.9475
G01 X22.2850 Y-34.8231
G01 X22.3108 Y-34.6932
G01 X22.3233 Y-34.5662
G01 X22.3250 Y-34.5000
G01 X22.3250 Y-20.3500
G00 X22.3250 Y-20.3500
G01 F60.00
G01 Z-1.8000
G01 F120.00
G01 X22.3250 Y-34.5000
G01 X22.3233 Y-34.5662
G01 X22.3108 Y-34.6932
G01 X22.2850 Y-34.8231
G01 X22.2471 Y-34.9475
G01 X22.1983 Y-35.0654
G01 X22.1371 Y-35.1801
G01 X22.0635 Y-35.2903
G01 X21.9809 Y-35.3907
G01 X21.8889 Y-35.4826
G01 X21.7903 Y-35.5635
G01 X21.6822 Y-35.6358
G01 X21.5676 Y-35.6972
G01 X21.4452 Y-35.7479
G01 X21.3208 Y-35.7856
G01 X21.1956 Y-35.8105
G01 X21.0662 Y-35.8233
G01 X21.0000 Y-35.8250
G01 X13.8000 Y-35.8250
G00 Z2.0000
G00 X7.4000 Y-35.8250
G01 F60.00
G01 Z-0.6000
G01 F120.00
G01 X0.0000 Y-35.8250
G01 X-0.0662 Y-35.8233
G01 X-0.1956 Y-35.8105
G01 X-0.3231 Y-35.7850
G01 X-0.4452 Y-35.7479
G01 X-0.5676 Y-35.6972
G01 X-0.6822 Y-35.6358
G01 X-0.7903 Y-35.5635
G01 X-0.8889 Y-35.4826
G01 X-0.9809 Y-35.3907
G01 X-1.0650 Y-35.2883
G01 X-1.1371 Y-35.1801
G01 X-1.1983 Y-35.0654
G01 X-1.2471 Y-34.9475
G01 X-1.2850 Y-34.8231
G01 X-1.3108 Y-34.6932
G01 X-1.3233 Y-34.5662
G01 X-1.3250 Y-34.5000
G01 X-1.3250 Y-20.3500
G00 X-1.3250 Y-20.3500
G01 F60.00
G01 Z-1.2000
G01 F120.00
G01 X-1.3250 Y-34.5000
G01 X-1.3233 Y-34.5662
G01 X-1.3108 Y-34.6932
G01 X-1.2850 Y-34.8231
G01 X-1.2471 Y-34.9475
G01 X-1.1983 Y-35.0654
G01 X-1.1371 Y-35.1801
G01 X-1.0650 Y-35.2883
G01 X-0.9809 Y-35.3907
G01 X-0.8889 Y-35.4826
G01 X-0.7903 Y-35.5635
G01 X-0.6822 Y-35.6358
G01 X-0.5676 Y-35.6972
G01 X-0.4452 Y-35.7479
G01 X-0.3231 Y-35.7850
G01 X-0.1956 Y-35.8105
G01 X-0.0662 Y-35.8233
G01 X0.0000 Y-35.8250
G01 X7.4000 Y-35.8250
G00 X7.4000 Y-35.8250
G01 F60.00
G01 Z-1.8000
G01 F120.00
G01 X0.0000 Y-35.8250
G01 X-0.0662 Y-35.8233
G01 X-0.1956 Y-35.8105
G01 X-0.3231 Y-35.7850
G01 X-0.4452 Y-35.7479
G01 X-0.5676 Y-35.6972
G01 X-0.6822 Y-35.6358
G01 X-0.7903 Y-35.5635
G01 X-0.8889 Y-35.4826
G01 X-0.9809 Y-35.3907
G01 X-1.0650 Y-35.2883
G01 X-1.1371 Y-35.1801
G01 X-1.1983 Y-35.0654
G01 X-1.2471 Y-34.9475
G01 X-1.2850 Y-34.8231
G01 X-1.3108 Y-34.6932
G01 X-1.3233 Y-34.5662
G01 X-1.3250 Y-34.5000
G01 X-1.3250 Y-20.3500
G00 Z2.0000
M05
G00 Z2.0000
G00 Z15.00


