(G-CODE GENERATED BY FLATCAM v2024.4 - www.flatcam.org - Version Date: 2024/04/15)

(Name: test_CNC-F_Silkscreen.gbr_ncc_cnc)
(Type: G-code from Geometry)
(Units: MM)

(Created on Thursday, 09 April 2026 at 12:49)

(This preprocessor is the default preprocessor used by FlatCAM.)
(It is made to work with MACH3 compatible motion controllers.)

(TOOL DIAMETER: 1.0 mm)
(Feedrate_XY: 120.0 mm/min)
(Feedrate_Z: 60.0 mm/min)
(Feedrate rapids 1500.0 mm/min)

(Z_Cut: -2.4 mm)
(Z_Move: 2.0 mm)
(Z Start: None mm)
(Z End: 15.0 mm)
(X,Y End: None mm)
(Steps per circle: 64)
(Preprocessor Geometry: default)

(X range:   -0.7500 ...   21.3500  mm)
(Y range:  -31.1508 ...    0.7500  mm)

(Spindle Speed: 0.0 RPM)
G21
G90
G94

G01 F120.00

M5
G00 Z15.0000
G00 X0.0000 Y0.0000
T1
M6    
(MSG, Change to Tool Dia = 1.0000)
M0
G00 Z15.0000

M03
G01 F120.00
G00 X-0.3212 Y0.3558
G01 F60.00
G01 Z-2.4000
G01 F120.00
G01 X-0.3389 Y0.3389
G01 X-0.3558 Y0.3212
G01 X-0.3394 Y0.3394
G01 X-0.3212 Y0.3558
G00 Z2.0000
G00 X-0.2796 Y0.3903
G01 F60.00
G01 Z-2.4000
G01 F120.00
G01 X-0.2989 Y0.3752
G01 X-0.3175 Y0.3591
G01 X-0.2993 Y0.3756
G01 X-0.2796 Y0.3903
G00 Z2.0000
G00 X-0.2348 Y0.4205
G01 F60.00
G01 Z-2.4000
G01 F120.00
G01 X-0.2556 Y0.4073
G01 X-0.2756 Y0.3932
G01 X-0.2559 Y0.4078
G01 X-0.2348 Y0.4205
G00 Z2.0000
G00 X-0.1874 Y0.4461
G01 F60.00
G01 Z-2.4000
G01 F120.00
G01 X-0.2093 Y0.4351
G01 X-0.2306 Y0.4230
G01 X-0.2096 Y0.4356
G01 X-0.1874 Y0.4461
G00 Z2.0000
G00 X-0.1376 Y0.4670
G01 F60.00
G01 Z-2.4000
G01 F120.00
G01 X-0.1605 Y0.4582
G01 X-0.1829 Y0.4482
G01 X-0.1607 Y0.4587
G01 X-0.1376 Y0.4670
G00 Z2.0000
G00 X-0.0860 Y0.4829
G01 F60.00
G01 Z-2.4000
G01 F120.00
G01 X-0.1097 Y0.4763
G01 X-0.1330 Y0.4686
G01 X-0.1098 Y0.4769
G01 X-0.0860 Y0.4829
G00 Z2.0000
G00 X-0.0331 Y0.4937
G01 F60.00
G01 Z-2.4000
G01 F120.00
G01 X-0.0573 Y0.4895
G01 X-0.0812 Y0.4841
G01 X-0.0574 Y0.4900
G01 X-0.0331 Y0.4937
G00 Z2.0000
G00 X0.0206 Y0.4992
G01 F60.00
G01 Z-2.4000
G01 F120.00
G01 X-0.0039 Y0.4974
G01 X-0.0331 Y0.4937
G01 X-0.0040 Y0.4980
G01 X0.0206 Y0.4992
G00 Z2.0000
G00 X0.0500 Y0.5000
G01 F60.00
G01 Z-2.4000
G01 F120.00
G01 X0.0377 Y0.4999
G01 X0.0255 Y0.4994
G01 X0.0377 Y0.5000
G01 X0.0500 Y0.5000
G00 Z2.0000
G00 X-0.3591 Y0.3175
G01 F60.00
G01 Z-2.4000
G01 F120.00
G01 X-0.3752 Y0.2989
G01 X-0.3932 Y0.2756
G01 X-0.3756 Y0.2993
G01 X-0.3591 Y0.3175
G00 Z2.0000
G00 X-0.3932 Y0.2756
G01 F60.00
G01 Z-2.4000
G01 F120.00
G01 X-0.4073 Y0.2556
G01 X-0.4205 Y0.2348
G01 X-0.4078 Y0.2559
G01 X-0.3932 Y0.2756
G00 Z2.0000
G00 X-0.4205 Y0.2348
G01 F60.00
G01 Z-2.4000
G01 F120.00
G01 X-0.4351 Y0.2093
G01 X-0.4461 Y0.1874
G01 X-0.4356 Y0.2096
G01 X-0.4205 Y0.2348
G00 Z2.0000
G00 X-0.4482 Y0.1829
G01 F60.00
G01 Z-2.4000
G01 F120.00
G01 X-0.4582 Y0.1605
G01 X-0.4670 Y0.1376
G01 X-0.4587 Y0.1607
G01 X-0.4482 Y0.1829
G00 Z2.0000
G00 X-0.4686 Y0.1330
G01 F60.00
G01 Z-2.4000
G01 F120.00
G01 X-0.4763 Y0.1097
G01 X-0.4829 Y0.0860
G01 X-0.4769 Y0.1098
G01 X-0.4686 Y0.1330
G00 Z2.0000
G00 X-0.4841 Y0.0812
G01 F60.00
G01 Z-2.4000
G01 F120.00
G01 X-0.4895 Y0.0573
G01 X-0.4937 Y0.0331
G01 X-0.4900 Y0.0574
G01 X-0.4841 Y0.0812
G00 Z2.0000
G00 X-0.4944 Y0.0283
G01 F60.00
G01 Z-2.4000
G01 F120.00
G01 X-0.4974 Y0.0039
G01 X-0.4992 Y-0.0206
G01 X-0.4980 Y0.0040
G01 X-0.4944 Y0.0283
G00 Z2.0000
G00 X-0.4994 Y-0.0255
G01 F60.00
G01 Z-2.4000
G01 F120.00
G01 X-0.4999 Y-0.0377
G01 X-0.5000 Y-0.0500
G01 X-0.5000 Y-0.0377
G01 X-0.4994 Y-0.0255
G00 Z2.0000
G00 X0.6000 Y-0.8349
G01 F60.00
G01 Z-2.4000
G01 F120.00
G01 X0.6896 Y-0.6512
G01 X0.7162 Y-0.6000
G01 X1.3921 Y-0.6000
G01 X1.2256 Y-0.9210
G01 X1.0092 Y-1.3643
G01 X0.8038 Y-1.8128
G01 X0.6094 Y-2.2662
G01 X0.6000 Y-2.2897
G01 X0.6000 Y-4.0421
G01 X0.6636 Y-3.8414
G01 X0.8193 Y-3.3888
G01 X0.9860 Y-2.9402
G01 X1.1637 Y-2.4959
G01 X1.3523 Y-2.0560
G01 X1.5516 Y-1.6209
G01 X1.7615 Y-1.1908
G01 X1.9819 Y-0.7659
G01 X2.0733 Y-0.6000
G01 X2.7595 Y-0.6000
G01 X2.7347 Y-0.6424
G01 X2.5111 Y-1.0488
G01 X2.2975 Y-1.4605
G01 X2.0940 Y-1.8774
G01 X1.9008 Y-2.2991
G01 X1.7181 Y-2.7255
G01 X1.5458 Y-3.1562
G01 X1.3842 Y-3.5910
G01 X1.2333 Y-4.0296
G01 X1.0932 Y-4.4718
G01 X0.9640 Y-4.9173
G01 X0.8458 Y-5.3659
G01 X0.7386 Y-5.8172
G01 X0.6426 Y-6.2710
G01 X0.6000 Y-6.4994
G01 X2.5637 Y-5.9216
G01 X2.5919 Y-5.8032
G01 X2.6988 Y-5.3974
G01 X2.8157 Y-4.9943
G01 X2.9425 Y-4.5942
G01 X3.0790 Y-4.1974
G01 X3.2252 Y-3.8040
G01 X3.3811 Y-3.4143
G01 X3.5464 Y-3.0286
G01 X3.7212 Y-2.6470
G01 X3.9053 Y-2.2698
G01 X4.0985 Y-1.8973
G01 X4.3009 Y-1.5296
G01 X4.5122 Y-1.1670
G01 X4.7324 Y-0.8097
G01 X4.8688 Y-0.6000
G01 X4.1569 Y-0.6000
G01 X3.9976 Y-0.8586
G01 X3.7789 Y-1.2339
G01 X3.5694 Y-1.6145
G01 X3.3693 Y-2.0001
G01 X3.1788 Y-2.3905
G01 X2.9979 Y-2.7854
G01 X2.8267 Y-3.1847
G01 X2.6654 Y-3.5880
G01 X2.5141 Y-3.9952
G01 X2.3727 Y-4.4060
G01 X2.2415 Y-4.8201
G01 X2.1206 Y-5.2374
G01 X2.0098 Y-5.6574
G01 X1.9095 Y-6.0801
G01 X1.8195 Y-6.5051
G01 X1.7400 Y-6.9322
G01 X1.6710 Y-7.3611
G01 X1.6125 Y-7.7915
G01 X1.5646 Y-8.2233
G01 X1.5274 Y-8.6561
G01 X1.5007 Y-9.0897
G01 X1.4847 Y-9.5238
G01 X1.4794 Y-9.9582
G01 X1.4847 Y-10.3926
G01 X1.5007 Y-10.8267
G01 X1.5274 Y-11.2603
G01 X1.5646 Y-11.6931
G01 X1.6125 Y-12.1249
G01 X1.6710 Y-12.5553
G01 X1.7400 Y-12.9842
G01 X1.8195 Y-13.4113
G01 X1.9095 Y-13.8363
G01 X2.0098 Y-14.2589
G01 X2.1206 Y-14.6790
G01 X2.2415 Y-15.0962
G01 X2.3727 Y-15.5104
G01 X2.5141 Y-15.9211
G01 X2.6654 Y-16.3283
G01 X2.8267 Y-16.7317
G01 X2.9979 Y-17.1310
G01 X3.1788 Y-17.5259
G01 X3.3693 Y-17.9163
G01 X3.5694 Y-18.3019
G01 X3.7789 Y-18.6825
G01 X3.9976 Y-19.0578
G01 X4.2255 Y-19.4276
G01 X4.4624 Y-19.7918
G01 X4.6052 Y-20.0000
G01 X3.8821 Y-20.0000
G01 X3.7186 Y-19.7486
G01 X3.4830 Y-19.3663
G01 X3.2568 Y-18.9782
G01 X3.0402 Y-18.5847
G01 X2.8334 Y-18.1861
G01 X2.6364 Y-17.7824
G01 X2.4494 Y-17.3741
G01 X2.2724 Y-16.9613
G01 X2.1056 Y-16.5443
G01 X1.9491 Y-16.1233
G01 X1.8030 Y-15.6986
G01 X1.6674 Y-15.2704
G01 X1.5423 Y-14.8390
G01 X1.4278 Y-14.4047
G01 X1.3240 Y-13.9677
G01 X1.2310 Y-13.5283
G01 X1.1488 Y-13.0868
G01 X1.0775 Y-12.6434
G01 X1.0170 Y-12.1983
G01 X0.9675 Y-11.7519
G01 X0.9290 Y-11.3044
G01 X0.9014 Y-10.8561
G01 X0.8849 Y-10.4073
G01 X0.8794 Y-9.9582
G01 X0.8849 Y-9.5091
G01 X0.9014 Y-9.0602
G01 X0.9290 Y-8.6120
G01 X0.9675 Y-8.1645
G01 X1.0170 Y-7.7181
G01 X1.0775 Y-7.2730
G01 X1.1488 Y-6.8296
G01 X1.2310 Y-6.3880
G01 X1.3240 Y-5.9486
G01 X1.4278 Y-5.5116
G01 X1.5423 Y-5.0773
G01 X1.6674 Y-4.6460
G01 X1.8030 Y-4.2178
G01 X1.9491 Y-3.7931
G01 X2.1056 Y-3.3721
G01 X2.2724 Y-2.9551
G01 X2.4494 Y-2.5423
G01 X2.6364 Y-2.1339
G01 X2.8334 Y-1.7303
G01 X3.0402 Y-1.3316
G01 X3.2568 Y-0.9381
G01 X3.4539 Y-0.6000
G01 X5.5914 Y-0.6000
G01 X5.4601 Y-0.7913
G01 X5.2393 Y-1.1307
G01 X5.0269 Y-1.4755
G01 X4.8230 Y-1.8254
G01 X4.6277 Y-2.1801
G01 X4.4412 Y-2.5396
G01 X4.2636 Y-2.9035
G01 X4.0949 Y-3.2717
G01 X3.9354 Y-3.6439
G01 X3.7850 Y-4.0199
G01 X3.7503 Y-4.1133
G00 Z2.0000
G00 X4.7677 Y-4.6288
G01 F60.00
G01 Z-2.4000
G01 F120.00
G01 X4.8663 Y-4.6028
G01 X4.9881 Y-4.5739
G01 X5.1106 Y-4.5480
G01 X5.2336 Y-4.5251
G01 X5.3572 Y-4.5052
G01 X5.4812 Y-4.4884
G01 X5.6056 Y-4.4746
G01 X5.7304 Y-4.4638
G01 X5.8553 Y-4.4561
G01 X5.9804 Y-4.4515
G01 X6.1055 Y-4.4500
G01 X6.2307 Y-4.4515
G01 X6.3558 Y-4.4561
G01 X6.4807 Y-4.4638
G01 X6.6054 Y-4.4746
G01 X6.7298 Y-4.4884
G01 X6.8539 Y-4.5052
G01 X6.9774 Y-4.5251
G01 X7.1005 Y-4.5480
G01 X7.2230 Y-4.5739
G01 X7.3447 Y-4.6028
G01 X7.4658 Y-4.6347
G01 X7.5860 Y-4.6696
G01 X7.7053 Y-4.7074
G01 X7.8237 Y-4.7481
G01 X7.9410 Y-4.7917
G01 X8.0572 Y-4.8382
G01 X8.1723 Y-4.8875
G01 X8.2861 Y-4.9397
G01 X8.3986 Y-4.9946
G01 X8.5097 Y-5.0522
G01 X8.6193 Y-5.1126
G01 X8.7275 Y-5.1756
G01 X8.8340 Y-5.2412
G01 X8.9389 Y-5.3095
G01 X9.0422 Y-5.3803
G01 X9.1436 Y-5.4536
G01 X9.2432 Y-5.5294
G01 X9.3409 Y-5.6076
G01 X9.4367 Y-5.6882
G01 X9.5305 Y-5.7711
G01 X9.6222 Y-5.8563
G01 X9.7118 Y-5.9438
G01 X9.7992 Y-6.0333
G01 X9.8844 Y-6.1250
G01 X9.9673 Y-6.2188
G01 X10.0479 Y-6.3146
G01 X10.1261 Y-6.4123
G01 X10.2019 Y-6.5119
G01 X10.2752 Y-6.6134
G01 X10.3460 Y-6.7166
G01 X10.4143 Y-6.8215
G01 X10.4799 Y-6.9281
G01 X10.5430 Y-7.0362
G01 X10.6033 Y-7.1459
G01 X10.6610 Y-7.2570
G01 X10.7159 Y-7.3695
G01 X10.7680 Y-7.4833
G01 X10.7729 Y-7.4947
G00 Z2.0000
G00 X10.1243 Y-7.5254
G01 F60.00
G01 Z-2.4000
G01 F120.00
G01 X10.0742 Y-7.4287
G01 X10.0209 Y-7.3320
G01 X9.9653 Y-7.2365
G01 X9.9074 Y-7.1425
G01 X9.8471 Y-7.0499
G01 X9.7847 Y-6.9589
G01 X9.7200 Y-6.8694
G01 X9.6531 Y-6.7815
G01 X9.5841 Y-6.6952
G01 X9.5130 Y-6.6107
G01 X9.4398 Y-6.5280
G01 X9.3646 Y-6.4471
G01 X9.2875 Y-6.3680
G01 X9.2085 Y-6.2909
G01 X9.1275 Y-6.2157
G01 X9.0448 Y-6.1426
G01 X8.9603 Y-6.0715
G01 X8.8741 Y-6.0024
G01 X8.7862 Y-5.9356
G01 X8.6967 Y-5.8709
G01 X8.6056 Y-5.8084
G01 X8.5130 Y-5.7482
G01 X8.4190 Y-5.6902
G01 X8.3236 Y-5.6346
G01 X8.2268 Y-5.5814
G01 X8.1288 Y-5.5305
G01 X8.0295 Y-5.4820
G01 X7.9291 Y-5.4361
G01 X7.8276 Y-5.3925
G01 X7.7251 Y-5.3515
G01 X7.6215 Y-5.3131
G01 X7.5171 Y-5.2771
G01 X7.4118 Y-5.2438
G01 X7.3057 Y-5.2130
G01 X7.1989 Y-5.1849
G01 X7.0915 Y-5.1593
G01 X6.9834 Y-5.1365
G01 X6.8749 Y-5.1163
G01 X6.7658 Y-5.0987
G01 X6.6564 Y-5.0838
G01 X6.5466 Y-5.0717
G01 X6.4366 Y-5.0622
G01 X6.3263 Y-5.0554
G01 X6.2160 Y-5.0514
G01 X6.1055 Y-5.0500
G01 X5.9951 Y-5.0514
G01 X5.8847 Y-5.0554
G01 X5.7745 Y-5.0622
G01 X5.6645 Y-5.0717
G01 X5.5547 Y-5.0838
G01 X5.4452 Y-5.0987
G01 X5.3362 Y-5.1163
G01 X5.2276 Y-5.1365
G01 X5.1196 Y-5.1593
G01 X5.0121 Y-5.1849
G01 X4.9053 Y-5.2130
G01 X4.7993 Y-5.2438
G01 X4.6940 Y-5.2771
G01 X4.5895 Y-5.3131
G01 X4.4860 Y-5.3515
G01 X4.3835 Y-5.3925
G01 X4.2819 Y-5.4361
G01 X4.1815 Y-5.4820
G01 X4.0823 Y-5.5305
G01 X4.0253 Y-5.5600
G01 X3.3868 Y-6.7542
G01 X3.4163 Y-6.7254
G01 X3.4865 Y-6.6603
G01 X3.5582 Y-6.5969
G01 X3.6314 Y-6.5353
G01 X3.7061 Y-6.4754
G01 X3.7823 Y-6.4175
G01 X3.8599 Y-6.3614
G01 X3.9388 Y-6.3073
G01 X4.0190 Y-6.2551
G01 X4.1005 Y-6.2049
G01 X4.1832 Y-6.1567
G01 X4.2671 Y-6.1105
G01 X4.3520 Y-6.0664
G01 X4.4381 Y-6.0244
G01 X4.5251 Y-5.9846
G01 X4.6131 Y-5.9469
G01 X4.7019 Y-5.9113
G01 X4.7917 Y-5.8780
G01 X4.8822 Y-5.8468
G01 X4.9734 Y-5.8179
G01 X5.0654 Y-5.7913
G01 X5.1579 Y-5.7669
G01 X5.2510 Y-5.7448
G01 X5.3447 Y-5.7249
G01 X5.4388 Y-5.7074
G01 X5.5333 Y-5.6922
G01 X5.6281 Y-5.6793
G01 X5.7233 Y-5.6688
G01 X5.8186 Y-5.6606
G01 X5.9142 Y-5.6547
G01 X6.0098 Y-5.6512
G01 X6.1055 Y-5.6500
G01 X6.2012 Y-5.6512
G01 X6.2969 Y-5.6547
G01 X6.3924 Y-5.6606
G01 X6.4878 Y-5.6688
G01 X6.5829 Y-5.6793
G01 X6.6778 Y-5.6922
G01 X6.7723 Y-5.7074
G01 X6.8664 Y-5.7249
G01 X6.9600 Y-5.7448
G01 X7.0532 Y-5.7669
G01 X7.1457 Y-5.7913
G01 X7.2376 Y-5.8179
G01 X7.3289 Y-5.8468
G01 X7.4194 Y-5.8780
G01 X7.5091 Y-5.9113
G01 X7.5980 Y-5.9469
G01 X7.6860 Y-5.9846
G01 X7.7730 Y-6.0244
G01 X7.8590 Y-6.0664
G01 X7.9440 Y-6.1105
G01 X8.0278 Y-6.1567
G01 X8.1105 Y-6.2049
G01 X8.1920 Y-6.2551
G01 X8.2723 Y-6.3073
G01 X8.3512 Y-6.3614
G01 X8.4288 Y-6.4175
G01 X8.5049 Y-6.4754
G01 X8.5797 Y-6.5353
G01 X8.6529 Y-6.5969
G01 X8.7246 Y-6.6603
G01 X8.7947 Y-6.7254
G01 X8.8633 Y-6.7923
G01 X8.9301 Y-6.8608
G01 X8.9952 Y-6.9309
G01 X9.0586 Y-7.0026
G01 X9.1203 Y-7.0759
G01 X9.1801 Y-7.1506
G01 X9.2380 Y-7.2268
G01 X9.2941 Y-7.3043
G01 X9.3483 Y-7.3833
G01 X9.4044 Y-7.4699
G00 Z2.0000
G00 X8.8350 Y-7.6957
G01 F60.00
G01 Z-2.4000
G01 F120.00
G01 X8.8036 Y-7.6498
G01 X8.7561 Y-7.5842
G01 X8.7071 Y-7.5197
G01 X8.6565 Y-7.4565
G01 X8.6043 Y-7.3945
G01 X8.5507 Y-7.3339
G01 X8.4955 Y-7.2745
G01 X8.4390 Y-7.2165
G01 X8.3810 Y-7.1600
G01 X8.3217 Y-7.1049
G01 X8.2610 Y-7.0512
G01 X8.1990 Y-6.9991
G01 X8.1358 Y-6.9485
G01 X8.0713 Y-6.8994
G01 X8.0057 Y-6.8520
G01 X7.9389 Y-6.8062
G01 X7.8710 Y-6.7620
G01 X7.8021 Y-6.7195
G01 X7.7321 Y-6.6787
G01 X7.6611 Y-6.6397
G01 X7.5893 Y-6.6024
G01 X7.5165 Y-6.5668
G01 X7.4428 Y-6.5331
G01 X7.3684 Y-6.5012
G01 X7.2932 Y-6.4711
G01 X7.2173 Y-6.4429
G01 X7.1407 Y-6.4166
G01 X7.0635 Y-6.3921
G01 X6.9857 Y-6.3695
G01 X6.9074 Y-6.3489
G01 X6.8286 Y-6.3302
G01 X6.7493 Y-6.3134
G01 X6.6697 Y-6.2986
G01 X6.5897 Y-6.2857
G01 X6.5095 Y-6.2748
G01 X6.4290 Y-6.2659
G01 X6.3483 Y-6.2589
G01 X6.2675 Y-6.2540
G01 X6.1865 Y-6.2510
G01 X6.1055 Y-6.2500
G01 X6.0245 Y-6.2510
G01 X5.9436 Y-6.2540
G01 X5.8628 Y-6.2589
G01 X5.7821 Y-6.2659
G01 X5.7016 Y-6.2748
G01 X5.6213 Y-6.2857
G01 X5.5414 Y-6.2986
G01 X5.4617 Y-6.3134
G01 X5.3825 Y-6.3302
G01 X5.3037 Y-6.3489
G01 X5.2254 Y-6.3695
G01 X5.1476 Y-6.3921
G01 X5.0704 Y-6.4166
G01 X4.9938 Y-6.4429
G01 X4.9179 Y-6.4711
G01 X4.8427 Y-6.5012
G01 X4.7682 Y-6.5331
G01 X4.6946 Y-6.5668
G01 X4.6218 Y-6.6024
G01 X4.5499 Y-6.6397
G01 X4.4790 Y-6.6787
G01 X4.4090 Y-6.7195
G01 X4.3400 Y-6.7620
G01 X4.2722 Y-6.8062
G01 X4.2054 Y-6.8520
G01 X4.1397 Y-6.8994
G01 X4.0753 Y-6.9485
G01 X4.0120 Y-6.9991
G01 X3.9501 Y-7.0512
G01 X3.8894 Y-7.1049
G01 X3.8301 Y-7.1600
G01 X3.7721 Y-7.2165
G01 X3.7155 Y-7.2745
G01 X3.6604 Y-7.3339
G01 X3.6067 Y-7.3945
G01 X3.5546 Y-7.4565
G01 X3.5040 Y-7.5197
G01 X3.4549 Y-7.5842
G01 X3.4075 Y-7.6498
G01 X3.3617 Y-7.7166
G01 X3.3175 Y-7.7845
G01 X3.2750 Y-7.8535
G01 X3.2342 Y-7.9234
G01 X3.1952 Y-7.9944
G01 X3.1579 Y-8.0663
G01 X3.1224 Y-8.1391
G01 X3.0886 Y-8.2127
G01 X3.0567 Y-8.2871
G01 X3.0267 Y-8.3623
G01 X2.9984 Y-8.4383
G01 X2.9721 Y-8.5149
G01 X2.9476 Y-8.5921
G01 X2.9251 Y-8.6698
G01 X2.9044 Y-8.7482
G01 X2.8857 Y-8.8270
G01 X2.8689 Y-8.9062
G01 X2.8541 Y-8.9858
G01 X2.8485 Y-9.0206
G01 X2.8573 Y-8.8416
G01 X2.9614 Y-8.1400
G01 X3.1337 Y-7.4520
G01 X3.3727 Y-6.7842
G01 X3.6759 Y-6.1430
G01 X4.0406 Y-5.5346
G01 X4.4631 Y-4.9649
G01 X4.9394 Y-4.4394
G01 X5.4649 Y-3.9631
G01 X6.0346 Y-3.5406
G01 X6.6430 Y-3.1759
G01 X7.2842 Y-2.8727
G01 X7.9520 Y-2.6337
G01 X8.6400 Y-2.4614
G01 X9.3416 Y-2.3573
G01 X10.0500 Y-2.3225
G01 X10.7584 Y-2.3573
G01 X11.4600 Y-2.4614
G01 X12.1480 Y-2.6337
G01 X12.8158 Y-2.8727
G01 X13.4570 Y-3.1759
G01 X14.0654 Y-3.5406
G01 X14.6351 Y-3.9631
G01 X15.1606 Y-4.4394
G01 X15.6369 Y-4.9649
G01 X16.0594 Y-5.5346
G01 X16.4241 Y-6.1430
G01 X16.7273 Y-6.7842
G01 X16.9663 Y-7.4520
G01 X17.1386 Y-8.1400
G01 X17.2427 Y-8.8416
G01 X17.2775 Y-9.5500
G01 X17.2427 Y-10.2584
G01 X17.1386 Y-10.9600
G01 X16.9663 Y-11.6480
G01 X16.7273 Y-12.3158
G01 X16.4241 Y-12.9570
G01 X16.0594 Y-13.5654
G01 X15.6369 Y-14.1351
G01 X15.1606 Y-14.6606
G01 X14.6351 Y-15.1369
G01 X14.0654 Y-15.5594
G01 X13.4570 Y-15.9241
G01 X12.8158 Y-16.2273
G01 X12.1480 Y-16.4663
G01 X11.4600 Y-16.6386
G01 X10.7584 Y-16.7427
G01 X10.0500 Y-16.7775
G01 X9.3416 Y-16.7427
G01 X8.6400 Y-16.6386
G01 X7.9520 Y-16.4663
G01 X7.2842 Y-16.2273
G01 X6.6430 Y-15.9241
G01 X6.0346 Y-15.5594
G01 X5.4649 Y-15.1369
G01 X4.9394 Y-14.6606
G01 X4.4631 Y-14.1351
G01 X4.0406 Y-13.5654
G01 X3.6759 Y-12.9570
G01 X3.3727 Y-12.3158
G01 X3.1337 Y-11.6480
G01 X2.9614 Y-10.9600
G01 X2.8573 Y-10.2584
G01 X2.8225 Y-9.5500
G01 X2.8573 Y-8.8416
G01 X2.8485 Y-10.0794
G01 X2.8541 Y-10.1142
G01 X2.8689 Y-10.1938
G01 X2.8857 Y-10.2730
G01 X2.9044 Y-10.3518
G01 X2.9251 Y-10.4302
G01 X2.9476 Y-10.5079
G01 X2.9721 Y-10.5851
G01 X2.9984 Y-10.6617
G01 X3.0267 Y-10.7377
G01 X3.0567 Y-10.8129
G01 X3.0886 Y-10.8873
G01 X3.1224 Y-10.9609
G01 X3.1579 Y-11.0337
G01 X3.1952 Y-11.1056
G01 X3.2342 Y-11.1766
G01 X3.2750 Y-11.2465
G01 X3.3175 Y-11.3155
G01 X3.3617 Y-11.3834
G01 X3.4075 Y-11.4502
G01 X3.4549 Y-11.5158
G01 X3.5040 Y-11.5803
G01 X3.5546 Y-11.6435
G01 X3.6067 Y-11.7055
G01 X3.6604 Y-11.7661
G01 X3.7155 Y-11.8255
G01 X3.7721 Y-11.8835
G01 X3.8301 Y-11.9400
G01 X3.8894 Y-11.9951
G01 X3.9501 Y-12.0488
G01 X4.0120 Y-12.1009
G01 X4.0753 Y-12.1515
G01 X4.1397 Y-12.2006
G01 X4.2054 Y-12.2480
G01 X4.2722 Y-12.2938
G01 X4.3400 Y-12.3380
G01 X4.4090 Y-12.3805
G01 X4.4790 Y-12.4213
G01 X4.5499 Y-12.4603
G01 X4.6218 Y-12.4976
G01 X4.6946 Y-12.5332
G01 X4.7682 Y-12.5669
G01 X4.8427 Y-12.5988
G01 X4.9179 Y-12.6289
G01 X4.9938 Y-12.6571
G01 X5.0704 Y-12.6834
G01 X5.1476 Y-12.7079
G01 X5.2254 Y-12.7305
G01 X5.3037 Y-12.7511
G01 X5.3825 Y-12.7698
G01 X5.4617 Y-12.7866
G01 X5.5414 Y-12.8014
G01 X5.6213 Y-12.8143
G01 X5.7016 Y-12.8252
G01 X5.7821 Y-12.8341
G01 X5.8628 Y-12.8411
G01 X5.9436 Y-12.8460
G01 X6.0245 Y-12.8490
G01 X6.1055 Y-12.8500
G01 X6.1865 Y-12.8490
G01 X6.2675 Y-12.8460
G01 X6.3483 Y-12.8411
G01 X6.4290 Y-12.8341
G01 X6.5095 Y-12.8252
G01 X6.5897 Y-12.8143
G01 X6.6697 Y-12.8014
G01 X6.7493 Y-12.7866
G01 X6.8286 Y-12.7698
G01 X6.8635 Y-12.7615
G00 Z2.0000
G00 X6.7062 Y-13.4032
G01 F60.00
G01 Z-2.4000
G01 F120.00
G01 X6.6778 Y-13.4078
G01 X6.5829 Y-13.4207
G01 X6.4878 Y-13.4312
G01 X6.3924 Y-13.4394
G01 X6.2969 Y-13.4453
G01 X6.2012 Y-13.4488
G01 X6.1055 Y-13.4500
G01 X6.0098 Y-13.4488
G01 X5.9142 Y-13.4453
G01 X5.8186 Y-13.4394
G01 X5.7233 Y-13.4312
G01 X5.6281 Y-13.4207
G01 X5.5333 Y-13.4078
G01 X5.4388 Y-13.3926
G01 X5.3447 Y-13.3751
G01 X5.2510 Y-13.3552
G01 X5.1579 Y-13.3331
G01 X5.0654 Y-13.3087
G01 X4.9734 Y-13.2821
G01 X4.8822 Y-13.2532
G01 X4.7917 Y-13.2220
G01 X4.7019 Y-13.1887
G01 X4.6131 Y-13.1531
G01 X4.5251 Y-13.1154
G01 X4.4381 Y-13.0756
G01 X4.3520 Y-13.0336
G01 X4.2671 Y-12.9895
G01 X4.1832 Y-12.9433
G01 X4.1005 Y-12.8951
G01 X4.0190 Y-12.8449
G01 X3.9388 Y-12.7927
G01 X3.8599 Y-12.7386
G01 X3.7823 Y-12.6825
G01 X3.7061 Y-12.6246
G01 X3.6314 Y-12.5647
G01 X3.5582 Y-12.5031
G01 X3.4865 Y-12.4397
G01 X3.4163 Y-12.3746
G01 X3.3868 Y-12.3458
G01 X4.0253 Y-13.5400
G01 X4.0823 Y-13.5695
G01 X4.1815 Y-13.6180
G01 X4.2819 Y-13.6639
G01 X4.3835 Y-13.7075
G01 X4.4860 Y-13.7485
G01 X4.5895 Y-13.7869
G01 X4.6940 Y-13.8229
G01 X4.7993 Y-13.8562
G01 X4.9053 Y-13.8870
G01 X5.0121 Y-13.9151
G01 X5.1196 Y-13.9407
G01 X5.2276 Y-13.9635
G01 X5.3362 Y-13.9837
G01 X5.4452 Y-14.0013
G01 X5.5547 Y-14.0162
G01 X5.6645 Y-14.0283
G01 X5.7745 Y-14.0378
G01 X5.8847 Y-14.0446
G01 X5.9951 Y-14.0486
G01 X6.1055 Y-14.0500
G01 X6.2160 Y-14.0486
G01 X6.3263 Y-14.0446
G01 X6.4366 Y-14.0378
G01 X6.5466 Y-14.0283
G01 X6.6564 Y-14.0162
G01 X6.7658 Y-14.0013
G01 X6.8646 Y-13.9854
G00 Z2.0000
G00 X6.7062 Y-13.4438
G01 F60.00
G01 Z-2.4000
G01 F120.00
G01 X6.7069 Y-13.4707
G01 X6.7089 Y-13.4976
G01 X6.7122 Y-13.5244
G01 X6.7168 Y-13.5510
G01 X6.7227 Y-13.5772
G01 X6.7703 Y-13.7677
G01 X6.7752 Y-13.7860
G01 X6.7837 Y-13.8131
G01 X6.7926 Y-13.8371
G01 X6.8037 Y-13.8632
G01 X6.8119 Y-13.8803
G01 X6.8633 Y-13.9828
G01 X6.8768 Y-14.0074
G01 X6.8897 Y-14.0283
G01 X6.8972 Y-14.0397
G01 X6.9137 Y-14.0625
G01 X6.9298 Y-14.0827
G01 X6.9402 Y-14.0947
G01 X6.9568 Y-14.1127
G01 X7.0578 Y-14.2137
G01 X7.0706 Y-14.2260
G01 X7.0823 Y-14.2367
G01 X7.1021 Y-14.2534
G01 X7.1244 Y-14.2705
G01 X7.1457 Y-14.2851
G01 X7.1696 Y-14.2999
G01 X7.1923 Y-14.3124
G01 X7.2175 Y-14.3248
G01 X7.2413 Y-14.3350
G01 X7.2728 Y-14.3466
G01 X7.4234 Y-14.3967
G01 X7.4470 Y-14.4036
G01 X7.4623 Y-14.4075
G01 X7.4877 Y-14.4129
G01 X7.5154 Y-14.4174
G01 X7.5411 Y-14.4203
G01 X7.5569 Y-14.4214
G01 X7.5814 Y-14.4224
G01 X7.6848 Y-14.4224
G01 X7.7053 Y-14.4221
G01 X7.7333 Y-14.4203
G01 X7.7590 Y-14.4174
G01 X7.7868 Y-14.4129
G01 X7.8121 Y-14.4075
G01 X7.8393 Y-14.4003
G01 X7.8588 Y-14.3942
G01 X8.0016 Y-14.3466
G01 X8.0165 Y-14.3413
G01 X8.0339 Y-14.3516
G01 X8.0555 Y-14.3631
G01 X8.0710 Y-14.3706
G01 X8.0934 Y-14.3806
G01 X8.1163 Y-14.3894
G01 X8.1325 Y-14.3951
G01 X8.1442 Y-14.3988
G01 X8.1679 Y-14.4053
G01 X8.1846 Y-14.4093
G01 X8.2086 Y-14.4141
G01 X8.2256 Y-14.4168
G01 X8.2500 Y-14.4198
G01 X8.2744 Y-14.4216
G01 X8.2916 Y-14.4223
G01 X8.3162 Y-14.4223
G01 X8.3284 Y-14.4218
G01 X8.3578 Y-14.4198
G01 X8.3822 Y-14.4168
G01 X8.3991 Y-14.4141
G01 X8.4232 Y-14.4093
G01 X8.4351 Y-14.4065
G01 X8.4635 Y-14.3988
G01 X8.4915 Y-14.3894
G01 X8.5030 Y-14.3851
G01 X8.5256 Y-14.3757
G01 X8.5412 Y-14.3685
G01 X8.5632 Y-14.3575
G01 X8.5896 Y-14.3424
G01 X8.6115 Y-14.3550
G01 X8.6345 Y-14.3669
G01 X8.6488 Y-14.3736
G01 X8.6714 Y-14.3832
G01 X8.6841 Y-14.3882
G01 X8.7107 Y-14.3972
G01 X8.7238 Y-14.4012
G01 X8.7475 Y-14.4074
G01 X8.7629 Y-14.4108
G01 X8.7884 Y-14.4155
G01 X8.8040 Y-14.4178
G01 X8.8284 Y-14.4204
G01 X8.8421 Y-14.4214
G01 X8.8701 Y-14.4224
G01 X8.8838 Y-14.4224
G01 X8.9083 Y-14.4214
G01 X8.9240 Y-14.4203
G01 X8.9498 Y-14.4174
G01 X8.9775 Y-14.4129
G01 X8.9909 Y-14.4102
G01 X9.0148 Y-14.4044
G01 X9.0300 Y-14.4002
G01 X9.0547 Y-14.3924
G01 X9.0695 Y-14.3870
G01 X9.0923 Y-14.3778
G01 X9.1159 Y-14.3670
G01 X9.1300 Y-14.3599
G01 X9.1527 Y-14.3474
G01 X9.1662 Y-14.3392
G01 X9.1867 Y-14.3258
G01 X9.1979 Y-14.3179
G01 X9.2197 Y-14.3013
G01 X9.2399 Y-14.3124
G01 X9.2651 Y-14.3248
G01 X9.2889 Y-14.3350
G01 X9.3037 Y-14.3407
G01 X9.3204 Y-14.3466
G01 X9.4711 Y-14.3967
G01 X9.4980 Y-14.4045
G01 X9.5232 Y-14.4105
G01 X9.5474 Y-14.4150
G01 X9.5752 Y-14.4189
G01 X9.5887 Y-14.4203
G01 X9.6168 Y-14.4221
G01 X9.6372 Y-14.4224
G01 X9.7393 Y-14.4224
G01 X9.7529 Y-14.4221
G01 X9.7809 Y-14.4203
G01 X9.8067 Y-14.4174
G01 X9.8344 Y-14.4129
G01 X9.8597 Y-14.4075
G01 X9.8751 Y-14.4036
G01 X9.9064 Y-14.3942
G01 X10.0492 Y-14.3466
G01 X10.0807 Y-14.3350
G01 X10.1045 Y-14.3248
G01 X10.1188 Y-14.3180
G01 X10.1406 Y-14.3066
G01 X10.1660 Y-14.2917
G01 X10.1876 Y-14.2775
G01 X10.2075 Y-14.2631
G01 X10.2200 Y-14.2534
G01 X10.2398 Y-14.2367
G01 X10.2642 Y-14.2137
G01 X10.3204 Y-14.1573
G01 X10.3321 Y-14.1447
G01 X10.3481 Y-14.1261
G01 X10.3632 Y-14.1068
G01 X10.3733 Y-14.0929
G01 X10.3870 Y-14.0725
G01 X10.3959 Y-14.0578
G01 X10.4080 Y-14.0365
G01 X10.4137 Y-14.0256
G01 X10.4211 Y-14.0101
G01 X10.4311 Y-13.9877
G01 X10.4399 Y-13.9648
G01 X10.4456 Y-13.9485
G01 X10.4527 Y-13.9251
G01 X10.4570 Y-13.9084
G01 X10.4624 Y-13.8845
G01 X10.4666 Y-13.8603
G01 X10.4690 Y-13.8433
G01 X10.4714 Y-13.8189
G01 X10.4724 Y-13.8017
G01 X10.4730 Y-13.7772
G01 X10.4721 Y-13.7477
G01 X10.4703 Y-13.7233
G01 X10.4673 Y-13.6989
G01 X10.4646 Y-13.6819
G01 X10.4598 Y-13.6579
G01 X10.4558 Y-13.6412
G01 X10.4493 Y-13.6175
G01 X10.4416 Y-13.5942
G01 X10.4356 Y-13.5781
G01 X10.4263 Y-13.5554
G01 X10.4190 Y-13.5398
G01 X10.4080 Y-13.5179
G01 X10.3959 Y-13.4965
G01 X10.3803 Y-13.4716
G01 X10.3661 Y-13.4515
G01 X10.3558 Y-13.4378
G01 X10.3402 Y-13.4189
G01 X10.3288 Y-13.4060
G01 X10.3119 Y-13.3882
G01 X10.2953 Y-13.3724
G01 X10.3119 Y-13.3566
G01 X10.3288 Y-13.3388
G01 X10.3402 Y-13.3260
G01 X10.3558 Y-13.3070
G01 X10.3661 Y-13.2933
G01 X10.3803 Y-13.2732
G01 X10.3934 Y-13.2525
G01 X10.4021 Y-13.2377
G01 X10.4137 Y-13.2160
G01 X10.4190 Y-13.2050
G01 X10.4263 Y-13.1894
G01 X10.4356 Y-13.1667
G01 X10.4416 Y-13.1506
G01 X10.4493 Y-13.1273
G01 X10.4558 Y-13.1037
G01 X10.4613 Y-13.0801
G01 X10.4672 Y-13.0942
G01 X10.4798 Y-13.1208
G01 X10.4914 Y-13.1424
G01 X10.5065 Y-13.1677
G01 X10.5202 Y-13.1881
G01 X10.5303 Y-13.2020
G01 X10.5454 Y-13.2214
G01 X10.5614 Y-13.2399
G01 X10.5731 Y-13.2526
G01 X10.5904 Y-13.2699
G01 X10.6122 Y-13.2897
G01 X10.6312 Y-13.3053
G01 X10.6449 Y-13.3156
G01 X10.6650 Y-13.3297
G01 X10.6857 Y-13.3429
G01 X10.7062 Y-13.3547
G01 X10.7062 Y-13.8724
G01 X10.7068 Y-13.8970
G01 X10.7078 Y-13.9141
G01 X10.7102 Y-13.9385
G01 X10.7126 Y-13.9555
G01 X10.7168 Y-13.9797
G01 X10.7222 Y-14.0037
G01 X10.7265 Y-14.0203
G01 X10.7336 Y-14.0438
G01 X10.7436 Y-14.0715
G01 X10.7529 Y-14.0942
G01 X10.7655 Y-14.1208
G01 X10.7771 Y-14.1424
G01 X10.7922 Y-14.1677
G01 X10.8059 Y-14.1881
G01 X10.8234 Y-14.2118
G01 X10.8390 Y-14.2307
G01 X10.8588 Y-14.2526
G01 X10.8761 Y-14.2699
G01 X10.8979 Y-14.2897
G01 X10.9169 Y-14.3053
G01 X10.9406 Y-14.3228
G01 X10.9610 Y-14.3364
G01 X10.9862 Y-14.3516
G01 X11.0079 Y-14.3631
G01 X11.0345 Y-14.3757
G01 X11.0572 Y-14.3851
G01 X11.0733 Y-14.3911
G01 X11.0966 Y-14.3988
G01 X11.1250 Y-14.4065
G01 X11.1490 Y-14.4119
G01 X11.1610 Y-14.4141
G01 X11.1902 Y-14.4184
G01 X11.2146 Y-14.4208
G01 X11.2268 Y-14.4216
G01 X11.2563 Y-14.4224
G01 X11.2857 Y-14.4216
G01 X11.2980 Y-14.4208
G01 X11.3224 Y-14.4184
G01 X11.3515 Y-14.4141
G01 X11.3756 Y-14.4093
G01 X11.3875 Y-14.4065
G01 X11.4159 Y-14.3988
G01 X11.4392 Y-14.3911
G01 X11.4554 Y-14.3851
G01 X11.4668 Y-14.3806
G01 X11.4892 Y-14.3706
G01 X11.5155 Y-14.3575
G01 X11.5411 Y-14.3429
G01 X11.5658 Y-14.3270
G01 X11.5800 Y-14.3364
G01 X11.5947 Y-14.3454
G01 X11.6160 Y-14.3575
G01 X11.6269 Y-14.3631
G01 X11.6424 Y-14.3706
G01 X11.6648 Y-14.3806
G01 X11.6877 Y-14.3894
G01 X11.7040 Y-14.3951
G01 X11.7156 Y-14.3988
G01 X11.7393 Y-14.4053
G01 X11.7680 Y-14.4119
G01 X11.7922 Y-14.4161
G01 X11.8092 Y-14.4184
G01 X11.8336 Y-14.4208
G01 X11.8459 Y-14.4216
G01 X11.8753 Y-14.4224
G01 X12.3515 Y-14.4224
G01 X12.3760 Y-14.4218
G01 X12.3932 Y-14.4208
G01 X12.4176 Y-14.4184
G01 X12.4467 Y-14.4141
G01 X12.4708 Y-14.4093
G01 X12.4994 Y-14.4022
G01 X12.5229 Y-14.3951
G01 X12.5506 Y-14.3851
G01 X12.5733 Y-14.3757
G01 X12.6031 Y-14.3615
G01 X12.7079 Y-14.3963
G01 X12.7327 Y-14.4036
G01 X12.7480 Y-14.4075
G01 X12.7734 Y-14.4129
G01 X12.7890 Y-14.4156
G01 X12.8133 Y-14.4189
G01 X12.8391 Y-14.4212
G01 X12.8685 Y-14.4224
G01 X13.1134 Y-14.4224
G01 X13.1347 Y-14.4220
G01 X13.1605 Y-14.4204
G01 X13.1849 Y-14.4177
G01 X13.2006 Y-14.4155
G01 X13.2261 Y-14.4108
G01 X13.2415 Y-14.4073
G01 X13.2652 Y-14.4011
G01 X13.2783 Y-14.3971
G01 X13.3049 Y-14.3880
G01 X13.3289 Y-14.3785
G01 X13.3434 Y-14.3720
G01 X13.3594 Y-14.3644
G01 X13.4546 Y-14.3168
G01 X13.4834 Y-14.3012
G01 X13.4970 Y-14.2932
G01 X13.5109 Y-14.2843
G01 X13.5264 Y-14.2976
G01 X13.5360 Y-14.3053
G01 X13.5596 Y-14.3228
G01 X13.5800 Y-14.3364
G01 X13.6053 Y-14.3516
G01 X13.6269 Y-14.3631
G01 X13.6535 Y-14.3757
G01 X13.6762 Y-14.3851
G01 X13.7040 Y-14.3951
G01 X13.7274 Y-14.4022
G01 X13.7560 Y-14.4093
G01 X13.7801 Y-14.4141
G01 X13.8092 Y-14.4184
G01 X13.8336 Y-14.4208
G01 X13.8630 Y-14.4223
G01 X13.8876 Y-14.4223
G01 X13.9170 Y-14.4208
G01 X13.9292 Y-14.4198
G01 X13.9536 Y-14.4168
G01 X13.9826 Y-14.4119
G01 X14.0066 Y-14.4065
G01 X14.0232 Y-14.4022
G01 X14.0350 Y-14.3988
G01 X14.0583 Y-14.3911
G01 X14.0858 Y-14.3806
G01 X14.1082 Y-14.3706
G01 X14.1237 Y-14.3631
G01 X14.1453 Y-14.3516
G01 X14.1559 Y-14.3454
G01 X14.1809 Y-14.3297
G01 X14.2049 Y-14.3127
G01 X14.2147 Y-14.3053
G01 X14.2336 Y-14.2897
G01 X14.2465 Y-14.2783
G01 X14.2642 Y-14.2613
G01 X14.2845 Y-14.2399
G01 X14.2926 Y-14.2307
G01 X14.3082 Y-14.2118
G01 X14.3185 Y-14.1981
G01 X14.3326 Y-14.1780
G01 X14.3483 Y-14.1531
G01 X14.3604 Y-14.1317
G01 X14.3660 Y-14.1208
G01 X14.3786 Y-14.0942
G01 X14.3880 Y-14.0715
G01 X14.3979 Y-14.0438
G01 X14.4051 Y-14.0203
G01 X14.4122 Y-13.9917
G01 X14.4170 Y-13.9677
G01 X14.4213 Y-13.9385
G01 X14.4237 Y-13.9141
G01 X14.4247 Y-13.8970
G01 X14.4253 Y-13.8724
G01 X14.4253 Y-13.3547
G01 X14.4417 Y-13.3454
G01 X14.4563 Y-13.3364
G01 X14.4767 Y-13.3228
G01 X14.4906 Y-13.3127
G01 X14.5004 Y-13.3053
G01 X14.5193 Y-13.2897
G01 X14.5322 Y-13.2783
G01 X14.5500 Y-13.2613
G01 X14.5669 Y-13.2436
G01 X14.5783 Y-13.2307
G01 X14.5939 Y-13.2118
G01 X14.6013 Y-13.2020
G01 X14.6114 Y-13.1881
G01 X14.6250 Y-13.1677
G01 X14.6340 Y-13.1531
G01 X14.6461 Y-13.1317
G01 X14.6571 Y-13.1098
G01 X14.6643 Y-13.0942
G01 X14.6737 Y-13.0715
G01 X14.6780 Y-13.0600
G01 X14.6837 Y-13.0438
G01 X14.6908 Y-13.0203
G01 X14.6951 Y-13.0037
G01 X14.7005 Y-12.9797
G01 X14.7047 Y-12.9555
G01 X14.7071 Y-12.9385
G01 X14.7095 Y-12.9141
G01 X14.7102 Y-12.9019
G01 X14.7111 Y-12.8724
G01 X14.7104 Y-12.8479
G01 X14.7095 Y-12.8307
G01 X14.7071 Y-12.8063
G01 X14.7027 Y-12.7772
G01 X14.6979 Y-12.7531
G01 X14.6939 Y-12.7364
G01 X14.6874 Y-12.7128
G01 X14.6780 Y-12.6848
G01 X14.6692 Y-12.6619
G01 X14.6592 Y-12.6395
G01 X14.6518 Y-12.6240
G01 X14.6402 Y-12.6024
G01 X14.6250 Y-12.5771
G01 X14.6114 Y-12.5567
G01 X14.6013 Y-12.5428
G01 X14.5862 Y-12.5235
G01 X14.5669 Y-12.5013
G01 X14.5500 Y-12.4835
G01 X14.5322 Y-12.4666
G01 X14.5100 Y-12.4472
G01 X14.4906 Y-12.4321
G01 X14.4767 Y-12.4220
G01 X14.4563 Y-12.4084
G01 X14.4311 Y-12.3933
G01 X14.4094 Y-12.3817
G01 X14.3939 Y-12.3742
G01 X14.3715 Y-12.3643
G01 X14.3486 Y-12.3554
G01 X14.3207 Y-12.3461
G01 X14.2970 Y-12.3395
G01 X14.2803 Y-12.3355
G01 X14.2563 Y-12.3307
G01 X14.2271 Y-12.3264
G01 X14.2027 Y-12.3240
G01 X14.1856 Y-12.3230
G01 X14.1610 Y-12.3224
G01 X13.5896 Y-12.3224
G01 X13.5602 Y-12.3232
G01 X13.5357 Y-12.3250
G01 X13.5113 Y-12.3280
G01 X13.4944 Y-12.3307
G01 X13.4703 Y-12.3355
G01 X13.4417 Y-12.3427
G01 X13.4182 Y-12.3498
G01 X13.3905 Y-12.3597
G01 X13.3777 Y-12.3649
G01 X13.3272 Y-12.3481
G01 X13.3036 Y-12.3412
G01 X13.2883 Y-12.3373
G01 X13.2750 Y-12.3343
G01 X13.2509 Y-12.3298
G01 X13.2352 Y-12.3274
G01 X13.2095 Y-12.3245
G01 X13.1815 Y-12.3228
G01 X13.1610 Y-12.3224
G01 X12.9229 Y-12.3224
G01 X12.8894 Y-12.3234
G01 X12.8758 Y-12.3244
G01 X12.8514 Y-12.3271
G01 X12.8223 Y-12.3317
G01 X12.7983 Y-12.3367
G01 X12.7829 Y-12.3405
G01 X12.7580 Y-12.3477
G01 X12.7315 Y-12.3568
G01 X12.7074 Y-12.3664
G01 X12.6770 Y-12.3805
G01 X12.6353 Y-12.4013
G01 X12.6108 Y-12.3873
G01 X12.5889 Y-12.3763
G01 X12.5733 Y-12.3691
G01 X12.5506 Y-12.3597
G01 X12.5391 Y-12.3554
G01 X12.5112 Y-12.3461
G01 X12.4828 Y-12.3383
G01 X12.4588 Y-12.3330
G01 X12.4467 Y-12.3307
G01 X12.4298 Y-12.3280
G01 X12.4054 Y-12.3250
G01 X12.3760 Y-12.3230
G01 X12.3515 Y-12.3224
G01 X11.8753 Y-12.3224
G01 X11.8508 Y-12.3230
G01 X11.8214 Y-12.3250
G01 X11.7970 Y-12.3280
G01 X11.7801 Y-12.3307
G01 X11.7560 Y-12.3355
G01 X11.7441 Y-12.3383
G01 X11.7274 Y-12.3427
G01 X11.7086 Y-12.3483
G01 X11.6899 Y-12.3427
G01 X11.6732 Y-12.3383
G01 X11.6493 Y-12.3330
G01 X11.6372 Y-12.3307
G01 X11.6202 Y-12.3280
G01 X11.5959 Y-12.3250
G01 X11.5714 Y-12.3232
G01 X11.5542 Y-12.3225
G01 X10.9706 Y-12.3224
G01 X10.9411 Y-12.3232
G01 X10.9289 Y-12.3240
G01 X10.9044 Y-12.3264
G01 X10.8874 Y-12.3288
G01 X10.8632 Y-12.3330
G01 X10.8393 Y-12.3383
G01 X10.8227 Y-12.3427
G01 X10.7992 Y-12.3498
G01 X10.7830 Y-12.3554
G01 X10.7601 Y-12.3643
G01 X10.7376 Y-12.3742
G01 X10.7222 Y-12.3817
G01 X10.7005 Y-12.3933
G01 X10.6857 Y-12.4020
G01 X10.6650 Y-12.4151
G01 X10.6449 Y-12.4292
G01 X10.6312 Y-12.4396
G01 X10.6122 Y-12.4551
G01 X10.5994 Y-12.4666
G01 X10.5816 Y-12.4835
G01 X10.5647 Y-12.5013
G01 X10.5533 Y-12.5141
G01 X10.5377 Y-12.5331
G01 X10.5274 Y-12.5468
G01 X10.5132 Y-12.5668
G01 X10.5001 Y-12.5876
G01 X10.4914 Y-12.6024
G01 X10.4798 Y-12.6240
G01 X10.4723 Y-12.6395
G01 X10.4624 Y-12.6619
G01 X10.4578 Y-12.6733
G01 X10.4519 Y-12.6895
G01 X10.4442 Y-12.7128
G01 X10.4377 Y-12.7364
G01 X10.4322 Y-12.7599
G01 X10.4263 Y-12.7459
G01 X10.4137 Y-12.7193
G01 X10.4021 Y-12.6976
G01 X10.3959 Y-12.6870
G01 X10.3870 Y-12.6724
G01 X10.3733 Y-12.6520
G01 X10.3632 Y-12.6381
G01 X10.3481 Y-12.6187
G01 X10.3321 Y-12.6001
G01 X10.3204 Y-12.5875
G01 X10.2642 Y-12.5311
G01 X10.2515 Y-12.5188
G01 X10.2398 Y-12.5081
G01 X10.2200 Y-12.4914
G01 X10.2075 Y-12.4817
G01 X10.1876 Y-12.4673
G01 X10.1630 Y-12.4513
G01 X10.1418 Y-12.4389
G01 X10.1298 Y-12.4324
G01 X10.1045 Y-12.4201
G01 X10.0921 Y-12.4145
G01 X10.0693 Y-12.4054
G01 X10.0492 Y-12.3982
G01 X9.9064 Y-12.3506
G01 X9.8869 Y-12.3445
G01 X9.8716 Y-12.3403
G01 X9.8478 Y-12.3346
G01 X9.8188 Y-12.3292
G01 X9.7945 Y-12.3259
G01 X9.7809 Y-12.3245
G01 X9.7529 Y-12.3228
G01 X9.7325 Y-12.3224
G01 X9.6304 Y-12.3224
G01 X9.6168 Y-12.3228
G01 X9.5887 Y-12.3245
G01 X9.5630 Y-12.3274
G01 X9.5353 Y-12.3319
G01 X9.5099 Y-12.3373
G01 X9.4946 Y-12.3412
G01 X9.4711 Y-12.3481
G01 X9.3204 Y-12.3982
G01 X9.3037 Y-12.4041
G01 X9.2889 Y-12.4098
G01 X9.2651 Y-12.4201
G01 X9.2399 Y-12.4324
G01 X9.2196 Y-12.4436
G01 X9.2010 Y-12.4292
G01 X9.1809 Y-12.4151
G01 X9.1602 Y-12.4020
G01 X9.1453 Y-12.3933
G01 X9.1237 Y-12.3817
G01 X9.1082 Y-12.3742
G01 X9.0858 Y-12.3643
G01 X9.0744 Y-12.3597
G01 X9.0583 Y-12.3538
G01 X9.0350 Y-12.3461
G01 X9.0113 Y-12.3395
G01 X8.9946 Y-12.3355
G01 X8.9706 Y-12.3307
G01 X8.9536 Y-12.3280
G01 X8.9414 Y-12.3264
G01 X8.9170 Y-12.3240
G01 X8.8998 Y-12.3230
G01 X8.8753 Y-12.3224
G01 X8.8508 Y-12.3230
G01 X8.8336 Y-12.3240
G01 X8.8092 Y-12.3264
G01 X8.7922 Y-12.3288
G01 X8.7680 Y-12.3330
G01 X8.7441 Y-12.3383
G01 X8.7274 Y-12.3427
G01 X8.7039 Y-12.3498
G01 X8.6877 Y-12.3554
G01 X8.6648 Y-12.3643
G01 X8.6424 Y-12.3742
G01 X8.6269 Y-12.3817
G01 X8.6053 Y-12.3933
G01 X8.5896 Y-12.4025
G01 X8.5677 Y-12.3898
G01 X8.5447 Y-12.3779
G01 X8.5304 Y-12.3712
G01 X8.5078 Y-12.3616
G01 X8.4950 Y-12.3567
G01 X8.4685 Y-12.3476
G01 X8.4436 Y-12.3404
G01 X8.4283 Y-12.3367
G01 X8.4042 Y-12.3316
G01 X8.3786 Y-12.3275
G01 X8.3630 Y-12.3256
G01 X8.3371 Y-12.3234
G01 X8.3214 Y-12.3227
G01 X8.2968 Y-12.3224
G01 X8.2831 Y-12.3228
G01 X8.2552 Y-12.3246
G01 X8.2294 Y-12.3275
G01 X8.2138 Y-12.3299
G01 X8.1897 Y-12.3344
G01 X8.1644 Y-12.3404
G01 X8.1361 Y-12.3486
G01 X8.1129 Y-12.3566
G01 X8.0982 Y-12.3623
G01 X8.0744 Y-12.3726
G01 X8.0492 Y-12.3849
G01 X8.0372 Y-12.3914
G01 X8.0165 Y-12.4035
G01 X8.0016 Y-12.3982
G01 X7.8588 Y-12.3506
G01 X7.8393 Y-12.3445
G01 X7.8121 Y-12.3373
G01 X7.7988 Y-12.3343
G01 X7.7747 Y-12.3298
G01 X7.7590 Y-12.3274
G01 X7.7333 Y-12.3245
G01 X7.7175 Y-12.3234
G01 X7.6930 Y-12.3225
G01 X7.5814 Y-12.3225
G01 X7.5569 Y-12.3234
G01 X7.5411 Y-12.3245
G01 X7.5154 Y-12.3274
G01 X7.4997 Y-12.3298
G01 X7.4756 Y-12.3343
G01 X7.4504 Y-12.3403
G01 X7.4221 Y-12.3485
G01 X7.2728 Y-12.3982
G01 X7.2528 Y-12.4054
G01 X7.2287 Y-12.4151
G01 X7.2064 Y-12.4253
G01 X7.1923 Y-12.4324
G01 X7.1696 Y-12.4449
G01 X7.1457 Y-12.4597
G01 X7.1244 Y-12.4744
G01 X7.1021 Y-12.4914
G01 X7.0915 Y-12.5001
G01 X7.0732 Y-12.5164
G01 X7.0578 Y-12.5311
G01 X6.9568 Y-12.6322
G01 X6.9402 Y-12.6502
G01 X6.9298 Y-12.6621
G01 X6.9137 Y-12.6824
G01 X6.9043 Y-12.6951
G01 X6.8904 Y-12.7154
G01 X6.8831 Y-12.7269
G01 X6.8690 Y-12.7512
G01 X6.8595 Y-12.7693
G01 X6.8095 Y-12.8695
G01 X6.7988 Y-12.8929
G01 X6.7882 Y-12.9192
G01 X6.7799 Y-12.9434
G01 X6.7719 Y-12.9706
G01 X6.7227 Y-13.1676
G01 X6.7168 Y-13.1938
G01 X6.7122 Y-13.2204
G01 X6.7089 Y-13.2472
G01 X6.7076 Y-13.2619
G01 X6.7064 Y-13.2864
G01 X6.7062 Y-13.4438
G00 Z2.0000
G00 X7.6111 Y-14.4224
G01 F60.00
G01 Z-2.4000
G01 F120.00
G01 X7.5860 Y-14.4304
G01 X7.4658 Y-14.4653
G01 X7.3447 Y-14.4972
G01 X7.2230 Y-14.5261
G01 X7.1005 Y-14.5520
G01 X6.9774 Y-14.5749
G01 X6.8539 Y-14.5948
G01 X6.7298 Y-14.6116
G01 X6.6054 Y-14.6254
G01 X6.4807 Y-14.6362
G01 X6.3558 Y-14.6439
G01 X6.2307 Y-14.6485
G01 X6.1055 Y-14.6500
G01 X5.9804 Y-14.6485
G01 X5.8553 Y-14.6439
G01 X5.7304 Y-14.6362
G01 X5.6056 Y-14.6254
G01 X5.4812 Y-14.6116
G01 X5.3572 Y-14.5948
G01 X5.2336 Y-14.5749
G01 X5.1106 Y-14.5520
G01 X4.9881 Y-14.5261
G01 X4.8663 Y-14.4972
G01 X4.7677 Y-14.4712
G01 X5.5848 Y-15.2258
G01 X5.6862 Y-15.2346
G01 X5.8258 Y-15.2431
G01 X5.9656 Y-15.2483
G01 X6.1055 Y-15.2500
G01 X6.2454 Y-15.2483
G01 X6.3852 Y-15.2431
G01 X6.5249 Y-15.2346
G01 X6.6642 Y-15.2226
G01 X6.8033 Y-15.2071
G01 X6.9419 Y-15.1883
G01 X7.0800 Y-15.1661
G01 X7.2175 Y-15.1405
G01 X7.3544 Y-15.1115
G01 X7.4905 Y-15.0792
G01 X7.6258 Y-15.0435
G01 X7.7602 Y-15.0046
G01 X7.8935 Y-14.9623
G01 X8.0258 Y-14.9168
G01 X8.1569 Y-14.8681
G01 X8.2868 Y-14.8161
G01 X8.4154 Y-14.7610
G01 X8.5426 Y-14.7027
G01 X8.6683 Y-14.6414
G01 X8.7925 Y-14.5770
G01 X8.9151 Y-14.5095
G01 X9.0359 Y-14.4391
G01 X9.1550 Y-14.3657
G01 X9.2382 Y-14.3115
G00 Z2.0000
G00 X10.3157 Y-13.3922
G01 F60.00
G01 Z-2.4000
G01 F120.00
G01 X10.3290 Y-13.3779
G01 X10.4216 Y-13.2731
G01 X10.5082 Y-13.1702
G00 Z2.0000
G00 X10.2518 Y-12.5191
G01 F60.00
G01 Z-2.4000
G01 F120.00
G01 X10.2752 Y-12.4866
G01 X10.3460 Y-12.3834
G01 X10.4143 Y-12.2785
G01 X10.4799 Y-12.1719
G01 X10.5430 Y-12.0638
G01 X10.6033 Y-11.9541
G01 X10.6610 Y-11.8430
G01 X10.7159 Y-11.7305
G01 X10.7680 Y-11.6167
G01 X10.8173 Y-11.5017
G01 X10.8638 Y-11.3855
G01 X10.9074 Y-11.2681
G01 X10.9481 Y-11.1498
G01 X10.9859 Y-11.0305
G01 X11.0208 Y-10.9102
G01 X11.0527 Y-10.7892
G01 X11.0816 Y-10.6674
G01 X11.1075 Y-10.5450
G01 X11.1305 Y-10.4219
G01 X11.1503 Y-10.2983
G01 X11.1672 Y-10.1743
G01 X11.1810 Y-10.0499
G01 X11.1917 Y-9.9252
G01 X11.1994 Y-9.8002
G01 X11.2040 Y-9.6752
G01 X11.2055 Y-9.5500
G01 X11.2041 Y-9.4361
G00 Z2.0000
G00 X10.6054 Y-9.5574
G01 F60.00
G01 Z-2.4000
G01 F120.00
G01 X10.6042 Y-9.6604
G01 X10.6001 Y-9.7708
G01 X10.5933 Y-9.8810
G01 X10.5839 Y-9.9911
G01 X10.5717 Y-10.1008
G01 X10.5568 Y-10.2103
G01 X10.5393 Y-10.3193
G01 X10.5191 Y-10.4279
G01 X10.4962 Y-10.5360
G01 X10.4707 Y-10.6434
G01 X10.4425 Y-10.7502
G01 X10.4118 Y-10.8563
G01 X10.3784 Y-10.9616
G01 X10.3425 Y-11.0660
G01 X10.3040 Y-11.1695
G01 X10.2630 Y-11.2721
G01 X10.2195 Y-11.3736
G01 X10.1735 Y-11.4740
G01 X10.1250 Y-11.5733
G01 X10.0742 Y-11.6713
G01 X10.0209 Y-11.7680
G01 X9.9653 Y-11.8635
G01 X9.9074 Y-11.9575
G01 X9.8471 Y-12.0501
G01 X9.7847 Y-12.1411
G01 X9.7200 Y-12.2306
G01 X9.6500 Y-12.3224
G00 Z2.0000
G00 X8.8474 Y-12.3232
G01 F60.00
G01 Z-2.4000
G01 F120.00
G01 X8.8633 Y-12.3077
G01 X8.9301 Y-12.2392
G01 X8.9952 Y-12.1691
G01 X9.0586 Y-12.0974
G01 X9.1203 Y-12.0241
G01 X9.1801 Y-11.9494
G01 X9.2380 Y-11.8732
G01 X9.2941 Y-11.7957
G01 X9.3483 Y-11.7167
G01 X9.4005 Y-11.6365
G01 X9.4507 Y-11.5550
G01 X9.4989 Y-11.4723
G01 X9.5450 Y-11.3884
G01 X9.5891 Y-11.3035
G01 X9.6311 Y-11.2175
G01 X9.6710 Y-11.1304
G01 X9.7087 Y-11.0425
G01 X9.7442 Y-10.9536
G01 X9.7776 Y-10.8639
G01 X9.8087 Y-10.7734
G01 X9.8376 Y-10.6821
G01 X9.8643 Y-10.5902
G01 X9.8887 Y-10.4976
G01 X9.9108 Y-10.4045
G01 X9.9306 Y-10.3109
G01 X9.9481 Y-10.2168
G01 X9.9633 Y-10.1222
G01 X9.9762 Y-10.0274
G01 X9.9868 Y-9.9323
G01 X9.9950 Y-9.8369
G01 X10.0008 Y-9.7414
G01 X10.0044 Y-9.6457
G01 X10.0055 Y-9.5500
G01 X10.0047 Y-9.4787
G00 Z2.0000
G00 X9.4055 Y-9.5525
G01 F60.00
G01 Z-2.4000
G01 F120.00
G01 X9.4045 Y-9.6310
G01 X9.4016 Y-9.7119
G01 X9.3966 Y-9.7928
G01 X9.3896 Y-9.8735
G01 X9.3807 Y-9.9540
G01 X9.3698 Y-10.0342
G01 X9.3570 Y-10.1142
G01 X9.3421 Y-10.1938
G01 X9.3254 Y-10.2730
G01 X9.3066 Y-10.3518
G01 X9.2860 Y-10.4302
G01 X9.2634 Y-10.5079
G01 X9.2390 Y-10.5851
G01 X9.2126 Y-10.6617
G01 X9.1844 Y-10.7377
G01 X9.1543 Y-10.8129
G01 X9.1224 Y-10.8873
G01 X9.0887 Y-10.9609
G01 X9.0532 Y-11.0337
G01 X9.0159 Y-11.1056
G01 X8.9768 Y-11.1766
G01 X8.9360 Y-11.2465
G01 X8.8936 Y-11.3155
G01 X8.8494 Y-11.3834
G01 X8.8036 Y-11.4502
G01 X8.7561 Y-11.5158
G01 X8.7071 Y-11.5803
G01 X8.6565 Y-11.6435
G01 X8.6043 Y-11.7055
G01 X8.5507 Y-11.7661
G01 X8.4955 Y-11.8255
G01 X8.4390 Y-11.8835
G01 X8.3810 Y-11.9400
G01 X8.3217 Y-11.9951
G01 X8.2610 Y-12.0488
G01 X8.1990 Y-12.1009
G01 X8.1358 Y-12.1515
G01 X8.0713 Y-12.2006
G01 X8.0057 Y-12.2480
G01 X7.9389 Y-12.2938
G01 X7.8710 Y-12.3380
G01 X7.8534 Y-12.3489
G01 X7.6055 Y-9.5500
G01 X7.6051 Y-9.5868
G01 X7.6037 Y-9.6236
G01 X7.6015 Y-9.6603
G01 X7.5983 Y-9.6970
G01 X7.5943 Y-9.7336
G01 X7.5893 Y-9.7701
G01 X7.5835 Y-9.8064
G01 X7.5767 Y-9.8426
G01 X7.5691 Y-9.8787
G01 X7.5606 Y-9.9145
G01 X7.5512 Y-9.9501
G01 X7.5409 Y-9.9854
G01 X7.5298 Y-10.0205
G01 X7.5179 Y-10.0553
G01 X7.5050 Y-10.0898
G01 X7.4914 Y-10.1240
G01 X7.4768 Y-10.1579
G01 X7.4615 Y-10.1913
G01 X7.4454 Y-10.2244
G01 X7.4284 Y-10.2571
G01 X7.4107 Y-10.2893
G01 X7.3921 Y-10.3212
G01 X7.3728 Y-10.3525
G01 X7.3527 Y-10.3834
G01 X7.3319 Y-10.4137
G01 X7.3103 Y-10.4435
G01 X7.2881 Y-10.4728
G01 X7.2650 Y-10.5016
G01 X7.2413 Y-10.5298
G01 X7.2170 Y-10.5573
G01 X7.1919 Y-10.5843
G01 X7.1662 Y-10.6107
G01 X7.1398 Y-10.6364
G01 X7.1129 Y-10.6614
G01 X7.0853 Y-10.6858
G01 X7.0571 Y-10.7095
G01 X7.0284 Y-10.7325
G01 X6.9991 Y-10.7548
G01 X6.9692 Y-10.7764
G01 X6.9389 Y-10.7972
G01 X6.9080 Y-10.8173
G01 X6.8767 Y-10.8366
G01 X6.8449 Y-10.8551
G01 X6.8126 Y-10.8729
G01 X6.7800 Y-10.8898
G01 X6.7469 Y-10.9060
G01 X6.7134 Y-10.9213
G01 X6.6796 Y-10.9358
G01 X6.6454 Y-10.9495
G01 X6.6109 Y-10.9623
G01 X6.5761 Y-10.9743
G01 X6.5410 Y-10.9854
G01 X6.5056 Y-10.9957
G01 X6.4700 Y-11.0050
G01 X6.4342 Y-11.0136
G01 X6.3982 Y-11.0212
G01 X6.3620 Y-11.0279
G01 X6.3256 Y-11.0338
G01 X6.2892 Y-11.0387
G01 X6.2526 Y-11.0428
G01 X6.2159 Y-11.0459
G01 X6.1791 Y-11.0482
G01 X6.1423 Y-11.0495
G01 X6.1055 Y-11.0500
G01 X6.0687 Y-11.0495
G01 X6.0319 Y-11.0482
G01 X5.9952 Y-11.0459
G01 X5.9585 Y-11.0428
G01 X5.9219 Y-11.0387
G01 X5.8854 Y-11.0338
G01 X5.8491 Y-11.0279
G01 X5.8129 Y-11.0212
G01 X5.7769 Y-11.0136
G01 X5.7411 Y-11.0050
G01 X5.7055 Y-10.9957
G01 X5.6701 Y-10.9854
G01 X5.6350 Y-10.9743
G01 X5.6002 Y-10.9623
G01 X5.5657 Y-10.9495
G01 X5.5315 Y-10.9358
G01 X5.4977 Y-10.9213
G01 X5.4642 Y-10.9060
G01 X5.4311 Y-10.8898
G01 X5.3984 Y-10.8729
G01 X5.3662 Y-10.8551
G01 X5.3344 Y-10.8366
G01 X5.3030 Y-10.8173
G01 X5.2722 Y-10.7972
G01 X5.2418 Y-10.7764
G01 X5.2120 Y-10.7548
G01 X5.1827 Y-10.7325
G01 X5.1539 Y-10.7095
G01 X5.1258 Y-10.6858
G01 X5.0982 Y-10.6614
G01 X5.0712 Y-10.6364
G01 X5.0449 Y-10.6107
G01 X5.0192 Y-10.5843
G01 X4.9941 Y-10.5573
G01 X4.9697 Y-10.5298
G01 X4.9460 Y-10.5016
G01 X4.9230 Y-10.4728
G01 X4.9007 Y-10.4435
G01 X4.8792 Y-10.4137
G01 X4.8583 Y-10.3834
G01 X4.8383 Y-10.3525
G01 X4.8189 Y-10.3212
G01 X4.8004 Y-10.2893
G01 X4.7827 Y-10.2571
G01 X4.7657 Y-10.2244
G01 X4.7496 Y-10.1913
G01 X4.7342 Y-10.1579
G01 X4.7197 Y-10.1240
G01 X4.7060 Y-10.0898
G01 X4.6932 Y-10.0553
G01 X4.6812 Y-10.0205
G01 X4.6701 Y-9.9854
G01 X4.6599 Y-9.9501
G01 X4.6505 Y-9.9145
G01 X4.6420 Y-9.8787
G01 X4.6344 Y-9.8426
G01 X4.6276 Y-9.8064
G01 X4.6218 Y-9.7701
G01 X4.6168 Y-9.7336
G01 X4.6128 Y-9.6970
G01 X4.6096 Y-9.6603
G01 X4.6073 Y-9.6236
G01 X4.6060 Y-9.5868
G01 X4.6055 Y-9.5500
G01 X4.6060 Y-9.5132
G01 X4.6073 Y-9.4764
G01 X4.6096 Y-9.4397
G01 X4.6128 Y-9.4030
G01 X4.6168 Y-9.3664
G01 X4.6218 Y-9.3299
G01 X4.6276 Y-9.2936
G01 X4.6344 Y-9.2574
G01 X4.6420 Y-9.2213
G01 X4.6505 Y-9.1855
G01 X4.6599 Y-9.1499
G01 X4.6701 Y-9.1146
G01 X4.6812 Y-9.0795
G01 X4.6932 Y-9.0447
G01 X4.7060 Y-9.0102
G01 X4.7197 Y-8.9760
G01 X4.7342 Y-8.9421
G01 X4.7496 Y-8.9087
G01 X4.7657 Y-8.8756
G01 X4.7827 Y-8.8429
G01 X4.8004 Y-8.8107
G01 X4.8189 Y-8.7788
G01 X4.8383 Y-8.7475
G01 X4.8583 Y-8.7166
G01 X4.8792 Y-8.6863
G01 X4.9007 Y-8.6565
G01 X4.9230 Y-8.6272
G01 X4.9460 Y-8.5984
G01 X4.9697 Y-8.5702
G01 X4.9941 Y-8.5427
G01 X5.0192 Y-8.5157
G01 X5.0449 Y-8.4893
G01 X5.0712 Y-8.4636
G01 X5.0982 Y-8.4386
G01 X5.1258 Y-8.4142
G01 X5.1539 Y-8.3905
G01 X5.1827 Y-8.3675
G01 X5.2120 Y-8.3452
G01 X5.2418 Y-8.3236
G01 X5.2722 Y-8.3028
G01 X5.3030 Y-8.2827
G01 X5.3344 Y-8.2634
G01 X5.3662 Y-8.2449
G01 X5.3984 Y-8.2271
G01 X5.4311 Y-8.2102
G01 X5.4642 Y-8.1940
G01 X5.4977 Y-8.1787
G01 X5.5315 Y-8.1642
G01 X5.5657 Y-8.1505
G01 X5.6002 Y-8.1377
G01 X5.6350 Y-8.1257
G01 X5.6701 Y-8.1146
G01 X5.7055 Y-8.1043
G01 X5.7411 Y-8.0950
G01 X5.7769 Y-8.0864
G01 X5.8129 Y-8.0788
G01 X5.8491 Y-8.0721
G01 X5.8854 Y-8.0662
G01 X5.9219 Y-8.0613
G01 X5.9585 Y-8.0572
G01 X5.9952 Y-8.0541
G01 X6.0319 Y-8.0518
G01 X6.0687 Y-8.0505
G01 X6.1055 Y-8.0500
G01 X6.1423 Y-8.0505
G01 X6.1791 Y-8.0518
G01 X6.2159 Y-8.0541
G01 X6.2526 Y-8.0572
G01 X6.2892 Y-8.0613
G01 X6.3256 Y-8.0662
G01 X6.3620 Y-8.0721
G01 X6.3982 Y-8.0788
G01 X6.4342 Y-8.0864
G01 X6.4700 Y-8.0950
G01 X6.5056 Y-8.1043
G01 X6.5410 Y-8.1146
G01 X6.5761 Y-8.1257
G01 X6.6109 Y-8.1377
G01 X6.6454 Y-8.1505
G01 X6.6796 Y-8.1642
G01 X6.7134 Y-8.1787
G01 X6.7469 Y-8.1940
G01 X6.7800 Y-8.2102
G01 X6.8126 Y-8.2271
G01 X6.8449 Y-8.2449
G01 X6.8767 Y-8.2634
G01 X6.9080 Y-8.2827
G01 X6.9389 Y-8.3028
G01 X6.9692 Y-8.3236
G01 X6.9991 Y-8.3452
G01 X7.0284 Y-8.3675
G01 X7.0571 Y-8.3905
G01 X7.0853 Y-8.4142
G01 X7.1129 Y-8.4386
G01 X7.1398 Y-8.4636
G01 X7.1662 Y-8.4893
G01 X7.1919 Y-8.5157
G01 X7.2170 Y-8.5427
G01 X7.2413 Y-8.5702
G01 X7.2650 Y-8.5984
G01 X7.2881 Y-8.6272
G01 X7.3103 Y-8.6565
G01 X7.3319 Y-8.6863
G01 X7.3527 Y-8.7166
G01 X7.3728 Y-8.7475
G01 X7.3921 Y-8.7788
G01 X7.4107 Y-8.8107
G01 X7.4284 Y-8.8429
G01 X7.4454 Y-8.8756
G01 X7.4615 Y-8.9087
G01 X7.4768 Y-8.9421
G01 X7.4914 Y-8.9760
G01 X7.5050 Y-9.0102
G01 X7.5179 Y-9.0447
G01 X7.5298 Y-9.0795
G01 X7.5409 Y-9.1146
G01 X7.5512 Y-9.1499
G01 X7.5606 Y-9.1855
G01 X7.5691 Y-9.2213
G01 X7.5767 Y-9.2574
G01 X7.5835 Y-9.2936
G01 X7.5893 Y-9.3299
G01 X7.5943 Y-9.3664
G01 X7.5983 Y-9.4030
G01 X7.6015 Y-9.4397
G01 X7.6037 Y-9.4764
G01 X7.6051 Y-9.5132
G01 X7.6055 Y-9.5500
G01 X7.0055 Y-9.5500
G01 X7.0053 Y-9.5721
G01 X7.0044 Y-9.5942
G01 X7.0031 Y-9.6162
G01 X7.0012 Y-9.6382
G01 X6.9988 Y-9.6602
G01 X6.9958 Y-9.6821
G01 X6.9923 Y-9.7039
G01 X6.9882 Y-9.7256
G01 X6.9837 Y-9.7472
G01 X6.9786 Y-9.7687
G01 X6.9729 Y-9.7900
G01 X6.9668 Y-9.8113
G01 X6.9601 Y-9.8323
G01 X6.9529 Y-9.8532
G01 X6.9452 Y-9.8739
G01 X6.9370 Y-9.8944
G01 X6.9283 Y-9.9147
G01 X6.9191 Y-9.9348
G01 X6.9094 Y-9.9547
G01 X6.8993 Y-9.9743
G01 X6.8886 Y-9.9936
G01 X6.8775 Y-10.0127
G01 X6.8659 Y-10.0315
G01 X6.8539 Y-10.0500
G01 X6.8414 Y-10.0682
G01 X6.8284 Y-10.0861
G01 X6.8150 Y-10.1037
G01 X6.8012 Y-10.1210
G01 X6.7870 Y-10.1379
G01 X6.7724 Y-10.1544
G01 X6.7574 Y-10.1706
G01 X6.7419 Y-10.1864
G01 X6.7261 Y-10.2018
G01 X6.7099 Y-10.2169
G01 X6.6934 Y-10.2315
G01 X6.6765 Y-10.2457
G01 X6.6592 Y-10.2595
G01 X6.6417 Y-10.2729
G01 X6.6238 Y-10.2858
G01 X6.6055 Y-10.2983
G01 X6.5870 Y-10.3104
G01 X6.5682 Y-10.3220
G01 X6.5491 Y-10.3331
G01 X6.5298 Y-10.3437
G01 X6.5102 Y-10.3539
G01 X6.4903 Y-10.3636
G01 X6.4703 Y-10.3728
G01 X6.4499 Y-10.3815
G01 X6.4294 Y-10.3897
G01 X6.4087 Y-10.3974
G01 X6.3878 Y-10.4046
G01 X6.3668 Y-10.4112
G01 X6.3456 Y-10.4174
G01 X6.3242 Y-10.4230
G01 X6.3027 Y-10.4281
G01 X6.2811 Y-10.4327
G01 X6.2594 Y-10.4367
G01 X6.2376 Y-10.4403
G01 X6.2157 Y-10.4432
G01 X6.1937 Y-10.4457
G01 X6.1717 Y-10.4476
G01 X6.1497 Y-10.4489
G01 X6.1276 Y-10.4497
G01 X6.1055 Y-10.4500
G01 X6.0834 Y-10.4497
G01 X6.0614 Y-10.4489
G01 X6.0393 Y-10.4476
G01 X6.0173 Y-10.4457
G01 X5.9954 Y-10.4432
G01 X5.9735 Y-10.4403
G01 X5.9517 Y-10.4367
G01 X5.9300 Y-10.4327
G01 X5.9083 Y-10.4281
G01 X5.8869 Y-10.4230
G01 X5.8655 Y-10.4174
G01 X5.8443 Y-10.4112
G01 X5.8232 Y-10.4046
G01 X5.8023 Y-10.3974
G01 X5.7816 Y-10.3897
G01 X5.7611 Y-10.3815
G01 X5.7408 Y-10.3728
G01 X5.7207 Y-10.3636
G01 X5.7009 Y-10.3539
G01 X5.6813 Y-10.3437
G01 X5.6619 Y-10.3331
G01 X5.6428 Y-10.3220
G01 X5.6240 Y-10.3104
G01 X5.6055 Y-10.2983
G01 X5.5873 Y-10.2858
G01 X5.5694 Y-10.2729
G01 X5.5518 Y-10.2595
G01 X5.5346 Y-10.2457
G01 X5.5177 Y-10.2315
G01 X5.5011 Y-10.2169
G01 X5.4849 Y-10.2018
G01 X5.4691 Y-10.1864
G01 X5.4537 Y-10.1706
G01 X5.4387 Y-10.1544
G01 X5.4240 Y-10.1379
G01 X5.4098 Y-10.1210
G01 X5.3960 Y-10.1037
G01 X5.3826 Y-10.0861
G01 X5.3697 Y-10.0682
G01 X5.3572 Y-10.0500
G01 X5.3452 Y-10.0315
G01 X5.3336 Y-10.0127
G01 X5.3225 Y-9.9936
G01 X5.3118 Y-9.9743
G01 X5.3016 Y-9.9547
G01 X5.2919 Y-9.9348
G01 X5.2827 Y-9.9147
G01 X5.2740 Y-9.8944
G01 X5.2658 Y-9.8739
G01 X5.2581 Y-9.8532
G01 X5.2510 Y-9.8323
G01 X5.2443 Y-9.8113
G01 X5.2381 Y-9.7900
G01 X5.2325 Y-9.7687
G01 X5.2274 Y-9.7472
G01 X5.2228 Y-9.7256
G01 X5.2188 Y-9.7039
G01 X5.2153 Y-9.6821
G01 X5.2123 Y-9.6602
G01 X5.2099 Y-9.6382
G01 X5.2080 Y-9.6162
G01 X5.2066 Y-9.5942
G01 X5.2058 Y-9.5721
G01 X5.2055 Y-9.5500
G01 X5.2058 Y-9.5279
G01 X5.2066 Y-9.5058
G01 X5.2080 Y-9.4838
G01 X5.2099 Y-9.4618
G01 X5.2123 Y-9.4398
G01 X5.2153 Y-9.4179
G01 X5.2188 Y-9.3961
G01 X5.2228 Y-9.3744
G01 X5.2274 Y-9.3528
G01 X5.2325 Y-9.3313
G01 X5.2381 Y-9.3100
G01 X5.2443 Y-9.2887
G01 X5.2510 Y-9.2677
G01 X5.2581 Y-9.2468
G01 X5.2658 Y-9.2261
G01 X5.2740 Y-9.2056
G01 X5.2827 Y-9.1853
G01 X5.2919 Y-9.1652
G01 X5.3016 Y-9.1453
G01 X5.3118 Y-9.1257
G01 X5.3225 Y-9.1064
G01 X5.3336 Y-9.0873
G01 X5.3452 Y-9.0685
G01 X5.3572 Y-9.0500
G01 X5.3697 Y-9.0318
G01 X5.3826 Y-9.0139
G01 X5.3960 Y-8.9963
G01 X5.4098 Y-8.9790
G01 X5.4240 Y-8.9621
G01 X5.4387 Y-8.9456
G01 X5.4537 Y-8.9294
G01 X5.4691 Y-8.9136
G01 X5.4849 Y-8.8982
G01 X5.5011 Y-8.8831
G01 X5.5177 Y-8.8685
G01 X5.5346 Y-8.8543
G01 X5.5518 Y-8.8405
G01 X5.5694 Y-8.8271
G01 X5.5873 Y-8.8142
G01 X5.6055 Y-8.8017
G01 X5.6240 Y-8.7896
G01 X5.6428 Y-8.7780
G01 X5.6619 Y-8.7669
G01 X5.6813 Y-8.7563
G01 X5.7009 Y-8.7461
G01 X5.7207 Y-8.7364
G01 X5.7408 Y-8.7272
G01 X5.7611 Y-8.7185
G01 X5.7816 Y-8.7103
G01 X5.8023 Y-8.7026
G01 X5.8232 Y-8.6954
G01 X5.8443 Y-8.6888
G01 X5.8655 Y-8.6826
G01 X5.8869 Y-8.6770
G01 X5.9083 Y-8.6719
G01 X5.9300 Y-8.6673
G01 X5.9517 Y-8.6633
G01 X5.9735 Y-8.6597
G01 X5.9954 Y-8.6568
G01 X6.0173 Y-8.6543
G01 X6.0393 Y-8.6524
G01 X6.0614 Y-8.6511
G01 X6.0834 Y-8.6503
G01 X6.1055 Y-8.6500
G01 X6.1276 Y-8.6503
G01 X6.1497 Y-8.6511
G01 X6.1717 Y-8.6524
G01 X6.1937 Y-8.6543
G01 X6.2157 Y-8.6568
G01 X6.2376 Y-8.6597
G01 X6.2594 Y-8.6633
G01 X6.2811 Y-8.6673
G01 X6.3027 Y-8.6719
G01 X6.3242 Y-8.6770
G01 X6.3456 Y-8.6826
G01 X6.3668 Y-8.6888
G01 X6.3878 Y-8.6954
G01 X6.4087 Y-8.7026
G01 X6.4294 Y-8.7103
G01 X6.4499 Y-8.7185
G01 X6.4703 Y-8.7272
G01 X6.4903 Y-8.7364
G01 X6.5102 Y-8.7461
G01 X6.5298 Y-8.7563
G01 X6.5491 Y-8.7669
G01 X6.5682 Y-8.7780
G01 X6.5870 Y-8.7896
G01 X6.6055 Y-8.8017
G01 X6.6238 Y-8.8142
G01 X6.6417 Y-8.8271
G01 X6.6592 Y-8.8405
G01 X6.6765 Y-8.8543
G01 X6.6934 Y-8.8685
G01 X6.7099 Y-8.8831
G01 X6.7261 Y-8.8982
G01 X6.7419 Y-8.9136
G01 X6.7574 Y-8.9294
G01 X6.7724 Y-8.9456
G01 X6.7870 Y-8.9621
G01 X6.8012 Y-8.9790
G01 X6.8150 Y-8.9963
G01 X6.8284 Y-9.0139
G01 X6.8414 Y-9.0318
G01 X6.8539 Y-9.0500
G01 X6.8659 Y-9.0685
G01 X6.8775 Y-9.0873
G01 X6.8886 Y-9.1064
G01 X6.8993 Y-9.1257
G01 X6.9094 Y-9.1453
G01 X6.9191 Y-9.1652
G01 X6.9283 Y-9.1853
G01 X6.9370 Y-9.2056
G01 X6.9452 Y-9.2261
G01 X6.9529 Y-9.2468
G01 X6.9601 Y-9.2677
G01 X6.9668 Y-9.2887
G01 X6.9729 Y-9.3100
G01 X6.9786 Y-9.3313
G01 X6.9837 Y-9.3528
G01 X6.9882 Y-9.3744
G01 X6.9923 Y-9.3961
G01 X6.9958 Y-9.4179
G01 X6.9988 Y-9.4398
G01 X7.0012 Y-9.4618
G01 X7.0031 Y-9.4838
G01 X7.0044 Y-9.5058
G01 X7.0053 Y-9.5279
G01 X7.0055 Y-9.5500
G01 X6.4055 Y-9.5500
G01 X6.4047 Y-9.5721
G01 X6.4033 Y-9.5867
G01 X6.4011 Y-9.6013
G01 X6.3965 Y-9.6229
G01 X6.3904 Y-9.6441
G01 X6.3854 Y-9.6580
G01 X6.3767 Y-9.6783
G01 X6.3701 Y-9.6914
G01 X6.3629 Y-9.7042
G01 X6.3508 Y-9.7227
G01 X6.3374 Y-9.7403
G01 X6.3278 Y-9.7515
G01 X6.3124 Y-9.7673
G01 X6.3015 Y-9.7772
G01 X6.2901 Y-9.7865
G01 X6.2722 Y-9.7994
G01 X6.2534 Y-9.8110
G01 X6.2404 Y-9.8180
G01 X6.2203 Y-9.8272
G01 X6.2066 Y-9.8325
G01 X6.1855 Y-9.8391
G01 X6.1713 Y-9.8427
G01 X6.1496 Y-9.8468
G01 X6.1349 Y-9.8486
G01 X6.1129 Y-9.8499
G01 X6.0982 Y-9.8499
G01 X6.0761 Y-9.8486
G01 X6.0615 Y-9.8468
G01 X6.0470 Y-9.8442
G01 X6.0255 Y-9.8391
G01 X6.0114 Y-9.8349
G01 X5.9907 Y-9.8272
G01 X5.9707 Y-9.8180
G01 X5.9577 Y-9.8110
G01 X5.9450 Y-9.8035
G01 X5.9268 Y-9.7910
G01 X5.9096 Y-9.7772
G01 X5.8987 Y-9.7673
G01 X5.8883 Y-9.7569
G01 X5.8736 Y-9.7403
G01 X5.8603 Y-9.7227
G01 X5.8482 Y-9.7042
G01 X5.8376 Y-9.6849
G01 X5.8284 Y-9.6648
G01 X5.8207 Y-9.6441
G01 X5.8164 Y-9.6300
G01 X5.8128 Y-9.6157
G01 X5.8100 Y-9.6013
G01 X5.8078 Y-9.5867
G01 X5.8059 Y-9.5647
G01 X5.8055 Y-9.5500
G01 X5.8059 Y-9.5353
G01 X5.8078 Y-9.5133
G01 X5.8100 Y-9.4987
G01 X5.8128 Y-9.4843
G01 X5.8185 Y-9.4629
G01 X5.8256 Y-9.4420
G01 X5.8343 Y-9.4217
G01 X5.8410 Y-9.4086
G01 X5.8482 Y-9.3958
G01 X5.8603 Y-9.3773
G01 X5.8690 Y-9.3654
G01 X5.8784 Y-9.3540
G01 X5.8934 Y-9.3379
G01 X5.9041 Y-9.3277
G01 X5.9152 Y-9.3181
G01 X5.9328 Y-9.3047
G01 X5.9513 Y-9.2927
G01 X5.9707 Y-9.2820
G01 X5.9840 Y-9.2757
G01 X5.9976 Y-9.2701
G01 X6.0184 Y-9.2629
G01 X6.0326 Y-9.2590
G01 X6.0470 Y-9.2558
G01 X6.0688 Y-9.2523
G01 X6.0908 Y-9.2504
G01 X6.1055 Y-9.2500
G01 X6.1203 Y-9.2504
G01 X6.1349 Y-9.2514
G01 X6.1496 Y-9.2532
G01 X6.1641 Y-9.2558
G01 X6.1784 Y-9.2590
G01 X6.1996 Y-9.2651
G01 X6.2135 Y-9.2701
G01 X6.2271 Y-9.2757
G01 X6.2404 Y-9.2820
G01 X6.2534 Y-9.2890
G01 X6.2660 Y-9.2965
G01 X6.2842 Y-9.3090
G01 X6.2959 Y-9.3181
G01 X6.3070 Y-9.3277
G01 X6.3177 Y-9.3379
G01 X6.3278 Y-9.3485
G01 X6.3374 Y-9.3597
G01 X6.3508 Y-9.3773
G01 X6.3590 Y-9.3895
G01 X6.3666 Y-9.4021
G01 X6.3735 Y-9.4151
G01 X6.3798 Y-9.4284
G01 X6.3854 Y-9.4420
G01 X6.3904 Y-9.4559
G01 X6.3947 Y-9.4700
G01 X6.3982 Y-9.4843
G01 X6.4023 Y-9.5060
G01 X6.4041 Y-9.5206
G01 X6.4052 Y-9.5353
G01 X6.4055 Y-9.5500
G01 X8.2055 Y-9.5500
G01 X8.2049 Y-9.6015
G01 X8.2030 Y-9.6530
G01 X8.1998 Y-9.7045
G01 X8.1954 Y-9.7558
G01 X8.1897 Y-9.8071
G01 X8.1828 Y-9.8581
G01 X8.1746 Y-9.9090
G01 X8.1652 Y-9.9597
G01 X8.1545 Y-10.0101
G01 X8.1426 Y-10.0603
G01 X8.1295 Y-10.1101
G01 X8.1151 Y-10.1596
G01 X8.0995 Y-10.2087
G01 X8.0828 Y-10.2575
G01 X8.0648 Y-10.3058
G01 X8.0457 Y-10.3536
G01 X8.0254 Y-10.4010
G01 X8.0039 Y-10.4479
G01 X7.9813 Y-10.4942
G01 X7.9576 Y-10.5399
G01 X7.9327 Y-10.5851
G01 X7.9068 Y-10.6296
G01 X7.8797 Y-10.6735
G01 X7.8516 Y-10.7167
G01 X7.8225 Y-10.7592
G01 X7.7923 Y-10.8010
G01 X7.7611 Y-10.8420
G01 X7.7289 Y-10.8822
G01 X7.6957 Y-10.9217
G01 X7.6615 Y-10.9603
G01 X7.6265 Y-10.9980
G01 X7.5905 Y-11.0349
G01 X7.5536 Y-11.0709
G01 X7.5158 Y-11.1060
G01 X7.4772 Y-11.1401
G01 X7.4378 Y-11.1733
G01 X7.3975 Y-11.2055
G01 X7.3565 Y-11.2367
G01 X7.3147 Y-11.2669
G01 X7.2722 Y-11.2961
G01 X7.2290 Y-11.3242
G01 X7.1851 Y-11.3512
G01 X7.1406 Y-11.3772
G01 X7.0955 Y-11.4020
G01 X7.0497 Y-11.4258
G01 X7.0034 Y-11.4484
G01 X6.9565 Y-11.4698
G01 X6.9092 Y-11.4901
G01 X6.8613 Y-11.5093
G01 X6.8130 Y-11.5272
G01 X6.7643 Y-11.5440
G01 X6.7151 Y-11.5596
G01 X6.6656 Y-11.5739
G01 X6.6158 Y-11.5871
G01 X6.5656 Y-11.5990
G01 X6.5152 Y-11.6096
G01 X6.4646 Y-11.6191
G01 X6.4137 Y-11.6273
G01 X6.3626 Y-11.6342
G01 X6.3114 Y-11.6399
G01 X6.2600 Y-11.6443
G01 X6.2086 Y-11.6475
G01 X6.1571 Y-11.6494
G01 X6.1055 Y-11.6500
G01 X6.0540 Y-11.6494
G01 X6.0025 Y-11.6475
G01 X5.9510 Y-11.6443
G01 X5.8997 Y-11.6399
G01 X5.8485 Y-11.6342
G01 X5.7974 Y-11.6273
G01 X5.7465 Y-11.6191
G01 X5.6958 Y-11.6096
G01 X5.6454 Y-11.5990
G01 X5.5953 Y-11.5871
G01 X5.5454 Y-11.5739
G01 X5.4959 Y-11.5596
G01 X5.4468 Y-11.5440
G01 X5.3981 Y-11.5272
G01 X5.3498 Y-11.5093
G01 X5.3019 Y-11.4901
G01 X5.2545 Y-11.4698
G01 X5.2077 Y-11.4484
G01 X5.1614 Y-11.4258
G01 X5.1156 Y-11.4020
G01 X5.0704 Y-11.3772
G01 X5.0259 Y-11.3512
G01 X4.9820 Y-11.3242
G01 X4.9388 Y-11.2961
G01 X4.8963 Y-11.2669
G01 X4.8546 Y-11.2367
G01 X4.8135 Y-11.2055
G01 X4.7733 Y-11.1733
G01 X4.7339 Y-11.1401
G01 X4.6953 Y-11.1060
G01 X4.6575 Y-11.0709
G01 X4.6206 Y-11.0349
G01 X4.5846 Y-10.9980
G01 X4.5495 Y-10.9603
G01 X4.5154 Y-10.9217
G01 X4.4822 Y-10.8822
G01 X4.4500 Y-10.8420
G01 X4.4188 Y-10.8010
G01 X4.3886 Y-10.7592
G01 X4.3594 Y-10.7167
G01 X4.3313 Y-10.6735
G01 X4.3043 Y-10.6296
G01 X4.2784 Y-10.5851
G01 X4.2535 Y-10.5399
G01 X4.2298 Y-10.4942
G01 X4.2072 Y-10.4479
G01 X4.1857 Y-10.4010
G01 X4.1654 Y-10.3536
G01 X4.1462 Y-10.3058
G01 X4.1283 Y-10.2575
G01 X4.1115 Y-10.2087
G01 X4.0960 Y-10.1596
G01 X4.0816 Y-10.1101
G01 X4.0685 Y-10.0603
G01 X4.0566 Y-10.0101
G01 X4.0459 Y-9.9597
G01 X4.0365 Y-9.9090
G01 X4.0283 Y-9.8581
G01 X4.0213 Y-9.8071
G01 X4.0156 Y-9.7558
G01 X4.0112 Y-9.7045
G01 X4.0081 Y-9.6530
G01 X4.0062 Y-9.6015
G01 X4.0055 Y-9.5500
G01 X4.0062 Y-9.4985
G01 X4.0081 Y-9.4470
G01 X4.0112 Y-9.3955
G01 X4.0156 Y-9.3442
G01 X4.0213 Y-9.2929
G01 X4.0283 Y-9.2419
G01 X4.0365 Y-9.1910
G01 X4.0459 Y-9.1403
G01 X4.0566 Y-9.0899
G01 X4.0685 Y-9.0397
G01 X4.0816 Y-8.9899
G01 X4.0960 Y-8.9404
G01 X4.1115 Y-8.8913
G01 X4.1283 Y-8.8425
G01 X4.1462 Y-8.7942
G01 X4.1654 Y-8.7464
G01 X4.1857 Y-8.6990
G01 X4.2072 Y-8.6521
G01 X4.2298 Y-8.6058
G01 X4.2535 Y-8.5601
G01 X4.2784 Y-8.5149
G01 X4.3043 Y-8.4704
G01 X4.3313 Y-8.4265
G01 X4.3594 Y-8.3833
G01 X4.3886 Y-8.3408
G01 X4.4188 Y-8.2990
G01 X4.4500 Y-8.2580
G01 X4.4822 Y-8.2178
G01 X4.5154 Y-8.1783
G01 X4.5495 Y-8.1397
G01 X4.5846 Y-8.1020
G01 X4.6206 Y-8.0651
G01 X4.6575 Y-8.0291
G01 X4.6953 Y-7.9940
G01 X4.7339 Y-7.9599
G01 X4.7733 Y-7.9267
G01 X4.8135 Y-7.8945
G01 X4.8546 Y-7.8633
G01 X4.8963 Y-7.8331
G01 X4.9388 Y-7.8039
G01 X4.9820 Y-7.7758
G01 X5.0259 Y-7.7488
G01 X5.0704 Y-7.7228
G01 X5.1156 Y-7.6980
G01 X5.1614 Y-7.6742
G01 X5.2077 Y-7.6516
G01 X5.2545 Y-7.6302
G01 X5.3019 Y-7.6099
G01 X5.3498 Y-7.5907
G01 X5.3981 Y-7.5728
G01 X5.4468 Y-7.5560
G01 X5.4959 Y-7.5404
G01 X5.5454 Y-7.5261
G01 X5.5953 Y-7.5129
G01 X5.6454 Y-7.5010
G01 X5.6958 Y-7.4904
G01 X5.7465 Y-7.4809
G01 X5.7974 Y-7.4727
G01 X5.8485 Y-7.4658
G01 X5.8997 Y-7.4601
G01 X5.9510 Y-7.4557
G01 X6.0025 Y-7.4525
G01 X6.0540 Y-7.4506
G01 X6.1055 Y-7.4500
G01 X6.1571 Y-7.4506
G01 X6.2086 Y-7.4525
G01 X6.2600 Y-7.4557
G01 X6.3114 Y-7.4601
G01 X6.3626 Y-7.4658
G01 X6.4137 Y-7.4727
G01 X6.4646 Y-7.4809
G01 X6.5152 Y-7.4904
G01 X6.5656 Y-7.5010
G01 X6.6158 Y-7.5129
G01 X6.6656 Y-7.5261
G01 X6.7151 Y-7.5404
G01 X6.7643 Y-7.5560
G01 X6.8130 Y-7.5728
G01 X6.8613 Y-7.5907
G01 X6.9092 Y-7.6099
G01 X6.9565 Y-7.6302
G01 X7.0034 Y-7.6516
G01 X7.0497 Y-7.6742
G01 X7.0955 Y-7.6980
G01 X7.1406 Y-7.7228
G01 X7.1851 Y-7.7488
G01 X7.2290 Y-7.7758
G01 X7.2722 Y-7.8039
G01 X7.3147 Y-7.8331
G01 X7.3565 Y-7.8633
G01 X7.3975 Y-7.8945
G01 X7.4378 Y-7.9267
G01 X7.4772 Y-7.9599
G01 X7.5158 Y-7.9940
G01 X7.5536 Y-8.0291
G01 X7.5905 Y-8.0651
G01 X7.6265 Y-8.1020
G01 X7.6615 Y-8.1397
G01 X7.6957 Y-8.1783
G01 X7.7289 Y-8.2178
G01 X7.7611 Y-8.2580
G01 X7.7923 Y-8.2990
G01 X7.8225 Y-8.3408
G01 X7.8516 Y-8.3833
G01 X7.8797 Y-8.4265
G01 X7.9068 Y-8.4704
G01 X7.9327 Y-8.5149
G01 X7.9576 Y-8.5601
G01 X7.9813 Y-8.6058
G01 X8.0039 Y-8.6521
G01 X8.0254 Y-8.6990
G01 X8.0457 Y-8.7464
G01 X8.0648 Y-8.7942
G01 X8.0828 Y-8.8425
G01 X8.0995 Y-8.8913
G01 X8.1151 Y-8.9404
G01 X8.1295 Y-8.9899
G01 X8.1426 Y-9.0397
G01 X8.1545 Y-9.0899
G01 X8.1652 Y-9.1403
G01 X8.1746 Y-9.1910
G01 X8.1828 Y-9.2419
G01 X8.1897 Y-9.2929
G01 X8.1954 Y-9.3442
G01 X8.1998 Y-9.3955
G01 X8.2030 Y-9.4470
G01 X8.2049 Y-9.4985
G01 X8.2055 Y-9.5500
G01 X8.8055 Y-9.5500
G01 X8.8047 Y-9.6163
G01 X8.8023 Y-9.6825
G01 X8.7982 Y-9.7486
G01 X8.7925 Y-9.8146
G01 X8.7852 Y-9.8805
G01 X8.7763 Y-9.9462
G01 X8.7658 Y-10.0116
G01 X8.7537 Y-10.0767
G01 X8.7399 Y-10.1416
G01 X8.7246 Y-10.2060
G01 X8.7077 Y-10.2701
G01 X8.6893 Y-10.3338
G01 X8.6693 Y-10.3969
G01 X8.6477 Y-10.4596
G01 X8.6246 Y-10.5217
G01 X8.6000 Y-10.5832
G01 X8.5739 Y-10.6442
G01 X8.5463 Y-10.7044
G01 X8.5172 Y-10.7640
G01 X8.4867 Y-10.8228
G01 X8.4548 Y-10.8808
G01 X8.4214 Y-10.9381
G01 X8.3866 Y-10.9945
G01 X8.3505 Y-11.0500
G01 X8.3130 Y-11.1047
G01 X8.2742 Y-11.1584
G01 X8.2341 Y-11.2111
G01 X8.1927 Y-11.2629
G01 X8.1500 Y-11.3136
G01 X8.1061 Y-11.3632
G01 X8.0610 Y-11.4118
G01 X8.0147 Y-11.4592
G01 X7.9673 Y-11.5055
G01 X7.9187 Y-11.5506
G01 X7.8691 Y-11.5945
G01 X7.8184 Y-11.6371
G01 X7.7667 Y-11.6785
G01 X7.7139 Y-11.7187
G01 X7.6602 Y-11.7575
G01 X7.6056 Y-11.7950
G01 X7.5500 Y-11.8311
G01 X7.4936 Y-11.8659
G01 X7.4364 Y-11.8992
G01 X7.3783 Y-11.9312
G01 X7.3195 Y-11.9617
G01 X7.2599 Y-11.9908
G01 X7.1997 Y-12.0184
G01 X7.1388 Y-12.0445
G01 X7.0773 Y-12.0691
G01 X7.0151 Y-12.0922
G01 X6.9525 Y-12.1137
G01 X6.8893 Y-12.1337
G01 X6.8257 Y-12.1522
G01 X6.7616 Y-12.1691
G01 X6.6971 Y-12.1844
G01 X6.6323 Y-12.1981
G01 X6.5671 Y-12.2102
G01 X6.5017 Y-12.2208
G01 X6.4360 Y-12.2297
G01 X6.3702 Y-12.2370
G01 X6.3042 Y-12.2427
G01 X6.2380 Y-12.2467
G01 X6.1718 Y-12.2492
G01 X6.1055 Y-12.2500
G01 X6.0393 Y-12.2492
G01 X5.9731 Y-12.2467
G01 X5.9069 Y-12.2427
G01 X5.8409 Y-12.2370
G01 X5.7750 Y-12.2297
G01 X5.7094 Y-12.2208
G01 X5.6439 Y-12.2102
G01 X5.5788 Y-12.1981
G01 X5.5140 Y-12.1844
G01 X5.4495 Y-12.1691
G01 X5.3854 Y-12.1522
G01 X5.3218 Y-12.1337
G01 X5.2586 Y-12.1137
G01 X5.1959 Y-12.0922
G01 X5.1338 Y-12.0691
G01 X5.0723 Y-12.0445
G01 X5.0114 Y-12.0184
G01 X4.9511 Y-11.9908
G01 X4.8916 Y-11.9617
G01 X4.8328 Y-11.9312
G01 X4.7747 Y-11.8992
G01 X4.7175 Y-11.8659
G01 X4.6610 Y-11.8311
G01 X4.6055 Y-11.7950
G01 X4.5509 Y-11.7575
G01 X4.4971 Y-11.7187
G01 X4.4444 Y-11.6785
G01 X4.3927 Y-11.6371
G01 X4.3420 Y-11.5945
G01 X4.2923 Y-11.5506
G01 X4.2438 Y-11.5055
G01 X4.1963 Y-11.4592
G01 X4.1501 Y-11.4118
G01 X4.1050 Y-11.3632
G01 X4.0611 Y-11.3136
G01 X4.0184 Y-11.2629
G01 X3.9770 Y-11.2111
G01 X3.9369 Y-11.1584
G01 X3.8981 Y-11.1047
G01 X3.8606 Y-11.0500
G01 X3.8244 Y-10.9945
G01 X3.7897 Y-10.9381
G01 X3.7563 Y-10.8808
G01 X3.7243 Y-10.8228
G01 X3.6938 Y-10.7640
G01 X3.6648 Y-10.7044
G01 X3.6372 Y-10.6442
G01 X3.6111 Y-10.5832
G01 X3.5865 Y-10.5217
G01 X3.5634 Y-10.4596
G01 X3.5418 Y-10.3969
G01 X3.5218 Y-10.3338
G01 X3.5033 Y-10.2701
G01 X3.4864 Y-10.2060
G01 X3.4711 Y-10.1416
G01 X3.4574 Y-10.0767
G01 X3.4453 Y-10.0116
G01 X3.4348 Y-9.9462
G01 X3.4258 Y-9.8805
G01 X3.4185 Y-9.8146
G01 X3.4128 Y-9.7486
G01 X3.4088 Y-9.6825
G01 X3.4063 Y-9.6163
G01 X3.4055 Y-9.5500
G01 X3.4063 Y-9.4837
G01 X3.4088 Y-9.4175
G01 X3.4128 Y-9.3514
G01 X3.4185 Y-9.2854
G01 X3.4258 Y-9.2195
G01 X3.4348 Y-9.1538
G01 X3.4453 Y-9.0884
G01 X3.4574 Y-9.0233
G01 X3.4711 Y-8.9584
G01 X3.4864 Y-8.8940
G01 X3.5033 Y-8.8299
G01 X3.5218 Y-8.7662
G01 X3.5418 Y-8.7031
G01 X3.5634 Y-8.6404
G01 X3.5865 Y-8.5783
G01 X3.6111 Y-8.5168
G01 X3.6372 Y-8.4558
G01 X3.6648 Y-8.3956
G01 X3.6938 Y-8.3360
G01 X3.7243 Y-8.2772
G01 X3.7563 Y-8.2192
G01 X3.7897 Y-8.1619
G01 X3.8244 Y-8.1055
G01 X3.8606 Y-8.0500
G01 X3.8981 Y-7.9953
G01 X3.9369 Y-7.9416
G01 X3.9770 Y-7.8889
G01 X4.0184 Y-7.8371
G01 X4.0611 Y-7.7864
G01 X4.1050 Y-7.7368
G01 X4.1501 Y-7.6882
G01 X4.1963 Y-7.6408
G01 X4.2438 Y-7.5945
G01 X4.2923 Y-7.5494
G01 X4.3420 Y-7.5055
G01 X4.3927 Y-7.4629
G01 X4.4444 Y-7.4215
G01 X4.4971 Y-7.3813
G01 X4.5509 Y-7.3425
G01 X4.6055 Y-7.3050
G01 X4.6610 Y-7.2689
G01 X4.7175 Y-7.2341
G01 X4.7747 Y-7.2008
G01 X4.8328 Y-7.1688
G01 X4.8916 Y-7.1383
G01 X4.9511 Y-7.1092
G01 X5.0114 Y-7.0816
G01 X5.0723 Y-7.0555
G01 X5.1338 Y-7.0309
G01 X5.1959 Y-7.0078
G01 X5.2586 Y-6.9863
G01 X5.3218 Y-6.9663
G01 X5.3854 Y-6.9478
G01 X5.4495 Y-6.9309
G01 X5.5140 Y-6.9156
G01 X5.5788 Y-6.9019
G01 X5.6439 Y-6.8898
G01 X5.7094 Y-6.8792
G01 X5.7750 Y-6.8703
G01 X5.8409 Y-6.8630
G01 X5.9069 Y-6.8573
G01 X5.9731 Y-6.8533
G01 X6.0393 Y-6.8508
G01 X6.1055 Y-6.8500
G01 X6.1718 Y-6.8508
G01 X6.2380 Y-6.8533
G01 X6.3042 Y-6.8573
G01 X6.3702 Y-6.8630
G01 X6.4360 Y-6.8703
G01 X6.5017 Y-6.8792
G01 X6.5671 Y-6.8898
G01 X6.6323 Y-6.9019
G01 X6.6971 Y-6.9156
G01 X6.7616 Y-6.9309
G01 X6.8257 Y-6.9478
G01 X6.8893 Y-6.9663
G01 X6.9525 Y-6.9863
G01 X7.0151 Y-7.0078
G01 X7.0773 Y-7.0309
G01 X7.1388 Y-7.0555
G01 X7.1997 Y-7.0816
G01 X7.2599 Y-7.1092
G01 X7.3195 Y-7.1383
G01 X7.3783 Y-7.1688
G01 X7.4364 Y-7.2008
G01 X7.4936 Y-7.2341
G01 X7.5500 Y-7.2689
G01 X7.6056 Y-7.3050
G01 X7.6602 Y-7.3425
G01 X7.7139 Y-7.3813
G01 X7.7667 Y-7.4215
G01 X7.8184 Y-7.4629
G01 X7.8691 Y-7.5055
G01 X7.9187 Y-7.5494
G01 X7.9673 Y-7.5945
G01 X8.0147 Y-7.6408
G01 X8.0610 Y-7.6882
G01 X8.1061 Y-7.7368
G01 X8.1500 Y-7.7864
G01 X8.1927 Y-7.8371
G01 X8.2341 Y-7.8889
G01 X8.2742 Y-7.9416
G01 X8.3130 Y-7.9953
G01 X8.3505 Y-8.0500
G01 X8.3866 Y-8.1055
G01 X8.4214 Y-8.1619
G01 X8.4548 Y-8.2192
G01 X8.4867 Y-8.2772
G01 X8.5172 Y-8.3360
G01 X8.5463 Y-8.3956
G01 X8.5739 Y-8.4558
G01 X8.6000 Y-8.5168
G01 X8.6246 Y-8.5783
G01 X8.6477 Y-8.6404
G01 X8.6693 Y-8.7031
G01 X8.6893 Y-8.7662
G01 X8.7077 Y-8.8299
G01 X8.7246 Y-8.8940
G01 X8.7399 Y-8.9584
G01 X8.7537 Y-9.0233
G01 X8.7658 Y-9.0884
G01 X8.7763 Y-9.1538
G01 X8.7852 Y-9.2195
G01 X8.7925 Y-9.2854
G01 X8.7982 Y-9.3514
G01 X8.8023 Y-9.4175
G01 X8.8047 Y-9.4837
G01 X8.8055 Y-9.5500
G00 Z2.0000
G00 X8.7385 Y-8.8382
G01 F60.00
G01 Z-2.4000
G01 F120.00
G01 X8.7403 Y-8.8663
G01 X8.7432 Y-8.8920
G01 X8.7471 Y-8.9162
G01 X8.7524 Y-8.9416
G01 X8.7594 Y-8.9688
G01 X8.7672 Y-8.9935
G01 X8.7769 Y-9.0199
G01 X8.7870 Y-9.0437
G01 X8.7961 Y-9.0629
G01 X8.8468 Y-9.1642
G01 X8.8532 Y-9.1763
G01 X8.8673 Y-9.2006
G01 X8.8814 Y-9.2223
G01 X8.8979 Y-9.2451
G01 X8.9140 Y-9.2653
G01 X8.9244 Y-9.2773
G01 X8.9411 Y-9.2953
G01 X9.0002 Y-9.3545
G01 X9.0209 Y-9.3735
G01 X9.0397 Y-9.3893
G01 X9.0603 Y-9.4049
G01 X9.0834 Y-9.4209
G01 X9.1055 Y-9.4345
G01 X9.1301 Y-9.4480
G01 X9.2326 Y-9.4994
G01 X9.2486 Y-9.5070
G01 X9.2744 Y-9.5181
G01 X9.2987 Y-9.5272
G01 X9.3267 Y-9.5361
G01 X9.3505 Y-9.5423
G01 X9.3659 Y-9.5458
G01 X9.3793 Y-9.5484
G01 X9.4035 Y-9.5523
G01 X9.4328 Y-9.5555
G01 X9.4573 Y-9.5570
G01 X9.4786 Y-9.5574
G01 X9.6690 Y-9.5574
G01 X9.6903 Y-9.5570
G01 X9.7148 Y-9.5555
G01 X9.7284 Y-9.5542
G01 X9.7562 Y-9.5505
G01 X9.7817 Y-9.5458
G01 X9.8090 Y-9.5393
G01 X9.8339 Y-9.5321
G01 X9.8605 Y-9.5230
G01 X9.8846 Y-9.5135
G01 X9.8990 Y-9.5070
G01 X9.9150 Y-9.4994
G01 X9.9833 Y-9.4652
G01 X10.0075 Y-9.4804
G01 X10.0288 Y-9.4925
G01 X10.0397 Y-9.4981
G01 X10.0552 Y-9.5056
G01 X10.0776 Y-9.5156
G01 X10.1051 Y-9.5261
G01 X10.1284 Y-9.5338
G01 X10.1402 Y-9.5372
G01 X10.1568 Y-9.5415
G01 X10.1808 Y-9.5469
G01 X10.2098 Y-9.5518
G01 X10.2220 Y-9.5534
G01 X10.2464 Y-9.5558
G01 X10.2636 Y-9.5568
G01 X10.2881 Y-9.5574
G01 X10.8718 Y-9.5573
G01 X10.9012 Y-9.5558
G01 X10.9256 Y-9.5534
G01 X10.9378 Y-9.5518
G01 X10.9668 Y-9.5469
G01 X10.9955 Y-9.5403
G01 X11.0192 Y-9.5338
G01 X11.0425 Y-9.5261
G01 X11.0586 Y-9.5201
G01 X11.0813 Y-9.5107
G01 X11.0969 Y-9.5035
G01 X11.1188 Y-9.4925
G01 X11.1402 Y-9.4804
G01 X11.1548 Y-9.4714
G01 X11.1752 Y-9.4578
G01 X11.1891 Y-9.4477
G01 X11.2085 Y-9.4326
G01 X11.2270 Y-9.4166
G01 X11.2397 Y-9.4049
G01 X11.2570 Y-9.3876
G01 X11.2687 Y-9.3749
G01 X11.2847 Y-9.3564
G01 X11.2998 Y-9.3370
G01 X11.3099 Y-9.3231
G01 X11.3169 Y-9.3130
G01 X11.3300 Y-9.2923
G01 X11.3387 Y-9.2774
G01 X11.3503 Y-9.2558
G01 X11.3577 Y-9.2403
G01 X11.3677 Y-9.2179
G01 X11.3765 Y-9.1950
G01 X11.3822 Y-9.1788
G01 X11.3893 Y-9.1553
G01 X11.3936 Y-9.1387
G01 X11.3990 Y-9.1147
G01 X11.4032 Y-9.0905
G01 X11.4055 Y-9.0735
G01 X11.4080 Y-9.0491
G01 X11.4089 Y-9.0320
G01 X11.4095 Y-9.0074
G01 X11.4087 Y-8.9780
G01 X11.4080 Y-8.9657
G01 X11.4055 Y-8.9413
G01 X11.4032 Y-8.9243
G01 X11.3990 Y-8.9001
G01 X11.3936 Y-8.8762
G01 X11.3893 Y-8.8595
G01 X11.3822 Y-8.8361
G01 X11.3765 Y-8.8198
G01 X11.3722 Y-8.8083
G01 X11.3628 Y-8.7857
G01 X11.3556 Y-8.7701
G01 X11.3446 Y-8.7481
G01 X11.3325 Y-8.7268
G01 X11.3235 Y-8.7121
G01 X11.3169 Y-8.7018
G01 X11.3027 Y-8.6818
G01 X11.2924 Y-8.6681
G01 X11.2768 Y-8.6491
G01 X11.2654 Y-8.6363
G01 X11.2484 Y-8.6185
G01 X11.2307 Y-8.6016
G01 X11.2178 Y-8.5901
G01 X11.1989 Y-8.5746
G01 X11.1891 Y-8.5671
G01 X11.1752 Y-8.5570
G01 X11.1548 Y-8.5434
G01 X11.1402 Y-8.5344
G01 X11.1238 Y-8.5251
G01 X11.1238 Y-8.0071
G01 X11.1232 Y-7.9826
G01 X11.1222 Y-7.9655
G01 X11.1198 Y-7.9410
G01 X11.1155 Y-7.9119
G01 X11.1107 Y-7.8878
G01 X11.1035 Y-7.8593
G01 X11.0963 Y-7.8358
G01 X11.0864 Y-7.8081
G01 X11.0770 Y-7.7854
G01 X11.0644 Y-7.7588
G01 X11.0587 Y-7.7479
G01 X11.0466 Y-7.7265
G01 X11.0310 Y-7.7016
G01 X11.0168 Y-7.6815
G01 X11.0065 Y-7.6679
G01 X10.9988 Y-7.6582
G01 X10.9827 Y-7.6397
G01 X10.9625 Y-7.6183
G01 X10.9447 Y-7.6014
G01 X10.9319 Y-7.5900
G01 X10.9225 Y-7.5820
G01 X10.9031 Y-7.5670
G01 X10.8792 Y-7.5499
G01 X10.8542 Y-7.5343
G01 X10.8329 Y-7.5222
G01 X10.8219 Y-7.5165
G01 X10.8065 Y-7.5091
G01 X10.7841 Y-7.4992
G01 X10.7565 Y-7.4887
G01 X10.7332 Y-7.4810
G01 X10.7214 Y-7.4776
G01 X10.7048 Y-7.4733
G01 X10.6809 Y-7.4679
G01 X10.6518 Y-7.4630
G01 X10.6275 Y-7.4600
G01 X10.6152 Y-7.4590
G01 X10.5858 Y-7.4575
G01 X10.5612 Y-7.4576
G01 X10.5319 Y-7.4590
G01 X10.5074 Y-7.4614
G01 X10.4783 Y-7.4658
G01 X10.4542 Y-7.4706
G01 X10.4257 Y-7.4777
G01 X10.4021 Y-7.4849
G01 X10.3745 Y-7.4948
G01 X10.3518 Y-7.5042
G01 X10.3252 Y-7.5168
G01 X10.3035 Y-7.5284
G01 X10.2783 Y-7.5435
G01 X10.2579 Y-7.5572
G01 X10.2343 Y-7.5747
G01 X10.2167 Y-7.5892
G01 X10.1989 Y-7.5746
G01 X10.1752 Y-7.5570
G01 X10.1548 Y-7.5434
G01 X10.1402 Y-7.5344
G01 X10.1188 Y-7.5223
G01 X10.0969 Y-7.5113
G01 X10.0813 Y-7.5041
G01 X10.0586 Y-7.4947
G01 X10.0425 Y-7.4888
G01 X10.0192 Y-7.4811
G01 X9.9955 Y-7.4745
G01 X9.9668 Y-7.4680
G01 X9.9378 Y-7.4630
G01 X9.9134 Y-7.4600
G01 X9.8890 Y-7.4582
G01 X9.8718 Y-7.4575
G01 X9.8473 Y-7.4575
G01 X9.8301 Y-7.4582
G01 X9.8178 Y-7.4590
G01 X9.7934 Y-7.4614
G01 X9.7764 Y-7.4638
G01 X9.7522 Y-7.4680
G01 X9.7283 Y-7.4733
G01 X9.7116 Y-7.4777
G01 X9.6882 Y-7.4848
G01 X9.6766 Y-7.4888
G01 X9.6604 Y-7.4947
G01 X9.6378 Y-7.5041
G01 X9.6222 Y-7.5113
G01 X9.6002 Y-7.5223
G01 X9.5738 Y-7.5375
G01 X9.5581 Y-7.5283
G01 X9.5365 Y-7.5167
G01 X9.5210 Y-7.5092
G01 X9.4986 Y-7.4993
G01 X9.4757 Y-7.4904
G01 X9.4478 Y-7.4811
G01 X9.4241 Y-7.4745
G01 X9.4074 Y-7.4705
G01 X9.3833 Y-7.4657
G01 X9.3664 Y-7.4630
G01 X9.3420 Y-7.4600
G01 X9.3175 Y-7.4582
G01 X9.3004 Y-7.4575
G01 X9.2758 Y-7.4575
G01 X9.2464 Y-7.4590
G01 X9.2220 Y-7.4614
G01 X9.2050 Y-7.4638
G01 X9.1808 Y-7.4680
G01 X9.1521 Y-7.4745
G01 X9.1402 Y-7.4777
G01 X9.1167 Y-7.4848
G01 X9.0890 Y-7.4947
G01 X9.0663 Y-7.5041
G01 X9.0552 Y-7.5092
G01 X9.0288 Y-7.5223
G01 X9.0075 Y-7.5344
G01 X8.9928 Y-7.5434
G01 X8.9825 Y-7.5501
G01 X8.9625 Y-7.5642
G01 X8.9487 Y-7.5746
G01 X8.9298 Y-7.5901
G01 X8.9080 Y-7.6099
G01 X8.8906 Y-7.6273
G01 X8.8708 Y-7.6491
G01 X8.8553 Y-7.6681
G01 X8.8377 Y-7.6917
G01 X8.8241 Y-7.7121
G01 X8.8089 Y-7.7374
G01 X8.7974 Y-7.7590
G01 X8.7848 Y-7.7857
G01 X8.7754 Y-7.8083
G01 X8.7655 Y-7.8361
G01 X8.7583 Y-7.8595
G01 X8.7512 Y-7.8881
G01 X8.7464 Y-7.9122
G01 X8.7437 Y-7.9292
G01 X8.7407 Y-7.9535
G01 X8.7387 Y-7.9829
G01 X8.7381 Y-8.0074
G01 X8.7381 Y-8.8169
G01 X8.7385 Y-8.8382
G00 Z2.0000
G00 X11.8055 Y-9.5500
G01 F60.00
G01 Z-2.4000
G01 F120.00
G01 X11.8038 Y-9.6899
G01 X11.7987 Y-9.8297
G01 X11.7901 Y-9.9693
G01 X11.7781 Y-10.1087
G01 X11.7627 Y-10.2477
G01 X11.7438 Y-10.3864
G01 X11.7216 Y-10.5245
G01 X11.6960 Y-10.6620
G01 X11.6670 Y-10.7989
G01 X11.6347 Y-10.9350
G01 X11.5991 Y-11.0703
G01 X11.5601 Y-11.2046
G01 X11.5178 Y-11.3380
G01 X11.4723 Y-11.4703
G01 X11.4236 Y-11.6014
G01 X11.3716 Y-11.7313
G01 X11.3165 Y-11.8599
G01 X11.2583 Y-11.9871
G01 X11.1969 Y-12.1128
G01 X11.1325 Y-12.2370
G01 X11.0855 Y-12.3224
G00 Z2.0000
G00 X11.7558 Y-12.3356
G01 F60.00
G01 Z-2.4000
G01 F120.00
G01 X11.8007 Y-12.2436
G01 X11.8651 Y-12.1030
G01 X11.9260 Y-11.9609
G01 X11.9834 Y-11.8173
G01 X12.0373 Y-11.6724
G01 X12.0876 Y-11.5262
G01 X12.1343 Y-11.3788
G01 X12.1773 Y-11.2303
G01 X12.2167 Y-11.0808
G01 X12.2525 Y-10.9303
G01 X12.2845 Y-10.7791
G01 X12.3128 Y-10.6271
G01 X12.3373 Y-10.4744
G01 X12.3582 Y-10.3212
G01 X12.3752 Y-10.1675
G01 X12.3885 Y-10.0135
G01 X12.3979 Y-9.8591
G01 X12.4036 Y-9.7046
G01 X12.4055 Y-9.5500
G01 X12.4055 Y-9.5500
G01 X12.4036 Y-9.3954
G01 X12.3979 Y-9.2409
G01 X12.3885 Y-9.0865
G01 X12.3752 Y-8.9325
G01 X12.3582 Y-8.7788
G01 X12.3373 Y-8.6256
G01 X12.3128 Y-8.4729
G01 X12.2845 Y-8.3209
G01 X12.2525 Y-8.1697
G01 X12.2167 Y-8.0192
G01 X12.1773 Y-7.8697
G01 X12.1343 Y-7.7212
G01 X12.0876 Y-7.5738
G01 X12.0373 Y-7.4276
G01 X11.9834 Y-7.2827
G01 X11.9260 Y-7.1391
G01 X11.8651 Y-6.9970
G01 X11.8007 Y-6.8564
G01 X11.7328 Y-6.7174
G01 X11.6616 Y-6.5802
G01 X11.5871 Y-6.4447
G01 X11.5092 Y-6.3112
G01 X11.4281 Y-6.1795
G01 X11.3438 Y-6.0499
G01 X11.2563 Y-5.9224
G01 X11.1657 Y-5.7971
G01 X11.0721 Y-5.6740
G01 X10.9755 Y-5.5533
G01 X10.8759 Y-5.4350
G01 X10.7735 Y-5.3192
G01 X10.6683 Y-5.2059
G01 X10.5603 Y-5.0952
G01 X10.4496 Y-4.9872
G01 X10.3364 Y-4.8820
G01 X10.2205 Y-4.7796
G01 X10.1022 Y-4.6800
G01 X9.9815 Y-4.5834
G01 X9.8584 Y-4.4898
G01 X9.7331 Y-4.3992
G01 X9.6056 Y-4.3117
G01 X9.4760 Y-4.2274
G01 X9.3444 Y-4.1463
G01 X9.2108 Y-4.0685
G01 X9.0753 Y-3.9939
G01 X8.9381 Y-3.9227
G01 X8.7991 Y-3.8549
G01 X8.6586 Y-3.7905
G01 X8.5164 Y-3.7296
G01 X8.3729 Y-3.6721
G01 X8.2279 Y-3.6183
G01 X8.0817 Y-3.5680
G01 X7.9343 Y-3.5213
G01 X7.7858 Y-3.4782
G01 X7.6363 Y-3.4388
G01 X7.4859 Y-3.4031
G01 X7.3346 Y-3.3711
G01 X7.1826 Y-3.3428
G01 X7.0299 Y-3.3182
G01 X6.8767 Y-3.2974
G01 X6.7230 Y-3.2803
G01 X6.5690 Y-3.2671
G01 X6.4982 Y-3.2627
G01 X5.5848 Y-3.8742
G01 X5.6862 Y-3.8654
G01 X5.8258 Y-3.8569
G01 X5.9656 Y-3.8517
G01 X6.1055 Y-3.8500
G01 X6.2454 Y-3.8517
G01 X6.3852 Y-3.8569
G01 X6.5249 Y-3.8654
G01 X6.6642 Y-3.8774
G01 X6.8033 Y-3.8929
G01 X6.9419 Y-3.9117
G01 X7.0800 Y-3.9339
G01 X7.2175 Y-3.9595
G01 X7.3544 Y-3.9885
G01 X7.4905 Y-4.0208
G01 X7.6258 Y-4.0565
G01 X7.7602 Y-4.0954
G01 X7.8935 Y-4.1377
G01 X8.0258 Y-4.1832
G01 X8.1569 Y-4.2319
G01 X8.2868 Y-4.2839
G01 X8.4154 Y-4.3390
G01 X8.5426 Y-4.3973
G01 X8.6683 Y-4.4586
G01 X8.7925 Y-4.5230
G01 X8.9151 Y-4.5905
G01 X9.0359 Y-4.6609
G01 X9.1550 Y-4.7343
G01 X9.2723 Y-4.8106
G01 X9.3876 Y-4.8898
G01 X9.5010 Y-4.9717
G01 X9.6124 Y-5.0564
G01 X9.7216 Y-5.1438
G01 X9.8286 Y-5.2339
G01 X9.9334 Y-5.3266
G01 X10.0359 Y-5.4218
G01 X10.1360 Y-5.5195
G01 X10.2337 Y-5.6196
G01 X10.3290 Y-5.7221
G01 X10.4216 Y-5.8269
G01 X10.5117 Y-5.9340
G01 X10.5991 Y-6.0432
G01 X10.6838 Y-6.1545
G01 X10.7658 Y-6.2679
G01 X10.8449 Y-6.3832
G01 X10.9212 Y-6.5005
G01 X10.9946 Y-6.6196
G01 X11.0650 Y-6.7405
G01 X11.1325 Y-6.8630
G01 X11.1969 Y-6.9872
G01 X11.2583 Y-7.1129
G01 X11.3165 Y-7.2401
G01 X11.3716 Y-7.3687
G01 X11.4236 Y-7.4986
G01 X11.4723 Y-7.6297
G01 X11.5178 Y-7.7620
G01 X11.5601 Y-7.8954
G01 X11.5991 Y-8.0297
G01 X11.6347 Y-8.1650
G01 X11.6670 Y-8.3011
G01 X11.6960 Y-8.4380
G01 X11.7216 Y-8.5755
G01 X11.7438 Y-8.7136
G01 X11.7627 Y-8.8523
G01 X11.7781 Y-8.9913
G01 X11.7901 Y-9.1307
G01 X11.7987 Y-9.2703
G01 X11.8038 Y-9.4101
G01 X11.8055 Y-9.5500
G01 X13.0055 Y-9.5500
G01 X13.0035 Y-9.3807
G01 X12.9972 Y-9.2114
G01 X12.9868 Y-9.0424
G01 X12.9723 Y-8.8737
G01 X12.9536 Y-8.7054
G01 X12.9309 Y-8.5376
G01 X12.9039 Y-8.3704
G01 X12.8730 Y-8.2039
G01 X12.8379 Y-8.0382
G01 X12.7987 Y-7.8734
G01 X12.7556 Y-7.7097
G01 X12.7084 Y-7.5470
G01 X12.6573 Y-7.3856
G01 X12.6022 Y-7.2255
G01 X12.5432 Y-7.0667
G01 X12.4803 Y-6.9095
G01 X12.4136 Y-6.7538
G01 X12.3431 Y-6.5999
G01 X12.2688 Y-6.4477
G01 X12.1908 Y-6.2974
G01 X12.1091 Y-6.1490
G01 X12.0239 Y-6.0027
G01 X11.9350 Y-5.8585
G01 X11.8427 Y-5.7166
G01 X11.7469 Y-5.5769
G01 X11.6477 Y-5.4397
G01 X11.5451 Y-5.3049
G01 X11.4393 Y-5.1727
G01 X11.3303 Y-5.0431
G01 X11.2181 Y-4.9162
G01 X11.1028 Y-4.7922
G01 X10.9846 Y-4.6710
G01 X10.8634 Y-4.5527
G01 X10.7393 Y-4.4374
G01 X10.6124 Y-4.3253
G01 X10.4828 Y-4.2162
G01 X10.3506 Y-4.1104
G01 X10.2159 Y-4.0079
G01 X10.0786 Y-3.9087
G01 X9.9390 Y-3.8129
G01 X9.7970 Y-3.7205
G01 X9.6528 Y-3.6317
G01 X9.5065 Y-3.5464
G01 X9.3582 Y-3.4647
G01 X9.2079 Y-3.3868
G01 X9.0557 Y-3.3125
G01 X8.9017 Y-3.2420
G01 X8.7460 Y-3.1752
G01 X8.5888 Y-3.1123
G01 X8.4301 Y-3.0533
G01 X8.2699 Y-2.9983
G01 X8.1085 Y-2.9471
G01 X7.9459 Y-2.8999
G01 X7.7821 Y-2.8568
G01 X7.6173 Y-2.8177
G01 X7.5046 Y-2.7938
G01 X8.5900 Y-2.4739
G01 X8.6322 Y-2.4884
G01 X8.8047 Y-2.5526
G01 X8.9757 Y-2.6209
G01 X9.1448 Y-2.6934
G01 X9.3122 Y-2.7701
G01 X9.4776 Y-2.8508
G01 X9.6410 Y-2.9356
G01 X9.8023 Y-3.0243
G01 X9.9613 Y-3.1170
G01 X10.1180 Y-3.2136
G01 X10.2723 Y-3.3140
G01 X10.4241 Y-3.4181
G01 X10.5733 Y-3.5259
G01 X10.7198 Y-3.6374
G01 X10.8635 Y-3.7524
G01 X11.0043 Y-3.8709
G01 X11.1422 Y-3.9929
G01 X11.2771 Y-4.1181
G01 X11.4088 Y-4.2467
G01 X11.5374 Y-4.3784
G01 X11.6627 Y-4.5133
G01 X11.7846 Y-4.6512
G01 X11.9031 Y-4.7921
G01 X12.0181 Y-4.9358
G01 X12.1296 Y-5.0823
G01 X12.2374 Y-5.2314
G01 X12.3416 Y-5.3832
G01 X12.4419 Y-5.5375
G01 X12.5385 Y-5.6942
G01 X12.6312 Y-5.8533
G01 X12.7199 Y-6.0145
G01 X12.8047 Y-6.1779
G01 X12.8855 Y-6.3433
G01 X12.9621 Y-6.5107
G01 X13.0346 Y-6.6799
G01 X13.1030 Y-6.8508
G01 X13.1671 Y-7.0233
G01 X13.2270 Y-7.1974
G01 X13.2826 Y-7.3729
G01 X13.3339 Y-7.5497
G01 X13.3808 Y-7.7276
G01 X13.4233 Y-7.9067
G01 X13.4614 Y-8.0868
G01 X13.4951 Y-8.2678
G01 X13.5244 Y-8.4495
G01 X13.5491 Y-8.6319
G01 X13.5694 Y-8.8149
G01 X13.5852 Y-8.9983
G01 X13.5965 Y-9.1820
G01 X13.6033 Y-9.3659
G01 X13.6055 Y-9.5500
G01 X13.6033 Y-9.7341
G01 X13.5965 Y-9.9180
G01 X13.5852 Y-10.1017
G01 X13.5694 Y-10.2851
G01 X13.5491 Y-10.4681
G01 X13.5244 Y-10.6505
G01 X13.4951 Y-10.8322
G01 X13.4614 Y-11.0132
G01 X13.4233 Y-11.1933
G01 X13.3808 Y-11.3724
G01 X13.3339 Y-11.5503
G01 X13.2826 Y-11.7271
G01 X13.2270 Y-11.9026
G01 X13.1671 Y-12.0767
G01 X13.1030 Y-12.2492
G01 X13.0737 Y-12.3224
G00 Z2.0000
G00 X13.7158 Y-12.3224
G01 F60.00
G01 Z-2.4000
G01 F120.00
G01 X13.7320 Y-12.2788
G01 X13.7967 Y-12.0908
G01 X13.8568 Y-11.9013
G01 X13.9121 Y-11.7104
G01 X13.9628 Y-11.5181
G01 X14.0087 Y-11.3247
G01 X14.0499 Y-11.1302
G01 X14.0863 Y-10.9348
G01 X14.1179 Y-10.7385
G01 X14.1446 Y-10.5415
G01 X14.1665 Y-10.3439
G01 X14.1836 Y-10.1459
G01 X14.1958 Y-9.9474
G01 X14.2031 Y-9.7488
G01 X14.2055 Y-9.5500
G01 X14.2031 Y-9.3512
G01 X14.1958 Y-9.1526
G01 X14.1836 Y-8.9541
G01 X14.1665 Y-8.7561
G01 X14.1446 Y-8.5585
G01 X14.1179 Y-8.3615
G01 X14.0863 Y-8.1652
G01 X14.0499 Y-7.9698
G01 X14.0087 Y-7.7753
G01 X13.9628 Y-7.5819
G01 X13.9121 Y-7.3896
G01 X13.8568 Y-7.1987
G01 X13.7967 Y-7.0092
G01 X13.7320 Y-6.8212
G01 X13.6628 Y-6.6349
G01 X13.5890 Y-6.4503
G01 X13.5106 Y-6.2675
G01 X13.4278 Y-6.0868
G01 X13.3407 Y-5.9081
G01 X13.2491 Y-5.7317
G01 X13.1532 Y-5.5575
G01 X13.0531 Y-5.3858
G01 X12.9488 Y-5.2165
G01 X12.8404 Y-5.0499
G01 X12.7280 Y-4.8860
G01 X12.6115 Y-4.7248
G01 X12.4911 Y-4.5666
G01 X12.3669 Y-4.4114
G01 X12.2389 Y-4.2593
G01 X12.1072 Y-4.1104
G01 X11.9719 Y-3.9647
G01 X11.8331 Y-3.8224
G01 X11.6908 Y-3.6836
G01 X11.5452 Y-3.5483
G01 X11.3962 Y-3.4166
G01 X11.2441 Y-3.2886
G01 X11.0889 Y-3.1644
G01 X10.9307 Y-3.0440
G01 X10.7696 Y-2.9276
G01 X10.6057 Y-2.8151
G01 X10.4390 Y-2.7067
G01 X10.2698 Y-2.6024
G01 X10.0980 Y-2.5023
G01 X9.9238 Y-2.4064
G01 X9.7870 Y-2.3354
G01 X11.0652 Y-2.4028
G01 X11.1151 Y-2.4370
G01 X11.2881 Y-2.5621
G01 X11.4580 Y-2.6914
G01 X11.6248 Y-2.8248
G01 X11.7881 Y-2.9623
G01 X11.9481 Y-3.1037
G01 X12.1045 Y-3.2491
G01 X12.2574 Y-3.3982
G01 X12.4065 Y-3.5510
G01 X12.5518 Y-3.7074
G01 X12.6933 Y-3.8674
G01 X12.8307 Y-4.0308
G01 X12.9641 Y-4.1975
G01 X13.0934 Y-4.3674
G01 X13.2185 Y-4.5405
G01 X13.3393 Y-4.7165
G01 X13.4558 Y-4.8955
G01 X13.5678 Y-5.0773
G01 X13.6753 Y-5.2618
G01 X13.7782 Y-5.4488
G01 X13.8766 Y-5.6384
G01 X13.9702 Y-5.8303
G01 X14.0592 Y-6.0244
G01 X14.1433 Y-6.2207
G01 X14.2226 Y-6.4189
G01 X14.2970 Y-6.6191
G01 X14.3664 Y-6.8210
G01 X14.4309 Y-7.0245
G01 X14.4904 Y-7.2296
G01 X14.5448 Y-7.4361
G01 X14.5941 Y-7.6438
G01 X14.6384 Y-7.8527
G01 X14.6774 Y-8.0626
G01 X14.7114 Y-8.2734
G01 X14.7401 Y-8.4850
G01 X14.7636 Y-8.6973
G01 X14.7820 Y-8.9100
G01 X14.7951 Y-9.1231
G01 X14.8029 Y-9.3365
G01 X14.8055 Y-9.5500
G01 X14.8029 Y-9.7635
G01 X14.7951 Y-9.9769
G01 X14.7820 Y-10.1900
G01 X14.7636 Y-10.4027
G01 X14.7401 Y-10.6150
G01 X14.7114 Y-10.8266
G01 X14.6774 Y-11.0374
G01 X14.6384 Y-11.2473
G01 X14.5941 Y-11.4562
G01 X14.5448 Y-11.6639
G01 X14.4904 Y-11.8704
G01 X14.4309 Y-12.0755
G01 X14.3664 Y-12.2790
G01 X14.3411 Y-12.3528
G00 Z2.0000
G00 X14.4253 Y-13.7051
G01 F60.00
G01 Z-2.4000
G01 F120.00
G01 X14.5126 Y-13.5263
G01 X14.6077 Y-13.3187
G01 X14.6976 Y-13.1090
G01 X14.7824 Y-12.8970
G01 X14.8619 Y-12.6831
G01 X14.9361 Y-12.4672
G01 X15.0051 Y-12.2496
G01 X15.0687 Y-12.0304
G01 X15.1268 Y-11.8097
G01 X15.1796 Y-11.5876
G01 X15.2268 Y-11.3643
G01 X15.2686 Y-11.1399
G01 X15.3049 Y-10.9146
G01 X15.3356 Y-10.6884
G01 X15.3608 Y-10.4616
G01 X15.3803 Y-10.2342
G01 X15.3943 Y-10.0063
G01 X15.4027 Y-9.7782
G01 X15.4055 Y-9.5500
G01 X15.4027 Y-9.3218
G01 X15.3943 Y-9.0937
G01 X15.3803 Y-8.8658
G01 X15.3608 Y-8.6384
G01 X15.3356 Y-8.4116
G01 X15.3049 Y-8.1854
G01 X15.2686 Y-7.9601
G01 X15.2268 Y-7.7357
G01 X15.1796 Y-7.5124
G01 X15.1268 Y-7.2903
G01 X15.0687 Y-7.0696
G01 X15.0051 Y-6.8504
G01 X14.9361 Y-6.6328
G01 X14.8619 Y-6.4169
G01 X14.7824 Y-6.2030
G01 X14.6976 Y-5.9910
G01 X14.6077 Y-5.7813
G01 X14.5126 Y-5.5737
G01 X14.4125 Y-5.3686
G01 X14.3074 Y-5.1660
G01 X14.1973 Y-4.9660
G01 X14.0824 Y-4.7688
G01 X13.9627 Y-4.5745
G01 X13.8382 Y-4.3832
G01 X13.7091 Y-4.1950
G01 X13.5754 Y-4.0100
G01 X13.4372 Y-3.8283
G01 X13.2945 Y-3.6501
G01 X13.1476 Y-3.4755
G01 X12.9964 Y-3.3045
G01 X12.8410 Y-3.1373
G01 X12.6816 Y-2.9739
G01 X12.5183 Y-2.8145
G01 X12.4337 Y-2.7359
G01 X13.8922 Y-3.4368
G01 X13.9102 Y-3.4592
G01 X14.0573 Y-3.6526
G01 X14.1996 Y-3.8495
G01 X14.3371 Y-4.0499
G01 X14.4696 Y-4.2535
G01 X14.5970 Y-4.4604
G01 X14.7194 Y-4.6703
G01 X14.8366 Y-4.8832
G01 X14.9485 Y-5.0988
G01 X15.0550 Y-5.3172
G01 X15.1562 Y-5.5381
G01 X15.2519 Y-5.7614
G01 X15.3422 Y-5.9870
G01 X15.4268 Y-6.2148
G01 X15.5059 Y-6.4446
G01 X15.5792 Y-6.6762
G01 X15.6469 Y-6.9095
G01 X15.7088 Y-7.1445
G01 X15.7650 Y-7.3809
G01 X15.8153 Y-7.6186
G01 X15.8598 Y-7.8575
G01 X15.8984 Y-8.0974
G01 X15.9311 Y-8.3381
G01 X15.9579 Y-8.5796
G01 X15.9787 Y-8.8217
G01 X15.9936 Y-9.0642
G01 X16.0026 Y-9.3070
G01 X16.0055 Y-9.5500
G01 X16.0026 Y-9.7930
G01 X15.9936 Y-10.0358
G01 X15.9787 Y-10.2783
G01 X15.9579 Y-10.5204
G01 X15.9311 Y-10.7619
G01 X15.8984 Y-11.0026
G01 X15.8598 Y-11.2425
G01 X15.8153 Y-11.4814
G01 X15.7650 Y-11.7191
G01 X15.7088 Y-11.9555
G01 X15.6469 Y-12.1905
G01 X15.5792 Y-12.4238
G01 X15.5059 Y-12.6554
G01 X15.4268 Y-12.8852
G01 X15.3422 Y-13.1130
G01 X15.2519 Y-13.3386
G01 X15.1562 Y-13.5619
G01 X15.0550 Y-13.7828
G01 X14.9485 Y-14.0012
G01 X14.8366 Y-14.2168
G01 X14.7194 Y-14.4297
G01 X14.5970 Y-14.6396
G01 X14.4696 Y-14.8465
G01 X14.3371 Y-15.0501
G01 X14.1996 Y-15.2505
G01 X14.0573 Y-15.4474
G01 X13.9102 Y-15.6408
G01 X13.8922 Y-15.6632
G01 X14.0422 Y-14.3965
G01 X13.9627 Y-14.5255
G01 X13.8382 Y-14.7168
G01 X13.7091 Y-14.9050
G01 X13.5754 Y-15.0900
G01 X13.4372 Y-15.2717
G01 X13.2945 Y-15.4499
G01 X13.1476 Y-15.6245
G01 X12.9964 Y-15.7955
G01 X12.8410 Y-15.9627
G01 X12.6816 Y-16.1261
G01 X12.5183 Y-16.2855
G01 X12.4337 Y-16.3641
G01 X11.0652 Y-16.6972
G01 X11.1151 Y-16.6630
G01 X11.2881 Y-16.5379
G01 X11.4580 Y-16.4086
G01 X11.6248 Y-16.2752
G01 X11.7881 Y-16.1377
G01 X11.9481 Y-15.9963
G01 X12.1045 Y-15.8509
G01 X12.2574 Y-15.7018
G01 X12.4065 Y-15.5490
G01 X12.5518 Y-15.3926
G01 X12.6933 Y-15.2326
G01 X12.8307 Y-15.0692
G01 X12.9641 Y-14.9025
G01 X13.0934 Y-14.7326
G01 X13.2185 Y-14.5595
G01 X13.3393 Y-14.3835
G01 X13.3483 Y-14.3697
G00 Z2.0000
G00 X12.6179 Y-14.3664
G01 F60.00
G01 Z-2.4000
G01 F120.00
G01 X12.6115 Y-14.3752
G01 X12.4911 Y-14.5334
G01 X12.3669 Y-14.6886
G01 X12.2389 Y-14.8407
G01 X12.1072 Y-14.9896
G01 X11.9719 Y-15.1353
G01 X11.8331 Y-15.2776
G01 X11.6908 Y-15.4164
G01 X11.5452 Y-15.5517
G01 X11.3962 Y-15.6834
G01 X11.2441 Y-15.8114
G01 X11.0889 Y-15.9356
G01 X10.9307 Y-16.0560
G01 X10.7696 Y-16.1724
G01 X10.6057 Y-16.2849
G01 X10.4390 Y-16.3933
G01 X10.2698 Y-16.4976
G01 X10.0980 Y-16.5977
G01 X9.9238 Y-16.6936
G01 X9.7870 Y-16.7646
G01 X8.5900 Y-16.6261
G01 X8.6322 Y-16.6116
G01 X8.8047 Y-16.5474
G01 X8.9757 Y-16.4791
G01 X9.1448 Y-16.4066
G01 X9.3122 Y-16.3299
G01 X9.4776 Y-16.2492
G01 X9.6410 Y-16.1644
G01 X9.8023 Y-16.0757
G01 X9.9613 Y-15.9830
G01 X10.1180 Y-15.8864
G01 X10.2723 Y-15.7860
G01 X10.4241 Y-15.6819
G01 X10.5733 Y-15.5741
G01 X10.7198 Y-15.4626
G01 X10.8635 Y-15.3476
G01 X11.0043 Y-15.2291
G01 X11.1422 Y-15.1071
G01 X11.2771 Y-14.9819
G01 X11.4088 Y-14.8533
G01 X11.5374 Y-14.7216
G01 X11.6627 Y-14.5867
G01 X11.7846 Y-14.4488
G01 X11.8101 Y-14.4185
G00 Z2.0000
G00 X11.0360 Y-14.3764
G01 F60.00
G01 Z-2.4000
G01 F120.00
G01 X10.9846 Y-14.4290
G01 X10.8634 Y-14.5473
G01 X10.7393 Y-14.6626
G01 X10.6124 Y-14.7747
G01 X10.4828 Y-14.8838
G01 X10.3506 Y-14.9896
G01 X10.2159 Y-15.0921
G01 X10.0786 Y-15.1913
G01 X9.9390 Y-15.2871
G01 X9.7970 Y-15.3795
G01 X9.6528 Y-15.4683
G01 X9.5065 Y-15.5536
G01 X9.3582 Y-15.6353
G01 X9.2079 Y-15.7132
G01 X9.0557 Y-15.7875
G01 X8.9017 Y-15.8580
G01 X8.7460 Y-15.9248
G01 X8.5888 Y-15.9877
G01 X8.4301 Y-16.0467
G01 X8.2699 Y-16.1017
G01 X8.1085 Y-16.1529
G01 X7.9459 Y-16.2001
G01 X7.7821 Y-16.2432
G01 X7.6173 Y-16.2823
G01 X7.5046 Y-16.3062
G01 X6.4982 Y-15.8373
G01 X6.5690 Y-15.8329
G01 X6.7230 Y-15.8197
G01 X6.8767 Y-15.8026
G01 X7.0299 Y-15.7818
G01 X7.1826 Y-15.7572
G01 X7.3346 Y-15.7289
G01 X7.4859 Y-15.6969
G01 X7.6363 Y-15.6612
G01 X7.7858 Y-15.6218
G01 X7.9343 Y-15.5787
G01 X8.0817 Y-15.5320
G01 X8.2279 Y-15.4817
G01 X8.3729 Y-15.4279
G01 X8.5164 Y-15.3704
G01 X8.6586 Y-15.3095
G01 X8.7991 Y-15.2451
G01 X8.9381 Y-15.1773
G01 X9.0753 Y-15.1061
G01 X9.2108 Y-15.0315
G01 X9.3444 Y-14.9537
G01 X9.4760 Y-14.8726
G01 X9.6056 Y-14.7883
G01 X9.7331 Y-14.7008
G01 X9.8584 Y-14.6102
G01 X9.9815 Y-14.5166
G01 X10.1022 Y-14.4200
G01 X10.2205 Y-14.3204
G01 X10.3364 Y-14.2180
G01 X10.4496 Y-14.1128
G01 X10.5603 Y-14.0048
G01 X10.6683 Y-13.8941
G01 X10.7062 Y-13.8533
G00 Z2.0000
G00 X12.4218 Y-12.3270
G01 F60.00
G01 Z-2.4000
G01 F120.00
G01 X12.4803 Y-12.1905
G01 X12.5432 Y-12.0333
G01 X12.6022 Y-11.8745
G01 X12.6573 Y-11.7144
G01 X12.7084 Y-11.5530
G01 X12.7556 Y-11.3903
G01 X12.7987 Y-11.2266
G01 X12.8379 Y-11.0618
G01 X12.8730 Y-10.8961
G01 X12.9039 Y-10.7296
G01 X12.9309 Y-10.5624
G01 X12.9536 Y-10.3946
G01 X12.9723 Y-10.2263
G01 X12.9868 Y-10.0576
G01 X12.9972 Y-9.8886
G01 X13.0035 Y-9.7193
G01 X13.0055 Y-9.5500
G01 X16.6055 Y-9.5500
G01 X16.6024 Y-9.8077
G01 X16.5929 Y-10.0652
G01 X16.5771 Y-10.3224
G01 X16.5550 Y-10.5792
G01 X16.5266 Y-10.8353
G01 X16.4919 Y-11.0907
G01 X16.4509 Y-11.3451
G01 X16.4038 Y-11.5984
G01 X16.3504 Y-11.8506
G01 X16.2909 Y-12.1013
G01 X16.2252 Y-12.3505
G01 X16.1534 Y-12.5980
G01 X16.0756 Y-12.8437
G01 X15.9917 Y-13.0873
G01 X15.9020 Y-13.3289
G01 X15.8063 Y-13.5682
G01 X15.7047 Y-13.8050
G01 X15.5974 Y-14.0393
G01 X15.4844 Y-14.2709
G01 X15.4450 Y-14.3468
G01 X17.0872 Y-11.1651
G01 X17.1221 Y-10.9088
G01 X17.1521 Y-10.6380
G01 X17.1755 Y-10.3666
G01 X17.1922 Y-10.0947
G01 X17.2022 Y-9.8224
G01 X17.2055 Y-9.5500
G01 X17.2022 Y-9.2776
G01 X17.1922 Y-9.0053
G01 X17.1755 Y-8.7334
G01 X17.1521 Y-8.4620
G01 X17.1221 Y-8.1912
G01 X17.0872 Y-7.9349
G01 X16.6055 Y-9.5500
G01 X16.6024 Y-9.2923
G01 X16.5929 Y-9.0348
G01 X16.5771 Y-8.7776
G01 X16.5550 Y-8.5208
G01 X16.5266 Y-8.2647
G01 X16.4919 Y-8.0093
G01 X16.4509 Y-7.7549
G01 X16.4038 Y-7.5016
G01 X16.3504 Y-7.2494
G01 X16.2909 Y-6.9987
G01 X16.2252 Y-6.7495
G01 X16.1534 Y-6.5020
G01 X16.0756 Y-6.2563
G01 X15.9917 Y-6.0127
G01 X15.9020 Y-5.7711
G01 X15.8063 Y-5.5318
G01 X15.7047 Y-5.2950
G01 X15.5974 Y-5.0607
G01 X15.4844 Y-4.8291
G01 X15.4450 Y-4.7532
G00 Z2.0000
G00 X16.0662 Y-3.8006
G01 F60.00
G01 Z-2.4000
G01 F120.00
G01 X16.0771 Y-3.7949
G01 X16.2293 Y-3.7207
G01 X16.3832 Y-3.6501
G01 X16.5389 Y-3.5834
G01 X16.6961 Y-3.5205
G01 X16.8549 Y-3.4615
G01 X17.0150 Y-3.4064
G01 X17.1764 Y-3.3553
G01 X17.3391 Y-3.3081
G01 X17.5028 Y-3.2650
G01 X17.6676 Y-3.2258
G01 X17.8333 Y-3.1908
G01 X17.9998 Y-3.1598
G01 X18.1670 Y-3.1329
G01 X18.3348 Y-3.1101
G01 X18.5031 Y-3.0914
G01 X18.6718 Y-3.0769
G01 X18.8408 Y-3.0665
G01 X19.0101 Y-3.0603
G01 X19.1794 Y-3.0582
G01 X19.3487 Y-3.0603
G01 X19.5180 Y-3.0665
G01 X19.6870 Y-3.0769
G01 X19.8557 Y-3.0914
G01 X20.0000 Y-3.1074
G01 X20.0000 Y-3.7123
G01 X19.9506 Y-3.7056
G01 X19.7969 Y-3.6885
G01 X19.6428 Y-3.6753
G01 X19.4885 Y-3.6658
G01 X19.3340 Y-3.6601
G01 X19.1794 Y-3.6582
G01 X19.0248 Y-3.6601
G01 X18.8703 Y-3.6658
G01 X18.7159 Y-3.6753
G01 X18.5619 Y-3.6885
G01 X18.4082 Y-3.7056
G01 X18.2550 Y-3.7264
G01 X18.1023 Y-3.7509
G01 X17.9503 Y-3.7792
G01 X17.7991 Y-3.8113
G01 X17.6486 Y-3.8470
G01 X17.4991 Y-3.8864
G01 X17.3506 Y-3.9295
G01 X17.2032 Y-3.9762
G01 X17.0570 Y-4.0265
G01 X16.9121 Y-4.0803
G01 X16.7685 Y-4.1377
G01 X16.6264 Y-4.1987
G01 X16.4850 Y-4.2634
G00 Z2.0000
G00 X16.8512 Y-4.7556
G01 F60.00
G01 Z-2.4000
G01 F120.00
G01 X16.8695 Y-4.7472
G01 X16.9981 Y-4.6921
G01 X17.1280 Y-4.6401
G01 X17.2591 Y-4.5914
G01 X17.3914 Y-4.5459
G01 X17.5248 Y-4.5036
G01 X17.6591 Y-4.4647
G01 X17.7944 Y-4.4290
G01 X17.9305 Y-4.3967
G01 X18.0674 Y-4.3677
G01 X18.2049 Y-4.3421
G01 X18.3430 Y-4.3199
G01 X18.4817 Y-4.3011
G01 X18.6207 Y-4.2856
G01 X18.7601 Y-4.2736
G01 X18.8997 Y-4.2651
G01 X19.0395 Y-4.2599
G01 X19.1794 Y-4.2582
G01 X19.3193 Y-4.2599
G01 X19.4591 Y-4.2651
G01 X19.5987 Y-4.2736
G01 X19.7381 Y-4.2856
G01 X19.8771 Y-4.3011
G01 X20.0000 Y-4.3177
G01 X20.0000 Y-4.9250
G01 X19.9277 Y-4.9134
G01 X19.8037 Y-4.8965
G01 X19.6793 Y-4.8827
G01 X19.5546 Y-4.8720
G01 X19.4296 Y-4.8643
G01 X19.3046 Y-4.8597
G01 X19.1794 Y-4.8582
G01 X19.0542 Y-4.8597
G01 X18.9291 Y-4.8643
G01 X18.8042 Y-4.8720
G01 X18.6795 Y-4.8827
G01 X18.5551 Y-4.8965
G01 X18.4311 Y-4.9134
G01 X18.3075 Y-4.9333
G01 X18.1844 Y-4.9562
G01 X18.0620 Y-4.9821
G01 X17.9402 Y-5.0110
G01 X17.8192 Y-5.0429
G01 X17.6989 Y-5.0778
G01 X17.5796 Y-5.1156
G01 X17.4613 Y-5.1563
G01 X17.3439 Y-5.1999
G01 X17.2277 Y-5.2464
G01 X17.1812 Y-5.2664
G00 Z2.0000
G00 X17.4756 Y-5.7934
G01 F60.00
G01 Z-2.4000
G01 F120.00
G01 X17.5599 Y-5.7597
G01 X17.6634 Y-5.7212
G01 X17.7678 Y-5.6853
G01 X17.8731 Y-5.6520
G01 X17.9792 Y-5.6212
G01 X18.0860 Y-5.5930
G01 X18.1934 Y-5.5675
G01 X18.3015 Y-5.5447
G01 X18.4101 Y-5.5244
G01 X18.5191 Y-5.5069
G01 X18.6285 Y-5.4920
G01 X18.7383 Y-5.4799
G01 X18.8484 Y-5.4704
G01 X18.9586 Y-5.4636
G01 X19.0690 Y-5.4595
G01 X19.1794 Y-5.4582
G01 X19.2898 Y-5.4595
G01 X19.4002 Y-5.4636
G01 X19.5104 Y-5.4704
G01 X19.6205 Y-5.4799
G01 X19.7302 Y-5.4920
G01 X19.8397 Y-5.5069
G01 X19.9487 Y-5.5244
G01 X20.0000 Y-5.5340
G01 X20.0000 Y-6.1458
G01 X19.9402 Y-6.1331
G01 X19.8461 Y-6.1156
G01 X19.7516 Y-6.1004
G01 X19.6568 Y-6.0875
G01 X19.5617 Y-6.0770
G01 X19.4663 Y-6.0688
G01 X19.3708 Y-6.0629
G01 X19.2751 Y-6.0594
G01 X19.1794 Y-6.0582
G01 X19.0837 Y-6.0594
G01 X18.9880 Y-6.0629
G01 X18.8925 Y-6.0688
G01 X18.7971 Y-6.0770
G01 X18.7020 Y-6.0875
G01 X18.6071 Y-6.1004
G01 X18.5126 Y-6.1156
G01 X18.4185 Y-6.1331
G01 X18.3249 Y-6.1529
G01 X18.2318 Y-6.1751
G01 X18.1392 Y-6.1995
G01 X18.0473 Y-6.2261
G01 X17.9560 Y-6.2550
G01 X17.8655 Y-6.2862
G01 X17.7758 Y-6.3195
G01 X17.7326 Y-6.3368
G00 Z2.0000
G00 X17.9375 Y-6.9010
G01 F60.00
G01 Z-2.4000
G01 F120.00
G01 X17.9917 Y-6.8793
G01 X18.0677 Y-6.8511
G01 X18.1442 Y-6.8247
G01 X18.2215 Y-6.8003
G01 X18.2992 Y-6.7777
G01 X18.3776 Y-6.7571
G01 X18.4564 Y-6.7384
G01 X18.5356 Y-6.7216
G01 X18.6152 Y-6.7068
G01 X18.6952 Y-6.6939
G01 X18.7754 Y-6.6830
G01 X18.8559 Y-6.6741
G01 X18.9366 Y-6.6671
G01 X19.0175 Y-6.6622
G01 X19.0984 Y-6.6592
G01 X19.1794 Y-6.6582
G01 X19.2604 Y-6.6592
G01 X19.3413 Y-6.6622
G01 X19.4222 Y-6.6671
G01 X19.5028 Y-6.6741
G01 X19.5833 Y-6.6830
G01 X19.6636 Y-6.6939
G01 X19.7436 Y-6.7068
G01 X19.8232 Y-6.7216
G01 X19.9024 Y-6.7384
G01 X19.9812 Y-6.7571
G01 X20.0000 Y-6.7620
G01 X20.0000 Y-7.3861
G01 X19.9632 Y-7.3744
G01 X19.8995 Y-7.3560
G01 X19.8354 Y-7.3391
G01 X19.7710 Y-7.3238
G01 X19.7061 Y-7.3101
G01 X19.6410 Y-7.2979
G01 X19.5756 Y-7.2874
G01 X19.5099 Y-7.2785
G01 X19.4440 Y-7.2712
G01 X19.3780 Y-7.2655
G01 X19.3119 Y-7.2614
G01 X19.2457 Y-7.2590
G01 X19.1794 Y-7.2582
G01 X19.1131 Y-7.2590
G01 X19.0469 Y-7.2614
G01 X18.9808 Y-7.2655
G01 X18.9147 Y-7.2712
G01 X18.8489 Y-7.2785
G01 X18.7832 Y-7.2874
G01 X18.7178 Y-7.2979
G01 X18.6526 Y-7.3101
G01 X18.5878 Y-7.3238
G01 X18.5233 Y-7.3391
G01 X18.4593 Y-7.3560
G01 X18.3956 Y-7.3744
G01 X18.3325 Y-7.3945
G01 X18.2698 Y-7.4160
G01 X18.2077 Y-7.4391
G01 X18.1461 Y-7.4637
G01 X18.1074 Y-7.4803
G00 Z2.0000
G00 X18.2417 Y-8.0793
G01 F60.00
G01 Z-2.4000
G01 F120.00
G01 X18.2815 Y-8.0598
G01 X18.3284 Y-8.0383
G01 X18.3758 Y-8.0180
G01 X18.4236 Y-7.9989
G01 X18.4719 Y-7.9809
G01 X18.5207 Y-7.9642
G01 X18.5698 Y-7.9486
G01 X18.6193 Y-7.9343
G01 X18.6691 Y-7.9211
G01 X18.7193 Y-7.9092
G01 X18.7697 Y-7.8985
G01 X18.8204 Y-7.8891
G01 X18.8713 Y-7.8809
G01 X18.9223 Y-7.8740
G01 X18.9736 Y-7.8683
G01 X19.0249 Y-7.8639
G01 X19.0764 Y-7.8607
G01 X19.1279 Y-7.8588
G01 X19.1794 Y-7.8582
G01 X19.2309 Y-7.8588
G01 X19.2824 Y-7.8607
G01 X19.3339 Y-7.8639
G01 X19.3852 Y-7.8683
G01 X19.4365 Y-7.8740
G01 X19.4875 Y-7.8809
G01 X19.5384 Y-7.8891
G01 X19.5891 Y-7.8985
G01 X19.6395 Y-7.9092
G01 X19.6897 Y-7.9211
G01 X19.7395 Y-7.9343
G01 X19.7890 Y-7.9486
G01 X19.8381 Y-7.9642
G01 X19.8869 Y-7.9809
G01 X19.9352 Y-7.9989
G01 X19.9830 Y-8.0180
G01 X20.0000 Y-8.0253
G01 X20.0000 Y-8.7027
G01 X19.9819 Y-8.6909
G01 X19.9505 Y-8.6716
G01 X19.9187 Y-8.6531
G01 X19.8865 Y-8.6353
G01 X19.8538 Y-8.6183
G01 X19.8207 Y-8.6022
G01 X19.7873 Y-8.5869
G01 X19.7534 Y-8.5724
G01 X19.7192 Y-8.5587
G01 X19.6847 Y-8.5459
G01 X19.6499 Y-8.5339
G01 X19.6148 Y-8.5228
G01 X19.5795 Y-8.5125
G01 X19.5439 Y-8.5031
G01 X19.5080 Y-8.4946
G01 X19.4720 Y-8.4870
G01 X19.4358 Y-8.4803
G01 X19.3995 Y-8.4744
G01 X19.3630 Y-8.4695
G01 X19.3264 Y-8.4654
G01 X19.2897 Y-8.4622
G01 X19.2530 Y-8.4600
G01 X19.2162 Y-8.4586
G01 X19.1794 Y-8.4582
G01 X19.1426 Y-8.4586
G01 X19.1058 Y-8.4600
G01 X19.0690 Y-8.4622
G01 X19.0324 Y-8.4654
G01 X18.9958 Y-8.4695
G01 X18.9593 Y-8.4744
G01 X18.9229 Y-8.4803
G01 X18.8868 Y-8.4870
G01 X18.8507 Y-8.4946
G01 X18.8149 Y-8.5031
G01 X18.7793 Y-8.5125
G01 X18.7440 Y-8.5228
G01 X18.7089 Y-8.5339
G01 X18.6741 Y-8.5459
G01 X18.6396 Y-8.5587
G01 X18.6054 Y-8.5724
G01 X18.5715 Y-8.5869
G01 X18.5381 Y-8.6022
G01 X18.5050 Y-8.6183
G01 X18.4723 Y-8.6353
G01 X18.4400 Y-8.6531
G01 X18.4082 Y-8.6716
G01 X18.3769 Y-8.6909
G01 X18.3363 Y-8.7177
G00 Z2.0000
G00 X18.3781 Y-9.5484
G01 F60.00
G01 Z-2.4000
G01 F120.00
G01 X18.3963 Y-9.5146
G01 X18.4074 Y-9.4955
G01 X18.4190 Y-9.4767
G01 X18.4311 Y-9.4582
G01 X18.4436 Y-9.4400
G01 X18.4565 Y-9.4221
G01 X18.4699 Y-9.4045
G01 X18.4837 Y-9.3872
G01 X18.4979 Y-9.3703
G01 X18.5125 Y-9.3538
G01 X18.5276 Y-9.3376
G01 X18.5430 Y-9.3218
G01 X18.5588 Y-9.3064
G01 X18.5750 Y-9.2913
G01 X18.5915 Y-9.2767
G01 X18.6084 Y-9.2625
G01 X18.6257 Y-9.2487
G01 X18.6433 Y-9.2353
G01 X18.6612 Y-9.2224
G01 X18.6794 Y-9.2099
G01 X18.6979 Y-9.1978
G01 X18.7167 Y-9.1862
G01 X18.7358 Y-9.1751
G01 X18.7551 Y-9.1645
G01 X18.7747 Y-9.1543
G01 X18.7946 Y-9.1446
G01 X18.8147 Y-9.1354
G01 X18.8350 Y-9.1267
G01 X18.8555 Y-9.1185
G01 X18.8762 Y-9.1108
G01 X18.8971 Y-9.1036
G01 X18.9181 Y-9.0969
G01 X18.9394 Y-9.0908
G01 X18.9607 Y-9.0852
G01 X18.9822 Y-9.0801
G01 X19.0038 Y-9.0755
G01 X19.0255 Y-9.0714
G01 X19.0473 Y-9.0679
G01 X19.0692 Y-9.0650
G01 X19.0912 Y-9.0625
G01 X19.1132 Y-9.0606
G01 X19.1352 Y-9.0593
G01 X19.1573 Y-9.0585
G01 X19.1794 Y-9.0582
G01 X19.2015 Y-9.0585
G01 X19.2236 Y-9.0593
G01 X19.2456 Y-9.0606
G01 X19.2676 Y-9.0625
G01 X19.2896 Y-9.0650
G01 X19.3115 Y-9.0679
G01 X19.3333 Y-9.0714
G01 X19.3550 Y-9.0755
G01 X19.3766 Y-9.0801
G01 X19.3981 Y-9.0852
G01 X19.4194 Y-9.0908
G01 X19.4406 Y-9.0969
G01 X19.4617 Y-9.1036
G01 X19.4826 Y-9.1108
G01 X19.5033 Y-9.1185
G01 X19.5238 Y-9.1267
G01 X19.5441 Y-9.1354
G01 X19.5642 Y-9.1446
G01 X19.5840 Y-9.1543
G01 X19.6036 Y-9.1645
G01 X19.6230 Y-9.1751
G01 X19.6421 Y-9.1862
G01 X19.6609 Y-9.1978
G01 X19.6794 Y-9.2099
G01 X19.6976 Y-9.2224
G01 X19.7155 Y-9.2353
G01 X19.7331 Y-9.2487
G01 X19.7503 Y-9.2625
G01 X19.7672 Y-9.2767
G01 X19.7838 Y-9.2913
G01 X19.8000 Y-9.3064
G01 X19.8158 Y-9.3218
G01 X19.8312 Y-9.3376
G01 X19.8462 Y-9.3538
G01 X19.8609 Y-9.3703
G01 X19.8751 Y-9.3872
G01 X19.8889 Y-9.4045
G01 X19.9023 Y-9.4221
G01 X19.9152 Y-9.4400
G01 X19.9277 Y-9.4582
G01 X19.9398 Y-9.4767
G01 X19.9513 Y-9.4955
G01 X19.9625 Y-9.5146
G01 X19.9731 Y-9.5339
G01 X19.9833 Y-9.5535
G01 X20.0000 Y-9.5887
G01 X19.4794 Y-9.9582
G01 X19.4786 Y-9.9803
G01 X19.4761 Y-10.0022
G01 X19.4721 Y-10.0239
G01 X19.4665 Y-10.0453
G01 X19.4593 Y-10.0662
G01 X19.4506 Y-10.0865
G01 X19.4404 Y-10.1061
G01 X19.4288 Y-10.1249
G01 X19.4159 Y-10.1428
G01 X19.4017 Y-10.1597
G01 X19.3863 Y-10.1755
G01 X19.3697 Y-10.1901
G01 X19.3521 Y-10.2035
G01 X19.3336 Y-10.2155
G01 X19.3143 Y-10.2262
G01 X19.2942 Y-10.2353
G01 X19.2805 Y-10.2406
G01 X19.2665 Y-10.2453
G01 X19.2523 Y-10.2492
G01 X19.2379 Y-10.2524
G01 X19.2234 Y-10.2549
G01 X19.2088 Y-10.2567
G01 X19.1941 Y-10.2578
G01 X19.1794 Y-10.2582
G01 X19.1647 Y-10.2578
G01 X19.1500 Y-10.2567
G01 X19.1354 Y-10.2549
G01 X19.1209 Y-10.2524
G01 X19.1065 Y-10.2492
G01 X19.0853 Y-10.2430
G01 X19.0714 Y-10.2381
G01 X19.0578 Y-10.2324
G01 X19.0445 Y-10.2262
G01 X19.0315 Y-10.2192
G01 X19.0189 Y-10.2116
G01 X19.0067 Y-10.2035
G01 X18.9948 Y-10.1947
G01 X18.9779 Y-10.1805
G01 X18.9673 Y-10.1703
G01 X18.9571 Y-10.1597
G01 X18.9475 Y-10.1485
G01 X18.9384 Y-10.1369
G01 X18.9300 Y-10.1249
G01 X18.9221 Y-10.1124
G01 X18.9148 Y-10.0996
G01 X18.9082 Y-10.0865
G01 X18.9022 Y-10.0730
G01 X18.8969 Y-10.0593
G01 X18.8903 Y-10.0382
G01 X18.8867 Y-10.0239
G01 X18.8826 Y-10.0022
G01 X18.8802 Y-9.9803
G01 X18.8794 Y-9.9582
G01 X18.8798 Y-9.9435
G01 X18.8816 Y-9.9215
G01 X18.8852 Y-9.8997
G01 X18.8903 Y-9.8782
G01 X18.8945 Y-9.8641
G01 X18.9022 Y-9.8434
G01 X18.9114 Y-9.8233
G01 X18.9184 Y-9.8103
G01 X18.9300 Y-9.7915
G01 X18.9429 Y-9.7736
G01 X18.9571 Y-9.7567
G01 X18.9725 Y-9.7409
G01 X18.9891 Y-9.7263
G01 X19.0067 Y-9.7129
G01 X19.0189 Y-9.7047
G01 X19.0315 Y-9.6972
G01 X19.0511 Y-9.6870
G01 X19.0714 Y-9.6783
G01 X19.0923 Y-9.6711
G01 X19.1137 Y-9.6655
G01 X19.1354 Y-9.6614
G01 X19.1573 Y-9.6590
G01 X19.1720 Y-9.6583
G01 X19.1941 Y-9.6585
G01 X19.2161 Y-9.6604
G01 X19.2307 Y-9.6626
G01 X19.2523 Y-9.6672
G01 X19.2735 Y-9.6733
G01 X19.2942 Y-9.6810
G01 X19.3143 Y-9.6902
G01 X19.3273 Y-9.6972
G01 X19.3399 Y-9.7047
G01 X19.3521 Y-9.7129
G01 X19.3640 Y-9.7217
G01 X19.3809 Y-9.7359
G01 X19.3915 Y-9.7461
G01 X19.4017 Y-9.7567
G01 X19.4159 Y-9.7736
G01 X19.4247 Y-9.7854
G01 X19.4328 Y-9.7977
G01 X19.4440 Y-9.8168
G01 X19.4506 Y-9.8299
G01 X19.4566 Y-9.8434
G01 X19.4643 Y-9.8641
G01 X19.4704 Y-9.8853
G01 X19.4750 Y-9.9069
G01 X19.4779 Y-9.9288
G01 X19.4790 Y-9.9435
G01 X19.4794 Y-9.9582
G01 X20.0000 Y-10.3277
G01 X19.9833 Y-10.3628
G01 X19.9731 Y-10.3824
G01 X19.9625 Y-10.4018
G01 X19.9513 Y-10.4209
G01 X19.9398 Y-10.4397
G01 X19.9277 Y-10.4582
G01 X19.9152 Y-10.4764
G01 X19.9023 Y-10.4943
G01 X19.8889 Y-10.5119
G01 X19.8751 Y-10.5291
G01 X19.8609 Y-10.5460
G01 X19.8462 Y-10.5626
G01 X19.8312 Y-10.5788
G01 X19.8158 Y-10.5946
G01 X19.8000 Y-10.6100
G01 X19.7838 Y-10.6250
G01 X19.7672 Y-10.6397
G01 X19.7503 Y-10.6539
G01 X19.7331 Y-10.6677
G01 X19.7155 Y-10.6811
G01 X19.6976 Y-10.6940
G01 X19.6794 Y-10.7065
G01 X19.6609 Y-10.7186
G01 X19.6421 Y-10.7301
G01 X19.6230 Y-10.7413
G01 X19.6036 Y-10.7519
G01 X19.5840 Y-10.7621
G01 X19.5642 Y-10.7718
G01 X19.5441 Y-10.7810
G01 X19.5238 Y-10.7897
G01 X19.5033 Y-10.7979
G01 X19.4826 Y-10.8056
G01 X19.4617 Y-10.8128
G01 X19.4406 Y-10.8194
G01 X19.4194 Y-10.8256
G01 X19.3981 Y-10.8312
G01 X19.3766 Y-10.8363
G01 X19.3550 Y-10.8409
G01 X19.3333 Y-10.8449
G01 X19.3115 Y-10.8484
G01 X19.2896 Y-10.8514
G01 X19.2676 Y-10.8539
G01 X19.2456 Y-10.8557
G01 X19.2236 Y-10.8571
G01 X19.2015 Y-10.8579
G01 X19.1794 Y-10.8582
G01 X19.1573 Y-10.8579
G01 X19.1352 Y-10.8571
G01 X19.1132 Y-10.8557
G01 X19.0912 Y-10.8539
G01 X19.0692 Y-10.8514
G01 X19.0473 Y-10.8484
G01 X19.0255 Y-10.8449
G01 X19.0038 Y-10.8409
G01 X18.9822 Y-10.8363
G01 X18.9607 Y-10.8312
G01 X18.9394 Y-10.8256
G01 X18.9181 Y-10.8194
G01 X18.8971 Y-10.8128
G01 X18.8762 Y-10.8056
G01 X18.8555 Y-10.7979
G01 X18.8350 Y-10.7897
G01 X18.8147 Y-10.7810
G01 X18.7946 Y-10.7718
G01 X18.7747 Y-10.7621
G01 X18.7551 Y-10.7519
G01 X18.7358 Y-10.7413
G01 X18.7167 Y-10.7301
G01 X18.6979 Y-10.7186
G01 X18.6794 Y-10.7065
G01 X18.6612 Y-10.6940
G01 X18.6433 Y-10.6811
G01 X18.6257 Y-10.6677
G01 X18.6084 Y-10.6539
G01 X18.5915 Y-10.6397
G01 X18.5750 Y-10.6250
G01 X18.5588 Y-10.6100
G01 X18.5430 Y-10.5946
G01 X18.5276 Y-10.5788
G01 X18.5125 Y-10.5626
G01 X18.4979 Y-10.5460
G01 X18.4837 Y-10.5291
G01 X18.4699 Y-10.5119
G01 X18.4565 Y-10.4943
G01 X18.4436 Y-10.4764
G01 X18.4311 Y-10.4582
G01 X18.4190 Y-10.4397
G01 X18.4074 Y-10.4209
G01 X18.3963 Y-10.4018
G01 X18.3857 Y-10.3824
G01 X18.3755 Y-10.3628
G01 X18.3658 Y-10.3430
G01 X18.3566 Y-10.3229
G01 X18.3425 Y-10.2892
G00 Z2.0000
G00 X18.2274 Y-11.1173
G01 F60.00
G01 Z-2.4000
G01 F120.00
G01 X18.2565 Y-11.1407
G01 X18.2858 Y-11.1630
G01 X18.3157 Y-11.1846
G01 X18.3460 Y-11.2054
G01 X18.3769 Y-11.2255
G01 X18.4082 Y-11.2448
G01 X18.4400 Y-11.2633
G01 X18.4723 Y-11.2811
G01 X18.5050 Y-11.2980
G01 X18.5381 Y-11.3142
G01 X18.5715 Y-11.3295
G01 X18.6054 Y-11.3440
G01 X18.6396 Y-11.3577
G01 X18.6741 Y-11.3705
G01 X18.7089 Y-11.3825
G01 X18.7440 Y-11.3936
G01 X18.7793 Y-11.4038
G01 X18.8149 Y-11.4132
G01 X18.8507 Y-11.4217
G01 X18.8868 Y-11.4294
G01 X18.9229 Y-11.4361
G01 X18.9593 Y-11.4420
G01 X18.9958 Y-11.4469
G01 X19.0324 Y-11.4510
G01 X19.0690 Y-11.4541
G01 X19.1058 Y-11.4564
G01 X19.1426 Y-11.4577
G01 X19.1794 Y-11.4582
G01 X19.2162 Y-11.4577
G01 X19.2530 Y-11.4564
G01 X19.2897 Y-11.4541
G01 X19.3264 Y-11.4510
G01 X19.3630 Y-11.4469
G01 X19.3995 Y-11.4420
G01 X19.4358 Y-11.4361
G01 X19.4720 Y-11.4294
G01 X19.5080 Y-11.4217
G01 X19.5439 Y-11.4132
G01 X19.5795 Y-11.4038
G01 X19.6148 Y-11.3936
G01 X19.6499 Y-11.3825
G01 X19.6847 Y-11.3705
G01 X19.7192 Y-11.3577
G01 X19.7534 Y-11.3440
G01 X19.7873 Y-11.3295
G01 X19.8207 Y-11.3142
G01 X19.8538 Y-11.2980
G01 X19.8865 Y-11.2811
G01 X19.9187 Y-11.2633
G01 X19.9505 Y-11.2448
G01 X19.9819 Y-11.2255
G01 X20.0000 Y-11.2137
G01 X20.0000 Y-11.8911
G01 X19.9830 Y-11.8983
G01 X19.9352 Y-11.9175
G01 X19.8869 Y-11.9354
G01 X19.8381 Y-11.9522
G01 X19.7890 Y-11.9678
G01 X19.7395 Y-11.9821
G01 X19.6897 Y-11.9953
G01 X19.6395 Y-12.0072
G01 X19.5891 Y-12.0178
G01 X19.5384 Y-12.0273
G01 X19.4875 Y-12.0355
G01 X19.4365 Y-12.0424
G01 X19.3852 Y-12.0481
G01 X19.3339 Y-12.0525
G01 X19.2824 Y-12.0557
G01 X19.2309 Y-12.0576
G01 X19.1794 Y-12.0582
G01 X19.1279 Y-12.0576
G01 X19.0764 Y-12.0557
G01 X19.0249 Y-12.0525
G01 X18.9736 Y-12.0481
G01 X18.9223 Y-12.0424
G01 X18.8713 Y-12.0355
G01 X18.8204 Y-12.0273
G01 X18.7697 Y-12.0178
G01 X18.7193 Y-12.0072
G01 X18.6691 Y-11.9953
G01 X18.6193 Y-11.9821
G01 X18.5698 Y-11.9678
