(G-CODE GENERATED BY FLATCAM v2024.4 - www.flatcam.org - Version Date: 2024/04/15)

(Name: test_CNC-F_Silkscreen.gbr_iso_combined_cnc)
(Type: G-code from Geometry)
(Units: MM)

(Created on Thursday, 09 April 2026 at 14:45)

(This preprocessor is the default preprocessor used by FlatCAM.)
(It is made to work with MACH3 compatible motion controllers.)

(TOOL DIAMETER: 0.1 mm)
(Feedrate_XY: 120.0 mm/min)
(Feedrate_Z: 60.0 mm/min)
(Feedrate rapids 1500.0 mm/min)

(Z_Cut: 0.0 mm)
(Z_Move: 2.0 mm)
(Z Start: None mm)
(Z End: 15.0 mm)
(X,Y End: None mm)
(Steps per circle: 64)
(Preprocessor Geometry: default)

(X range:   -0.0500 ...   20.6500  mm)
(Y range:  -30.4479 ...    0.0500  mm)

(Spindle Speed: 0.0 RPM)
G21
G90
G94

G01 F120.00

M5
G00 Z15.0000
G00 X0.0000 Y0.0000
T1
M6    
(MSG, Change to Tool Dia = 0.1000)
M0
G00 Z15.0000

M03
G01 F120.00
G00 X-0.0496 Y-0.0414
G01 F60.00
G01 Z0.0000
G01 F120.00
G01 X-0.0500 Y-0.0500
G01 X-0.0500 Y-20.5500
G01 X-0.0495 Y-20.5598
G01 X-0.0481 Y-20.5695
G01 X-0.0457 Y-20.5790
G01 X-0.0424 Y-20.5883
G01 X-0.0382 Y-20.5972
G01 X-0.0332 Y-20.6056
G01 X-0.0273 Y-20.6135
G01 X-0.0207 Y-20.6207
G01 X-0.0135 Y-20.6273
G01 X-0.0056 Y-20.6332
G01 X0.0028 Y-20.6382
G01 X0.0117 Y-20.6424
G01 X0.0210 Y-20.6457
G01 X0.0305 Y-20.6481
G01 X0.0402 Y-20.6495
G01 X0.0500 Y-20.6500
G01 X20.5500 Y-20.6500
G01 X20.5598 Y-20.6495
G01 X20.5695 Y-20.6481
G01 X20.5790 Y-20.6457
G01 X20.5883 Y-20.6424
G01 X20.5972 Y-20.6382
G01 X20.6056 Y-20.6332
G01 X20.6135 Y-20.6273
G01 X20.6207 Y-20.6207
G01 X20.6273 Y-20.6135
G01 X20.6332 Y-20.6056
G01 X20.6382 Y-20.5972
G01 X20.6424 Y-20.5883
G01 X20.6457 Y-20.5790
G01 X20.6481 Y-20.5695
G01 X20.6495 Y-20.5598
G01 X20.6500 Y-20.5500
G01 X20.6500 Y-0.0500
G01 X20.6495 Y-0.0402
G01 X20.6481 Y-0.0305
G01 X20.6457 Y-0.0210
G01 X20.6424 Y-0.0117
G01 X20.6382 Y-0.0028
G01 X20.6332 Y0.0056
G01 X20.6273 Y0.0135
G01 X20.6207 Y0.0207
G01 X20.6135 Y0.0273
G01 X20.6056 Y0.0332
G01 X20.5972 Y0.0382
G01 X20.5883 Y0.0424
G01 X20.5790 Y0.0457
G01 X20.5695 Y0.0481
G01 X20.5598 Y0.0495
G01 X20.5500 Y0.0500
G01 X0.0500 Y0.0500
G01 X0.0402 Y0.0495
G01 X0.0305 Y0.0481
G01 X0.0210 Y0.0457
G01 X0.0117 Y0.0424
G01 X0.0028 Y0.0382
G01 X-0.0056 Y0.0332
G01 X-0.0135 Y0.0273
G01 X-0.0190 Y0.0224
G01 X-0.0265 Y0.0144
G01 X-0.0318 Y0.0076
G01 X-0.0393 Y-0.0050
G01 X-0.0429 Y-0.0129
G01 X-0.0461 Y-0.0221
G01 X-0.0481 Y-0.0305
G01 X-0.0496 Y-0.0414
G00 Z2.0000
G00 X0.1500 Y-0.1500
G01 F60.00
G01 Z0.0000
G01 F120.00
G01 X0.1500 Y-20.4500
G01 X20.4500 Y-20.4500
G01 X20.4500 Y-0.1500
G01 X0.1500 Y-0.1500
G00 Z2.0000
G00 X2.1719 Y-9.5462
G01 F60.00
G01 Z0.0000
G01 F120.00
G01 X2.1719 Y-9.5549
G01 X2.2096 Y-10.3197
G01 X2.2103 Y-10.3271
G01 X2.3228 Y-11.0845
G01 X2.3243 Y-11.0918
G01 X2.5104 Y-11.8346
G01 X2.5126 Y-11.8416
G01 X2.7706 Y-12.5626
G01 X2.7735 Y-12.5693
G01 X3.1009 Y-13.2616
G01 X3.1045 Y-13.2680
G01 X3.4982 Y-13.9248
G01 X3.5023 Y-13.9309
G01 X3.9586 Y-14.5459
G01 X3.9633 Y-14.5516
G01 X4.4776 Y-15.1190
G01 X4.4828 Y-15.1241
G01 X5.0503 Y-15.6383
G01 X5.0560 Y-15.6430
G01 X5.6711 Y-16.0991
G01 X5.6773 Y-16.1031
G01 X6.3341 Y-16.4967
G01 X6.3406 Y-16.5002
G01 X7.0329 Y-16.8275
G01 X7.0397 Y-16.8303
G01 X7.7607 Y-17.0882
G01 X7.7678 Y-17.0903
G01 X8.5106 Y-17.2763
G01 X8.5179 Y-17.2777
G01 X9.2754 Y-17.3900
G01 X9.2827 Y-17.3906
G01 X10.0475 Y-17.4281
G01 X10.0549 Y-17.4281
G01 X10.8197 Y-17.3904
G01 X10.8271 Y-17.3897
G01 X11.5845 Y-17.2772
G01 X11.5918 Y-17.2757
G01 X12.3346 Y-17.0896
G01 X12.3416 Y-17.0874
G01 X13.0626 Y-16.8294
G01 X13.0693 Y-16.8265
G01 X13.7616 Y-16.4991
G01 X13.7680 Y-16.4955
G01 X14.4248 Y-16.1018
G01 X14.4309 Y-16.0977
G01 X15.0459 Y-15.6414
G01 X15.0516 Y-15.6367
G01 X15.6190 Y-15.1224
G01 X15.6241 Y-15.1172
G01 X16.1383 Y-14.5497
G01 X16.1430 Y-14.5440
G01 X16.5991 Y-13.9289
G01 X16.6031 Y-13.9227
G01 X16.9967 Y-13.2659
G01 X17.0002 Y-13.2594
G01 X17.3275 Y-12.5671
G01 X17.3303 Y-12.5603
G01 X17.5882 Y-11.8393
G01 X17.5903 Y-11.8322
G01 X17.7763 Y-11.0894
G01 X17.7777 Y-11.0821
G01 X17.8900 Y-10.3246
G01 X17.8906 Y-10.3173
G01 X17.9281 Y-9.5525
G01 X17.9281 Y-9.5451
G01 X17.8904 Y-8.7803
G01 X17.8897 Y-8.7729
G01 X17.7772 Y-8.0155
G01 X17.7757 Y-8.0082
G01 X17.5896 Y-7.2654
G01 X17.5874 Y-7.2584
G01 X17.3294 Y-6.5374
G01 X17.3265 Y-6.5307
G01 X16.9991 Y-5.8384
G01 X16.9955 Y-5.8320
G01 X16.6018 Y-5.1752
G01 X16.5977 Y-5.1691
G01 X16.1414 Y-4.5541
G01 X16.1367 Y-4.5484
G01 X15.6224 Y-3.9810
G01 X15.6172 Y-3.9759
G01 X15.0497 Y-3.4617
G01 X15.0440 Y-3.4570
G01 X14.4289 Y-3.0009
G01 X14.4227 Y-2.9969
G01 X13.7659 Y-2.6033
G01 X13.7594 Y-2.5998
G01 X13.0671 Y-2.2725
G01 X13.0603 Y-2.2697
G01 X12.3393 Y-2.0118
G01 X12.3322 Y-2.0097
G01 X11.5894 Y-1.8237
G01 X11.5821 Y-1.8223
G01 X10.8246 Y-1.7100
G01 X10.8173 Y-1.7094
G01 X10.0525 Y-1.6719
G01 X10.0451 Y-1.6719
G01 X9.2803 Y-1.7096
G01 X9.2729 Y-1.7103
G01 X8.5155 Y-1.8228
G01 X8.5082 Y-1.8243
G01 X7.7654 Y-2.0104
G01 X7.7584 Y-2.0126
G01 X7.0374 Y-2.2706
G01 X7.0307 Y-2.2735
G01 X6.3384 Y-2.6009
G01 X6.3320 Y-2.6045
G01 X5.6752 Y-2.9982
G01 X5.6691 Y-3.0023
G01 X5.0541 Y-3.4586
G01 X5.0484 Y-3.4633
G01 X4.4810 Y-3.9776
G01 X4.4759 Y-3.9828
G01 X3.9617 Y-4.5503
G01 X3.9570 Y-4.5560
G01 X3.5009 Y-5.1711
G01 X3.4969 Y-5.1773
G01 X3.1033 Y-5.8341
G01 X3.0998 Y-5.8406
G01 X2.7725 Y-6.5329
G01 X2.7697 Y-6.5397
G01 X2.5118 Y-7.2607
G01 X2.5097 Y-7.2678
G01 X2.3237 Y-8.0106
G01 X2.3223 Y-8.0179
G01 X2.2100 Y-8.7754
G01 X2.2094 Y-8.7827
G01 X2.1719 Y-9.5462
G00 Z2.0000
G00 X2.9564 Y-12.4883
G01 F60.00
G01 Z0.0000
G01 F120.00
G01 X3.2786 Y-13.1694
G01 X3.6660 Y-13.8157
G01 X4.1148 Y-14.4209
G01 X4.6208 Y-14.9792
G01 X5.1791 Y-15.4852
G01 X5.7843 Y-15.9340
G01 X6.4306 Y-16.3214
G01 X7.1117 Y-16.6436
G01 X7.8212 Y-16.8974
G01 X8.5521 Y-17.0805
G01 X9.2974 Y-17.1911
G01 X10.0500 Y-17.2280
G01 X10.8026 Y-17.1911
G01 X11.5479 Y-17.0805
G01 X12.2788 Y-16.8974
G01 X12.9883 Y-16.6436
G01 X13.6694 Y-16.3214
G01 X14.3157 Y-15.9340
G01 X14.9209 Y-15.4852
G01 X15.4792 Y-14.9792
G01 X15.9852 Y-14.4209
G01 X16.4340 Y-13.8157
G01 X16.8214 Y-13.1694
G01 X17.1436 Y-12.4883
G01 X17.3974 Y-11.7788
G01 X17.5805 Y-11.0479
G01 X17.6911 Y-10.3026
G01 X17.7280 Y-9.5500
G01 X17.6911 Y-8.7974
G01 X17.5805 Y-8.0521
G01 X17.3974 Y-7.3212
G01 X17.1436 Y-6.6117
G01 X16.8214 Y-5.9306
G01 X16.4340 Y-5.2843
G01 X15.9852 Y-4.6791
G01 X15.4792 Y-4.1208
G01 X14.9209 Y-3.6148
G01 X14.3157 Y-3.1660
G01 X13.6694 Y-2.7786
G01 X12.9883 Y-2.4564
G01 X12.2788 Y-2.2026
G01 X11.5479 Y-2.0195
G01 X10.8026 Y-1.9089
G01 X10.0500 Y-1.8720
G01 X9.2974 Y-1.9089
G01 X8.5521 Y-2.0195
G01 X7.8212 Y-2.2026
G01 X7.1117 Y-2.4564
G01 X6.4306 Y-2.7786
G01 X5.7843 Y-3.1660
G01 X5.1791 Y-3.6148
G01 X4.6208 Y-4.1208
G01 X4.1148 Y-4.6791
G01 X3.6660 Y-5.2843
G01 X3.2786 Y-5.9306
G01 X2.9564 Y-6.6117
G01 X2.7026 Y-7.3212
G01 X2.5195 Y-8.0521
G01 X2.4089 Y-8.7974
G01 X2.3720 Y-9.5500
G01 X2.4089 Y-10.3026
G01 X2.5195 Y-11.0479
G01 X2.7026 Y-11.7788
G01 X2.9564 Y-12.4883
G00 Z2.0000
G00 X7.1564 Y-13.2961
G01 F60.00
G01 Z0.0000
G01 F120.00
G01 X7.1562 Y-13.4438
G01 X7.1564 Y-13.4499
G01 X7.1573 Y-13.4585
G01 X7.1592 Y-13.4681
G01 X7.2068 Y-13.6586
G01 X7.2105 Y-13.6701
G01 X7.2144 Y-13.6791
G01 X7.2620 Y-13.7743
G01 X7.2669 Y-13.7828
G01 X7.2725 Y-13.7909
G01 X7.2808 Y-13.8003
G01 X7.3760 Y-13.8955
G01 X7.3833 Y-13.9021
G01 X7.3912 Y-13.9080
G01 X7.4007 Y-13.9136
G01 X7.4071 Y-13.9166
G01 X7.4140 Y-13.9193
G01 X7.5580 Y-13.9673
G01 X7.5701 Y-13.9705
G01 X7.5798 Y-13.9720
G01 X7.5896 Y-13.9724
G01 X7.6848 Y-13.9724
G01 X7.6973 Y-13.9717
G01 X7.7070 Y-13.9700
G01 X7.7165 Y-13.9673
G01 X7.8593 Y-13.9197
G01 X7.8671 Y-13.9167
G01 X7.8748 Y-13.9130
G01 X7.8865 Y-13.9057
G01 X7.8921 Y-13.9013
G01 X7.8975 Y-13.8964
G01 X7.9469 Y-13.8470
G01 X7.9526 Y-13.8406
G01 X7.9585 Y-13.8327
G01 X7.9646 Y-13.8221
G01 X7.9677 Y-13.8155
G01 X7.9703 Y-13.8085
G01 X7.9732 Y-13.7979
G01 X7.9749 Y-13.7870
G01 X7.9753 Y-13.7760
G01 X7.9746 Y-13.7649
G01 X7.9734 Y-13.7577
G01 X7.9717 Y-13.7505
G01 X7.9677 Y-13.7389
G01 X7.9629 Y-13.7290
G01 X7.9571 Y-13.7196
G01 X7.9526 Y-13.7137
G01 X7.9477 Y-13.7082
G01 X7.9388 Y-13.6999
G01 X7.9288 Y-13.6927
G01 X7.9225 Y-13.6890
G01 X7.9158 Y-13.6858
G01 X7.9055 Y-13.6818
G01 X7.8948 Y-13.6791
G01 X7.8851 Y-13.6776
G01 X7.8778 Y-13.6772
G01 X7.8655 Y-13.6776
G01 X7.8534 Y-13.6796
G01 X7.8463 Y-13.6815
G01 X7.8370 Y-13.6848
G01 X7.8260 Y-13.6902
G01 X7.8197 Y-13.6940
G01 X7.8119 Y-13.6999
G01 X7.8046 Y-13.7065
G01 X7.7737 Y-13.7374
G01 X7.6686 Y-13.7724
G01 X7.6058 Y-13.7724
G01 X7.5008 Y-13.7374
G01 X7.4337 Y-13.6703
G01 X7.3983 Y-13.5994
G01 X7.3563 Y-13.4315
G01 X7.3563 Y-13.3133
G01 X7.3983 Y-13.1454
G01 X7.4337 Y-13.0745
G01 X7.5008 Y-13.0075
G01 X7.6058 Y-12.9724
G01 X7.6686 Y-12.9724
G01 X7.7737 Y-13.0075
G01 X7.8055 Y-13.0392
G01 X7.8119 Y-13.0450
G01 X7.8187 Y-13.0501
G01 X7.8282 Y-13.0559
G01 X7.8370 Y-13.0601
G01 X7.8463 Y-13.0634
G01 X7.8546 Y-13.0655
G01 X7.8655 Y-13.0672
G01 X7.8778 Y-13.0676
G01 X7.8851 Y-13.0672
G01 X7.8936 Y-13.0660
G01 X7.9055 Y-13.0630
G01 X7.9136 Y-13.0601
G01 X7.9203 Y-13.0570
G01 X7.9309 Y-13.0508
G01 X7.9406 Y-13.0434
G01 X7.9460 Y-13.0384
G01 X7.9510 Y-13.0330
G01 X7.9585 Y-13.0232
G01 X7.9641 Y-13.0137
G01 X7.9677 Y-13.0059
G01 X7.9703 Y-12.9990
G01 X7.9734 Y-12.9872
G01 X7.9750 Y-12.9750
G01 X7.9753 Y-12.9677
G01 X7.9750 Y-12.9591
G01 X7.9734 Y-12.9481
G01 X7.9703 Y-12.9363
G01 X7.9672 Y-12.9283
G01 X7.9629 Y-12.9194
G01 X7.9585 Y-12.9121
G01 X7.9518 Y-12.9033
G01 X7.9460 Y-12.8969
G01 X7.8975 Y-12.8485
G01 X7.8911 Y-12.8427
G01 X7.8833 Y-12.8369
G01 X7.8738 Y-12.8313
G01 X7.8673 Y-12.8282
G01 X7.8605 Y-12.8255
G01 X7.7165 Y-12.7775
G01 X7.7070 Y-12.7749
G01 X7.6986 Y-12.7733
G01 X7.6848 Y-12.7724
G01 X7.5869 Y-12.7724
G01 X7.5771 Y-12.7732
G01 X7.5674 Y-12.7749
G01 X7.5580 Y-12.7775
G01 X7.4140 Y-12.8255
G01 X7.4048 Y-12.8292
G01 X7.3985 Y-12.8324
G01 X7.3922 Y-12.8362
G01 X7.3833 Y-12.8427
G01 X7.3769 Y-12.8485
G01 X7.2789 Y-12.9465
G01 X7.2742 Y-12.9518
G01 X7.2690 Y-12.9587
G01 X7.2620 Y-12.9705
G01 X7.2144 Y-13.0658
G01 X7.2093 Y-13.0780
G01 X7.2068 Y-13.0863
G01 X7.1592 Y-13.2767
G01 X7.1573 Y-13.2864
G01 X7.1564 Y-13.2961
G00 Z2.0000
G00 X8.2040 Y-12.8679
G01 F60.00
G01 Z0.0000
G01 F120.00
G01 X8.2039 Y-13.8736
G01 X8.2043 Y-13.8822
G01 X8.2054 Y-13.8895
G01 X8.2082 Y-13.9015
G01 X8.2125 Y-13.9129
G01 X8.2157 Y-13.9196
G01 X8.2207 Y-13.9280
G01 X8.2266 Y-13.9359
G01 X8.2315 Y-13.9414
G01 X8.2404 Y-13.9497
G01 X8.2504 Y-13.9569
G01 X8.2567 Y-13.9606
G01 X8.2656 Y-13.9648
G01 X8.2772 Y-13.9688
G01 X8.2844 Y-13.9705
G01 X8.2941 Y-13.9720
G01 X8.3063 Y-13.9724
G01 X8.3137 Y-13.9720
G01 X8.3210 Y-13.9709
G01 X8.3329 Y-13.9681
G01 X8.3444 Y-13.9638
G01 X8.3510 Y-13.9606
G01 X8.3584 Y-13.9563
G01 X8.3692 Y-13.9481
G01 X8.3746 Y-13.9431
G01 X8.3804 Y-13.9368
G01 X8.3877 Y-13.9270
G01 X8.3921 Y-13.9196
G01 X8.3953 Y-13.9129
G01 X8.3999 Y-13.9003
G01 X8.4020 Y-13.8919
G01 X8.4031 Y-13.8847
G01 X8.4039 Y-13.8724
G01 X8.4039 Y-13.2491
G01 X8.7885 Y-13.9220
G01 X8.7945 Y-13.9313
G01 X8.7998 Y-13.9380
G01 X8.8066 Y-13.9451
G01 X8.8141 Y-13.9515
G01 X8.8221 Y-13.9571
G01 X8.8307 Y-13.9619
G01 X8.8397 Y-13.9659
G01 X8.8490 Y-13.9689
G01 X8.8586 Y-13.9710
G01 X8.8683 Y-13.9722
G01 X8.8781 Y-13.9724
G01 X8.8879 Y-13.9716
G01 X8.8960 Y-13.9703
G01 X8.9043 Y-13.9681
G01 X8.9136 Y-13.9648
G01 X8.9225 Y-13.9606
G01 X8.9309 Y-13.9556
G01 X8.9409 Y-13.9479
G01 X8.9488 Y-13.9402
G01 X8.9534 Y-13.9349
G01 X8.9578 Y-13.9290
G01 X8.9635 Y-13.9196
G01 X8.9688 Y-13.9081
G01 X8.9721 Y-13.8975
G01 X8.9736 Y-13.8907
G01 X8.9747 Y-13.8834
G01 X8.9753 Y-13.8736
G01 X8.9753 Y-12.8712
G01 X8.9749 Y-12.8626
G01 X8.9738 Y-12.8553
G01 X8.9710 Y-12.8434
G01 X8.9667 Y-12.8319
G01 X8.9635 Y-12.8253
G01 X8.9585 Y-12.8168
G01 X8.9526 Y-12.8090
G01 X8.9477 Y-12.8035
G01 X8.9388 Y-12.7951
G01 X8.9288 Y-12.7879
G01 X8.9225 Y-12.7842
G01 X8.9136 Y-12.7800
G01 X8.9020 Y-12.7760
G01 X8.8948 Y-12.7743
G01 X8.8851 Y-12.7729
G01 X8.8729 Y-12.7725
G01 X8.8655 Y-12.7729
G01 X8.8582 Y-12.7739
G01 X8.8463 Y-12.7767
G01 X8.8348 Y-12.7810
G01 X8.8282 Y-12.7842
G01 X8.8208 Y-12.7886
G01 X8.8100 Y-12.7967
G01 X8.8046 Y-12.8017
G01 X8.7988 Y-12.8080
G01 X8.7915 Y-12.8179
G01 X8.7871 Y-12.8253
G01 X8.7839 Y-12.8319
G01 X8.7793 Y-12.8446
G01 X8.7772 Y-12.8529
G01 X8.7761 Y-12.8602
G01 X8.7753 Y-12.8724
G01 X8.7753 Y-13.4958
G01 X8.3907 Y-12.8228
G01 X8.3854 Y-12.8145
G01 X8.3786 Y-12.8059
G01 X8.3737 Y-12.8008
G01 X8.3683 Y-12.7959
G01 X8.3571 Y-12.7877
G01 X8.3510 Y-12.7842
G01 X8.3433 Y-12.7805
G01 X8.3302 Y-12.7759
G01 X8.3234 Y-12.7743
G01 X8.3149 Y-12.7730
G01 X8.3011 Y-12.7724
G01 X8.2941 Y-12.7729
G01 X8.2856 Y-12.7741
G01 X8.2804 Y-12.7752
G01 X8.2710 Y-12.7780
G01 X8.2645 Y-12.7805
G01 X8.2578 Y-12.7836
G01 X8.2460 Y-12.7909
G01 X8.2404 Y-12.7951
G01 X8.2340 Y-12.8008
G01 X8.2304 Y-12.8046
G01 X8.2241 Y-12.8122
G01 X8.2192 Y-12.8192
G01 X8.2157 Y-12.8253
G01 X8.2100 Y-12.8379
G01 X8.2074 Y-12.8461
G01 X8.2058 Y-12.8529
G01 X8.2045 Y-12.8614
G01 X8.2040 Y-12.8679
G00 Z2.0000
G00 X9.2039 Y-13.2974
G01 F60.00
G01 Z0.0000
G01 F120.00
G01 X9.2039 Y-13.4438
G01 X9.2041 Y-13.4499
G01 X9.2049 Y-13.4585
G01 X9.2068 Y-13.4681
G01 X9.2545 Y-13.6586
G01 X9.2581 Y-13.6701
G01 X9.2620 Y-13.6791
G01 X9.3097 Y-13.7743
G01 X9.3145 Y-13.7828
G01 X9.3201 Y-13.7909
G01 X9.3284 Y-13.8003
G01 X9.4236 Y-13.8955
G01 X9.4309 Y-13.9021
G01 X9.4388 Y-13.9080
G01 X9.4483 Y-13.9136
G01 X9.4547 Y-13.9166
G01 X9.4616 Y-13.9193
G01 X9.6056 Y-13.9673
G01 X9.6177 Y-13.9705
G01 X9.6274 Y-13.9720
G01 X9.6372 Y-13.9724
G01 X9.7325 Y-13.9724
G01 X9.7450 Y-13.9717
G01 X9.7546 Y-13.9700
G01 X9.7641 Y-13.9673
G01 X9.9069 Y-13.9197
G01 X9.9147 Y-13.9167
G01 X9.9225 Y-13.9130
G01 X9.9341 Y-13.9057
G01 X9.9397 Y-13.9013
G01 X9.9452 Y-13.8964
G01 X9.9945 Y-13.8470
G01 X10.0003 Y-13.8406
G01 X10.0061 Y-13.8327
G01 X10.0122 Y-13.8221
G01 X10.0153 Y-13.8155
G01 X10.0179 Y-13.8085
G01 X10.0208 Y-13.7979
G01 X10.0225 Y-13.7870
G01 X10.0229 Y-13.7747
G01 X10.0225 Y-13.7674
G01 X10.0215 Y-13.7601
G01 X10.0190 Y-13.7493
G01 X10.0153 Y-13.7389
G01 X10.0106 Y-13.7290
G01 X10.0047 Y-13.7196
G01 X10.0003 Y-13.7137
G01 X9.9954 Y-13.7082
G01 X9.9864 Y-13.6999
G01 X9.9775 Y-13.6933
G01 X9.9679 Y-13.6879
G01 X9.9612 Y-13.6848
G01 X9.9543 Y-13.6822
G01 X9.9424 Y-13.6791
G01 X9.9327 Y-13.6776
G01 X9.9254 Y-13.6772
G01 X9.9131 Y-13.6776
G01 X9.9010 Y-13.6796
G01 X9.8939 Y-13.6815
G01 X9.8847 Y-13.6848
G01 X9.8736 Y-13.6902
G01 X9.8674 Y-13.6940
G01 X9.8595 Y-13.6999
G01 X9.8522 Y-13.7065
G01 X9.8213 Y-13.7374
G01 X9.7162 Y-13.7724
G01 X9.6534 Y-13.7724
G01 X9.5484 Y-13.7374
G01 X9.4813 Y-13.6703
G01 X9.4459 Y-13.5994
G01 X9.4039 Y-13.4315
G01 X9.4039 Y-13.3133
G01 X9.4459 Y-13.1454
G01 X9.4813 Y-13.0745
G01 X9.5484 Y-13.0075
G01 X9.6534 Y-12.9724
G01 X9.7162 Y-12.9724
G01 X9.8213 Y-13.0075
G01 X9.8531 Y-13.0392
G01 X9.8595 Y-13.0450
G01 X9.8663 Y-13.0501
G01 X9.8758 Y-13.0559
G01 X9.8847 Y-13.0601
G01 X9.8939 Y-13.0634
G01 X9.9022 Y-13.0655
G01 X9.9143 Y-13.0673
G01 X9.9229 Y-13.0677
G01 X9.9303 Y-13.0674
G01 X9.9424 Y-13.0658
G01 X9.9531 Y-13.0630
G01 X9.9612 Y-13.0601
G01 X9.9679 Y-13.0570
G01 X9.9785 Y-13.0508
G01 X9.9882 Y-13.0434
G01 X9.9937 Y-13.0384
G01 X9.9986 Y-13.0330
G01 X10.0061 Y-13.0232
G01 X10.0117 Y-13.0137
G01 X10.0153 Y-13.0059
G01 X10.0179 Y-12.9990
G01 X10.0210 Y-12.9872
G01 X10.0227 Y-12.9750
G01 X10.0230 Y-12.9677
G01 X10.0226 Y-12.9591
G01 X10.0210 Y-12.9481
G01 X10.0179 Y-12.9363
G01 X10.0149 Y-12.9283
G01 X10.0106 Y-12.9194
G01 X10.0061 Y-12.9121
G01 X9.9995 Y-12.9033
G01 X9.9937 Y-12.8969
G01 X9.9452 Y-12.8485
G01 X9.9388 Y-12.8427
G01 X9.9309 Y-12.8369
G01 X9.9214 Y-12.8313
G01 X9.9150 Y-12.8282
G01 X9.9081 Y-12.8255
G01 X9.7641 Y-12.7775
G01 X9.7546 Y-12.7749
G01 X9.7462 Y-12.7733
G01 X9.7325 Y-12.7724
G01 X9.6345 Y-12.7724
G01 X9.6247 Y-12.7732
G01 X9.6150 Y-12.7749
G01 X9.6056 Y-12.7775
G01 X9.4616 Y-12.8255
G01 X9.4525 Y-12.8292
G01 X9.4461 Y-12.8324
G01 X9.4398 Y-12.8362
G01 X9.4309 Y-12.8427
G01 X9.4245 Y-12.8485
G01 X9.3265 Y-12.9465
G01 X9.3218 Y-12.9518
G01 X9.3166 Y-12.9587
G01 X9.3097 Y-12.9705
G01 X9.2620 Y-13.0658
G01 X9.2569 Y-13.0780
G01 X9.2545 Y-13.0863
G01 X9.2068 Y-13.2767
G01 X9.2049 Y-13.2864
G01 X9.2039 Y-13.2974
G00 Z2.0000
G00 X10.9632 Y-12.9721
G01 F60.00
G01 Z0.0000
G01 F120.00
G01 X10.9706 Y-12.9724
G01 X11.1562 Y-12.9724
G01 X11.1562 Y-13.8724
G01 X11.1569 Y-13.8834
G01 X11.1584 Y-13.8931
G01 X11.1613 Y-13.9038
G01 X11.1648 Y-13.9129
G01 X11.1681 Y-13.9196
G01 X11.1718 Y-13.9259
G01 X11.1782 Y-13.9349
G01 X11.1847 Y-13.9423
G01 X11.1928 Y-13.9497
G01 X11.2007 Y-13.9556
G01 X11.2102 Y-13.9612
G01 X11.2203 Y-13.9657
G01 X11.2296 Y-13.9688
G01 X11.2368 Y-13.9705
G01 X11.2440 Y-13.9717
G01 X11.2550 Y-13.9724
G01 X11.2661 Y-13.9720
G01 X11.2758 Y-13.9705
G01 X11.2865 Y-13.9678
G01 X11.2945 Y-13.9648
G01 X11.3012 Y-13.9617
G01 X11.3118 Y-13.9556
G01 X11.3197 Y-13.9497
G01 X11.3252 Y-13.9448
G01 X11.3336 Y-13.9359
G01 X11.3407 Y-13.9259
G01 X11.3445 Y-13.9196
G01 X11.3487 Y-13.9107
G01 X11.3520 Y-13.9015
G01 X11.3538 Y-13.8943
G01 X11.3559 Y-13.8810
G01 X11.3563 Y-13.8724
G01 X11.3563 Y-12.9724
G01 X11.5444 Y-12.9724
G01 X11.5530 Y-12.9718
G01 X11.5627 Y-12.9703
G01 X11.5722 Y-12.9678
G01 X11.5825 Y-12.9638
G01 X11.5891 Y-12.9606
G01 X11.5975 Y-12.9556
G01 X11.6054 Y-12.9497
G01 X11.6127 Y-12.9431
G01 X11.6193 Y-12.9359
G01 X11.6251 Y-12.9280
G01 X11.6302 Y-12.9196
G01 X11.6339 Y-12.9118
G01 X11.6377 Y-12.9015
G01 X11.6398 Y-12.8931
G01 X11.6414 Y-12.8834
G01 X11.6419 Y-12.8749
G01 X11.6412 Y-12.8602
G01 X11.6398 Y-12.8517
G01 X11.6373 Y-12.8422
G01 X11.6344 Y-12.8341
G01 X11.6313 Y-12.8275
G01 X11.6251 Y-12.8168
G01 X11.6193 Y-12.8090
G01 X11.6144 Y-12.8035
G01 X11.6054 Y-12.7951
G01 X11.5955 Y-12.7879
G01 X11.5891 Y-12.7842
G01 X11.5803 Y-12.7800
G01 X11.5686 Y-12.7760
G01 X11.5615 Y-12.7743
G01 X11.5518 Y-12.7729
G01 X11.5420 Y-12.7724
G01 X10.9706 Y-12.7724
G01 X10.9607 Y-12.7729
G01 X10.9510 Y-12.7743
G01 X10.9415 Y-12.7767
G01 X10.9323 Y-12.7800
G01 X10.9234 Y-12.7842
G01 X10.9160 Y-12.7886
G01 X10.9081 Y-12.7943
G01 X10.9016 Y-12.8000
G01 X10.8917 Y-12.8109
G01 X10.8874 Y-12.8168
G01 X10.8823 Y-12.8253
G01 X10.8781 Y-12.8341
G01 X10.8748 Y-12.8434
G01 X10.8724 Y-12.8529
G01 X10.8710 Y-12.8626
G01 X10.8705 Y-12.8724
G01 X10.8709 Y-12.8810
G01 X10.8722 Y-12.8907
G01 X10.8742 Y-12.8991
G01 X10.8791 Y-12.9129
G01 X10.8823 Y-12.9196
G01 X10.8874 Y-12.9280
G01 X10.8932 Y-12.9359
G01 X10.8998 Y-12.9431
G01 X10.9071 Y-12.9497
G01 X10.9150 Y-12.9556
G01 X10.9234 Y-12.9606
G01 X10.9311 Y-12.9643
G01 X10.9403 Y-12.9678
G01 X10.9486 Y-12.9700
G01 X10.9632 Y-12.9721
G00 Z2.0000
G00 X11.7757 Y-12.8638
G01 F60.00
G01 Z0.0000
G01 F120.00
G01 X11.7753 Y-12.8724
G01 X11.7753 Y-13.8724
G01 X11.7761 Y-13.8847
G01 X11.7772 Y-13.8919
G01 X11.7789 Y-13.8991
G01 X11.7829 Y-13.9107
G01 X11.7877 Y-13.9206
G01 X11.7936 Y-13.9300
G01 X11.7980 Y-13.9359
G01 X11.8029 Y-13.9414
G01 X11.8109 Y-13.9489
G01 X11.8197 Y-13.9556
G01 X11.8304 Y-13.9617
G01 X11.8370 Y-13.9648
G01 X11.8439 Y-13.9674
G01 X11.8558 Y-13.9705
G01 X11.8667 Y-13.9721
G01 X11.8753 Y-13.9724
G01 X12.3527 Y-13.9724
G01 X12.3637 Y-13.9717
G01 X12.3710 Y-13.9705
G01 X12.3782 Y-13.9688
G01 X12.3898 Y-13.9648
G01 X12.3997 Y-13.9600
G01 X12.4071 Y-13.9556
G01 X12.4130 Y-13.9512
G01 X12.4222 Y-13.9431
G01 X12.4303 Y-13.9339
G01 X12.4347 Y-13.9280
G01 X12.4397 Y-13.9196
G01 X12.4448 Y-13.9084
G01 X12.4472 Y-13.9015
G01 X12.4496 Y-13.8919
G01 X12.4512 Y-13.8798
G01 X12.4515 Y-13.8724
G01 X12.4512 Y-13.8651
G01 X12.4496 Y-13.8529
G01 X12.4465 Y-13.8411
G01 X12.4439 Y-13.8341
G01 X12.4403 Y-13.8264
G01 X12.4340 Y-13.8158
G01 X12.4288 Y-13.8090
G01 X12.4239 Y-13.8035
G01 X12.4150 Y-13.7951
G01 X12.4050 Y-13.7879
G01 X12.3987 Y-13.7842
G01 X12.3909 Y-13.7805
G01 X12.3805 Y-13.7767
G01 X12.3710 Y-13.7743
G01 X12.3613 Y-13.7729
G01 X12.3527 Y-13.7724
G01 X11.9753 Y-13.7724
G01 X11.9753 Y-13.4486
G01 X12.2099 Y-13.4486
G01 X12.2185 Y-13.4482
G01 X12.2257 Y-13.4471
G01 X12.2377 Y-13.4443
G01 X12.2469 Y-13.4410
G01 X12.2536 Y-13.4379
G01 X12.2652 Y-13.4311
G01 X12.2721 Y-13.4259
G01 X12.2785 Y-13.4202
G01 X12.2875 Y-13.4101
G01 X12.2918 Y-13.4042
G01 X12.2969 Y-13.3958
G01 X12.3011 Y-13.3869
G01 X12.3036 Y-13.3800
G01 X12.3070 Y-13.3669
G01 X12.3082 Y-13.3584
G01 X12.3087 Y-13.3486
G01 X12.3082 Y-13.3388
G01 X12.3072 Y-13.3315
G01 X12.3040 Y-13.3184
G01 X12.3011 Y-13.3103
G01 X12.2974 Y-13.3025
G01 X12.2904 Y-13.2910
G01 X12.2860 Y-13.2852
G01 X12.2794 Y-13.2779
G01 X12.2721 Y-13.2713
G01 X12.2662 Y-13.2669
G01 X12.2547 Y-13.2598
G01 X12.2469 Y-13.2562
G01 X12.2377 Y-13.2529
G01 X12.2257 Y-13.2501
G01 X12.2185 Y-13.2491
G01 X12.2099 Y-13.2486
G01 X11.9753 Y-13.2486
G01 X11.9753 Y-12.9724
G01 X12.3515 Y-12.9724
G01 X12.3613 Y-12.9720
G01 X12.3686 Y-12.9709
G01 X12.3817 Y-12.9678
G01 X12.3909 Y-12.9643
G01 X12.4008 Y-12.9594
G01 X12.4091 Y-12.9542
G01 X12.4150 Y-12.9497
G01 X12.4205 Y-12.9448
G01 X12.4280 Y-12.9368
G01 X12.4340 Y-12.9290
G01 X12.4397 Y-12.9196
G01 X12.4439 Y-12.9107
G01 X12.4476 Y-12.9003
G01 X12.4500 Y-12.8895
G01 X12.4510 Y-12.8822
G01 X12.4515 Y-12.8749
G01 X12.4512 Y-12.8651
G01 X12.4498 Y-12.8541
G01 X12.4472 Y-12.8434
G01 X12.4439 Y-12.8341
G01 X12.4391 Y-12.8242
G01 X12.4333 Y-12.8148
G01 X12.4288 Y-12.8090
G01 X12.4239 Y-12.8035
G01 X12.4159 Y-12.7959
G01 X12.4071 Y-12.7893
G01 X12.3976 Y-12.7836
G01 X12.3875 Y-12.7791
G01 X12.3805 Y-12.7767
G01 X12.3734 Y-12.7749
G01 X12.3613 Y-12.7729
G01 X12.3515 Y-12.7724
G01 X11.8753 Y-12.7724
G01 X11.8680 Y-12.7727
G01 X11.8534 Y-12.7749
G01 X11.8451 Y-12.7771
G01 X11.8359 Y-12.7805
G01 X11.8282 Y-12.7842
G01 X11.8197 Y-12.7893
G01 X11.8119 Y-12.7951
G01 X11.8046 Y-12.8017
G01 X11.7980 Y-12.8090
G01 X11.7921 Y-12.8168
G01 X11.7871 Y-12.8253
G01 X11.7839 Y-12.8319
G01 X11.7789 Y-12.8457
G01 X11.7770 Y-12.8541
G01 X11.7757 Y-12.8638
G00 Z2.0000
G00 X12.6326 Y-13.0583
G01 F60.00
G01 Z0.0000
G01 F120.00
G01 X12.6326 Y-13.1640
G01 X12.6330 Y-13.1692
G01 X12.6346 Y-13.1788
G01 X12.6367 Y-13.1872
G01 X12.6400 Y-13.1964
G01 X12.6906 Y-13.2981
G01 X12.6969 Y-13.3089
G01 X12.7018 Y-13.3157
G01 X12.7074 Y-13.3221
G01 X12.7589 Y-13.3736
G01 X12.7673 Y-13.3807
G01 X12.7744 Y-13.3856
G01 X12.7805 Y-13.3892
G01 X12.8782 Y-13.4381
G01 X12.8872 Y-13.4420
G01 X12.8987 Y-13.4456
G01 X13.0785 Y-13.4906
G01 X13.1494 Y-13.5261
G01 X13.1741 Y-13.5507
G01 X13.2039 Y-13.6103
G01 X13.2039 Y-13.6583
G01 X13.1741 Y-13.7179
G01 X13.1494 Y-13.7426
G01 X13.0898 Y-13.7724
G01 X12.8915 Y-13.7724
G01 X12.7641 Y-13.7299
G01 X12.7522 Y-13.7268
G01 X12.7450 Y-13.7256
G01 X12.7352 Y-13.7248
G01 X12.7254 Y-13.7250
G01 X12.7180 Y-13.7258
G01 X12.7049 Y-13.7287
G01 X12.6967 Y-13.7314
G01 X12.6877 Y-13.7353
G01 X12.6792 Y-13.7402
G01 X12.6702 Y-13.7465
G01 X12.6628 Y-13.7530
G01 X12.6553 Y-13.7612
G01 X12.6508 Y-13.7670
G01 X12.6468 Y-13.7732
G01 X12.6422 Y-13.7818
G01 X12.6380 Y-13.7920
G01 X12.6349 Y-13.8026
G01 X12.6332 Y-13.8123
G01 X12.6324 Y-13.8233
G01 X12.6328 Y-13.8331
G01 X12.6343 Y-13.8440
G01 X12.6367 Y-13.8536
G01 X12.6390 Y-13.8605
G01 X12.6419 Y-13.8673
G01 X12.6472 Y-13.8770
G01 X12.6527 Y-13.8851
G01 X12.6607 Y-13.8945
G01 X12.6669 Y-13.9004
G01 X12.6727 Y-13.9050
G01 X12.6829 Y-13.9117
G01 X12.6939 Y-13.9171
G01 X12.7008 Y-13.9197
G01 X12.8463 Y-13.9681
G01 X12.8570 Y-13.9707
G01 X12.8655 Y-13.9720
G01 X12.8726 Y-13.9724
G01 X13.1134 Y-13.9724
G01 X13.1217 Y-13.9721
G01 X13.1302 Y-13.9710
G01 X13.1436 Y-13.9678
G01 X13.1503 Y-13.9654
G01 X13.1570 Y-13.9624
G01 X13.2545 Y-13.9137
G01 X13.2619 Y-13.9094
G01 X13.2690 Y-13.9046
G01 X13.2794 Y-13.8955
G01 X13.3270 Y-13.8479
G01 X13.3336 Y-13.8406
G01 X13.3401 Y-13.8317
G01 X13.3457 Y-13.8219
G01 X13.3939 Y-13.7256
G01 X13.3968 Y-13.7191
G01 X13.3992 Y-13.7121
G01 X13.4025 Y-13.6988
G01 X13.4034 Y-13.6917
G01 X13.4039 Y-13.6832
G01 X13.4039 Y-13.5867
G01 X13.4034 Y-13.5769
G01 X13.4017 Y-13.5660
G01 X13.4000 Y-13.5591
G01 X13.3977 Y-13.5521
G01 X13.3939 Y-13.5431
G01 X13.3445 Y-13.4443
G01 X13.3387 Y-13.4349
G01 X13.3336 Y-13.4280
G01 X13.3289 Y-13.4227
G01 X13.2794 Y-13.3731
G01 X13.2690 Y-13.3641
G01 X13.2619 Y-13.3592
G01 X13.2545 Y-13.3549
G01 X13.1581 Y-13.3068
G01 X13.1492 Y-13.3028
G01 X13.1398 Y-13.2998
G01 X12.9578 Y-13.2542
G01 X12.8869 Y-13.2188
G01 X12.8623 Y-13.1941
G01 X12.8325 Y-13.1345
G01 X12.8325 Y-13.0865
G01 X12.8623 Y-13.0269
G01 X12.8869 Y-13.0022
G01 X12.9465 Y-12.9724
G01 X13.1448 Y-12.9724
G01 X13.2723 Y-13.0149
G01 X13.2829 Y-13.0178
G01 X13.2914 Y-13.0193
G01 X13.2987 Y-13.0199
G01 X13.3110 Y-13.0198
G01 X13.3207 Y-13.0186
G01 X13.3279 Y-13.0171
G01 X13.3408 Y-13.0130
G01 X13.3497 Y-13.0089
G01 X13.3592 Y-13.0033
G01 X13.3652 Y-12.9991
G01 X13.3708 Y-12.9943
G01 X13.3786 Y-12.9865
G01 X13.3855 Y-12.9779
G01 X13.3908 Y-12.9696
G01 X13.3957 Y-12.9597
G01 X13.3995 Y-12.9493
G01 X13.4019 Y-12.9398
G01 X13.4031 Y-12.9325
G01 X13.4037 Y-12.9252
G01 X13.4037 Y-12.9142
G01 X13.4025 Y-12.9032
G01 X13.4000 Y-12.8924
G01 X13.3964 Y-12.8820
G01 X13.3933 Y-12.8753
G01 X13.3898 Y-12.8689
G01 X13.3836 Y-12.8597
G01 X13.3765 Y-12.8513
G01 X13.3675 Y-12.8429
G01 X13.3617 Y-12.8384
G01 X13.3545 Y-12.8338
G01 X13.3435 Y-12.8282
G01 X13.3355 Y-12.8251
G01 X13.1927 Y-12.7775
G01 X13.1793 Y-12.7741
G01 X13.1708 Y-12.7729
G01 X13.1610 Y-12.7724
G01 X12.9229 Y-12.7724
G01 X12.9119 Y-12.7730
G01 X12.9034 Y-12.7743
G01 X12.8965 Y-12.7759
G01 X12.8872 Y-12.7790
G01 X12.8782 Y-12.7830
G01 X12.7830 Y-12.8306
G01 X12.7732 Y-12.8362
G01 X12.7664 Y-12.8410
G01 X12.7589 Y-12.8474
G01 X12.7074 Y-12.8989
G01 X12.7003 Y-12.9073
G01 X12.6954 Y-12.9144
G01 X12.6919 Y-12.9205
G01 X12.6425 Y-13.0193
G01 X12.6390 Y-13.0271
G01 X12.6357 Y-13.0377
G01 X12.6337 Y-13.0473
G01 X12.6326 Y-13.0583
G00 Z2.0000
G00 X13.5822 Y-12.9721
G01 F60.00
G01 Z0.0000
G01 F120.00
G01 X13.5896 Y-12.9724
G01 X13.7753 Y-12.9724
G01 X13.7753 Y-13.8724
G01 X13.7759 Y-13.8834
G01 X13.7775 Y-13.8931
G01 X13.7804 Y-13.9038
G01 X13.7839 Y-13.9129
G01 X13.7871 Y-13.9196
G01 X13.7908 Y-13.9259
G01 X13.7972 Y-13.9349
G01 X13.8037 Y-13.9423
G01 X13.8119 Y-13.9497
G01 X13.8197 Y-13.9556
G01 X13.8293 Y-13.9612
G01 X13.8393 Y-13.9657
G01 X13.8486 Y-13.9688
G01 X13.8558 Y-13.9705
G01 X13.8631 Y-13.9717
G01 X13.8741 Y-13.9724
G01 X13.8851 Y-13.9720
G01 X13.8948 Y-13.9705
G01 X13.9055 Y-13.9678
G01 X13.9136 Y-13.9648
G01 X13.9203 Y-13.9617
G01 X13.9309 Y-13.9556
G01 X13.9388 Y-13.9497
G01 X13.9443 Y-13.9448
G01 X13.9526 Y-13.9359
G01 X13.9598 Y-13.9259
G01 X13.9635 Y-13.9196
G01 X13.9677 Y-13.9107
G01 X13.9710 Y-13.9015
G01 X13.9729 Y-13.8943
G01 X13.9750 Y-13.8810
G01 X13.9753 Y-13.8724
G01 X13.9753 Y-12.9724
G01 X14.1635 Y-12.9724
G01 X14.1721 Y-12.9718
G01 X14.1817 Y-12.9703
G01 X14.1912 Y-12.9678
G01 X14.2015 Y-12.9638
G01 X14.2082 Y-12.9606
G01 X14.2166 Y-12.9556
G01 X14.2245 Y-12.9497
G01 X14.2318 Y-12.9431
G01 X14.2383 Y-12.9359
G01 X14.2442 Y-12.9280
G01 X14.2492 Y-12.9196
G01 X14.2530 Y-12.9118
G01 X14.2567 Y-12.9015
G01 X14.2589 Y-12.8931
G01 X14.2604 Y-12.8834
G01 X14.2610 Y-12.8749
G01 X14.2603 Y-12.8602
G01 X14.2589 Y-12.8517
G01 X14.2564 Y-12.8422
G01 X14.2534 Y-12.8341
G01 X14.2503 Y-12.8275
G01 X14.2442 Y-12.8168
G01 X14.2383 Y-12.8090
G01 X14.2334 Y-12.8035
G01 X14.2245 Y-12.7951
G01 X14.2145 Y-12.7879
G01 X14.2082 Y-12.7842
G01 X14.1993 Y-12.7800
G01 X14.1877 Y-12.7760
G01 X14.1805 Y-12.7743
G01 X14.1708 Y-12.7729
G01 X14.1610 Y-12.7724
G01 X13.5896 Y-12.7724
G01 X13.5798 Y-12.7729
G01 X13.5701 Y-12.7743
G01 X13.5606 Y-12.7767
G01 X13.5513 Y-12.7800
G01 X13.5424 Y-12.7842
G01 X13.5351 Y-12.7886
G01 X13.5271 Y-12.7943
G01 X13.5206 Y-12.8000
G01 X13.5108 Y-12.8109
G01 X13.5064 Y-12.8168
G01 X13.5014 Y-12.8253
G01 X13.4972 Y-12.8341
G01 X13.4939 Y-12.8434
G01 X13.4915 Y-12.8529
G01 X13.4901 Y-12.8626
G01 X13.4896 Y-12.8724
G01 X13.4900 Y-12.8810
G01 X13.4913 Y-12.8907
G01 X13.4932 Y-12.8991
G01 X13.4982 Y-12.9129
G01 X13.5014 Y-12.9196
G01 X13.5064 Y-12.9280
G01 X13.5123 Y-12.9359
G01 X13.5189 Y-12.9431
G01 X13.5261 Y-12.9497
G01 X13.5340 Y-12.9556
G01 X13.5424 Y-12.9606
G01 X13.5502 Y-12.9643
G01 X13.5594 Y-12.9678
G01 X13.5677 Y-12.9700
G01 X13.5822 Y-12.9721
G00 Z2.0000
G00 X10.2795 Y-9.1071
G01 F60.00
G01 Z0.0000
G01 F120.00
G01 X10.2881 Y-9.1074
G01 X10.8595 Y-9.1074
G01 X10.8693 Y-9.1070
G01 X10.8814 Y-9.1050
G01 X10.8886 Y-9.1031
G01 X10.8978 Y-9.0998
G01 X10.9067 Y-9.0956
G01 X10.9130 Y-9.0919
G01 X10.9230 Y-9.0847
G01 X10.9319 Y-9.0764
G01 X10.9368 Y-9.0709
G01 X10.9427 Y-9.0630
G01 X10.9477 Y-9.0546
G01 X10.9509 Y-9.0479
G01 X10.9556 Y-9.0353
G01 X10.9576 Y-9.0269
G01 X10.9591 Y-9.0172
G01 X10.9595 Y-9.0074
G01 X10.9592 Y-8.9988
G01 X10.9579 Y-8.9891
G01 X10.9559 Y-8.9807
G01 X10.9509 Y-8.9669
G01 X10.9477 Y-8.9603
G01 X10.9427 Y-8.9518
G01 X10.9368 Y-8.9440
G01 X10.9303 Y-8.9367
G01 X10.9230 Y-8.9301
G01 X10.9151 Y-8.9243
G01 X10.9067 Y-8.9192
G01 X10.8989 Y-8.9155
G01 X10.8886 Y-8.9117
G01 X10.8790 Y-8.9093
G01 X10.8693 Y-8.9079
G01 X10.8608 Y-8.9074
G01 X10.6738 Y-8.9074
G01 X10.6738 Y-8.0074
G01 X10.6735 Y-7.9988
G01 X10.6714 Y-7.9854
G01 X10.6695 Y-7.9783
G01 X10.6662 Y-7.9691
G01 X10.6608 Y-7.9580
G01 X10.6569 Y-7.9518
G01 X10.6511 Y-7.9439
G01 X10.6445 Y-7.9367
G01 X10.6391 Y-7.9317
G01 X10.6293 Y-7.9242
G01 X10.6209 Y-7.9192
G01 X10.6143 Y-7.9160
G01 X10.6016 Y-7.9113
G01 X10.5908 Y-7.9089
G01 X10.5835 Y-7.9079
G01 X10.5750 Y-7.9074
G01 X10.5639 Y-7.9079
G01 X10.5530 Y-7.9096
G01 X10.5423 Y-7.9125
G01 X10.5355 Y-7.9150
G01 X10.5277 Y-7.9186
G01 X10.5182 Y-7.9243
G01 X10.5093 Y-7.9309
G01 X10.5013 Y-7.9385
G01 X10.4964 Y-7.9440
G01 X10.4913 Y-7.9508
G01 X10.4008 Y-8.0866
G01 X10.3241 Y-8.1633
G01 X10.2423 Y-8.2042
G01 X10.2328 Y-8.2098
G01 X10.2268 Y-8.2141
G01 X10.2211 Y-8.2189
G01 X10.2117 Y-8.2285
G01 X10.2065 Y-8.2353
G01 X10.2018 Y-8.2425
G01 X10.1963 Y-8.2535
G01 X10.1932 Y-8.2615
G01 X10.1912 Y-8.2686
G01 X10.1890 Y-8.2794
G01 X10.1882 Y-8.2892
G01 X10.1883 Y-8.3002
G01 X10.1895 Y-8.3100
G01 X10.1916 Y-8.3196
G01 X10.1951 Y-8.3300
G01 X10.1992 Y-8.3390
G01 X10.2048 Y-8.3485
G01 X10.2106 Y-8.3564
G01 X10.2155 Y-8.3619
G01 X10.2207 Y-8.3670
G01 X10.2293 Y-8.3740
G01 X10.2375 Y-8.3794
G01 X10.2473 Y-8.3845
G01 X10.2565 Y-8.3880
G01 X10.2659 Y-8.3907
G01 X10.2768 Y-8.3925
G01 X10.2854 Y-8.3931
G01 X10.2927 Y-8.3930
G01 X10.3049 Y-8.3917
G01 X10.3145 Y-8.3896
G01 X10.3215 Y-8.3874
G01 X10.3328 Y-8.3826
G01 X10.4281 Y-8.3350
G01 X10.4356 Y-8.3308
G01 X10.4447 Y-8.3245
G01 X10.4512 Y-8.3190
G01 X10.4738 Y-8.2965
G01 X10.4738 Y-8.9074
G01 X10.2881 Y-8.9074
G01 X10.2771 Y-8.9080
G01 X10.2686 Y-8.9093
G01 X10.2591 Y-8.9117
G01 X10.2498 Y-8.9150
G01 X10.2431 Y-8.9181
G01 X10.2305 Y-8.9257
G01 X10.2237 Y-8.9309
G01 X10.2165 Y-8.9376
G01 X10.2108 Y-8.9440
G01 X10.2063 Y-8.9498
G01 X10.1999 Y-8.9603
G01 X10.1948 Y-8.9714
G01 X10.1924 Y-8.9784
G01 X10.1900 Y-8.9879
G01 X10.1886 Y-8.9976
G01 X10.1881 Y-9.0050
G01 X10.1886 Y-9.0172
G01 X10.1905 Y-9.0293
G01 X10.1924 Y-9.0365
G01 X10.1948 Y-9.0434
G01 X10.1999 Y-9.0546
G01 X10.2063 Y-9.0650
G01 X10.2108 Y-9.0709
G01 X10.2165 Y-9.0773
G01 X10.2266 Y-9.0862
G01 X10.2325 Y-9.0906
G01 X10.2399 Y-9.0950
G01 X10.2510 Y-9.1003
G01 X10.2591 Y-9.1031
G01 X10.2662 Y-9.1050
G01 X10.2795 Y-9.1071
G00 Z2.0000
G00 X9.1881 Y-8.8169
G01 F60.00
G01 Z0.0000
G01 F120.00
G01 X9.1886 Y-8.8267
G01 X9.1902 Y-8.8377
G01 X9.1920 Y-8.8445
G01 X9.1943 Y-8.8515
G01 X9.1981 Y-8.8606
G01 X9.2475 Y-8.9593
G01 X9.2532 Y-8.9688
G01 X9.2584 Y-8.9756
G01 X9.2631 Y-8.9810
G01 X9.3146 Y-9.0324
G01 X9.3220 Y-9.0388
G01 X9.3300 Y-9.0444
G01 X9.3386 Y-9.0493
G01 X9.4349 Y-9.0974
G01 X9.4440 Y-9.1013
G01 X9.4507 Y-9.1035
G01 X9.4579 Y-9.1053
G01 X9.4688 Y-9.1070
G01 X9.4786 Y-9.1074
G01 X9.6690 Y-9.1074
G01 X9.6761 Y-9.1072
G01 X9.6847 Y-9.1062
G01 X9.6981 Y-9.1031
G01 X9.7059 Y-9.1004
G01 X9.7138 Y-9.0969
G01 X9.8090 Y-9.0493
G01 X9.8199 Y-9.0430
G01 X9.8277 Y-9.0371
G01 X9.8339 Y-9.0316
G01 X9.8826 Y-8.9829
G01 X9.8892 Y-8.9756
G01 X9.8951 Y-8.9677
G01 X9.9001 Y-8.9593
G01 X9.9515 Y-8.8563
G01 X9.9552 Y-8.8460
G01 X9.9576 Y-8.8365
G01 X9.9591 Y-8.8267
G01 X9.9595 Y-8.8182
G01 X9.9595 Y-8.0050
G01 X9.9589 Y-7.9964
G01 X9.9571 Y-7.9855
G01 X9.9552 Y-7.9784
G01 X9.9528 Y-7.9714
G01 X9.9488 Y-7.9625
G01 X9.9434 Y-7.9529
G01 X9.9376 Y-7.9449
G01 X9.9303 Y-7.9367
G01 X9.9230 Y-7.9301
G01 X9.9130 Y-7.9229
G01 X9.9067 Y-7.9192
G01 X9.9000 Y-7.9160
G01 X9.8897 Y-7.9121
G01 X9.8790 Y-7.9093
G01 X9.8669 Y-7.9077
G01 X9.8595 Y-7.9074
G01 X9.8522 Y-7.9077
G01 X9.8412 Y-7.9091
G01 X9.8305 Y-7.9117
G01 X9.8190 Y-7.9160
G01 X9.8124 Y-7.9192
G01 X9.8060 Y-7.9229
G01 X9.7970 Y-7.9293
G01 X9.7888 Y-7.9367
G01 X9.7807 Y-7.9459
G01 X9.7764 Y-7.9518
G01 X9.7725 Y-7.9581
G01 X9.7671 Y-7.9691
G01 X9.7635 Y-7.9796
G01 X9.7614 Y-7.9879
G01 X9.7603 Y-7.9952
G01 X9.7595 Y-8.0074
G01 X9.7595 Y-8.7933
G01 X9.7297 Y-8.8529
G01 X9.7050 Y-8.8776
G01 X9.6454 Y-8.9074
G01 X9.5022 Y-8.9074
G01 X9.4426 Y-8.8776
G01 X9.4179 Y-8.8529
G01 X9.3881 Y-8.7933
G01 X9.3881 Y-8.0074
G01 X9.3876 Y-7.9976
G01 X9.3862 Y-7.9879
G01 X9.3838 Y-7.9784
G01 X9.3814 Y-7.9714
G01 X9.3763 Y-7.9603
G01 X9.3698 Y-7.9498
G01 X9.3654 Y-7.9440
G01 X9.3588 Y-7.9367
G01 X9.3516 Y-7.9301
G01 X9.3457 Y-7.9257
G01 X9.3352 Y-7.9192
G01 X9.3241 Y-7.9141
G01 X9.3171 Y-7.9117
G01 X9.3100 Y-7.9099
G01 X9.2979 Y-7.9079
G01 X9.2856 Y-7.9075
G01 X9.2783 Y-7.9079
G01 X9.2698 Y-7.9091
G01 X9.2579 Y-7.9121
G01 X9.2498 Y-7.9150
G01 X9.2431 Y-7.9181
G01 X9.2325 Y-7.9243
G01 X9.2246 Y-7.9301
G01 X9.2191 Y-7.9350
G01 X9.2108 Y-7.9440
G01 X9.2049 Y-7.9518
G01 X9.2005 Y-7.9592
G01 X9.1948 Y-7.9714
G01 X9.1924 Y-7.9784
G01 X9.1900 Y-7.9879
G01 X9.1886 Y-7.9976
G01 X9.1881 Y-8.0062
G01 X9.1881 Y-8.8169
G00 Z2.0000
G00 X6.2297 Y-27.5955
G01 F60.00
G01 Z0.0000
G01 F120.00
G01 X6.2424 Y-27.6007
G01 X6.2483 Y-27.6024
G01 X6.2568 Y-27.6037
G01 X6.2655 Y-27.6034
G01 X6.2739 Y-27.6017
G01 X6.2819 Y-27.5986
G01 X6.2893 Y-27.5941
G01 X6.2958 Y-27.5884
G01 X6.3019 Y-27.5806
G01 X6.3059 Y-27.5730
G01 X6.3418 Y-27.4803
G01 X6.3439 Y-27.4735
G01 X6.3911 Y-27.2469
G01 X6.4440 Y-26.9159
G01 X6.4979 Y-26.5065
G01 X6.5326 Y-26.2295
G01 X6.6142 Y-25.7019
G01 X6.7085 Y-25.3067
G01 X6.8277 Y-25.0163
G01 X6.9843 Y-24.8000
G01 X7.1942 Y-24.6256
G01 X7.4735 Y-24.4653
G01 X7.6441 Y-24.3973
G01 X7.9233 Y-24.3524
G01 X8.3127 Y-24.3562
G01 X8.5009 Y-24.3695
G01 X8.7733 Y-24.4120
G01 X8.9729 Y-24.4918
G01 X9.1725 Y-24.6328
G01 X9.3132 Y-24.7522
G01 X9.5264 Y-24.9753
G01 X9.6618 Y-25.2087
G01 X9.7358 Y-25.4952
G01 X9.7599 Y-25.8773
G01 X9.7448 Y-26.3931
G01 X9.7263 Y-26.7311
G01 X9.7052 Y-27.0765
G01 X9.6871 Y-27.3295
G01 X9.6740 Y-27.4592
G01 X9.6747 Y-27.4677
G01 X9.6768 Y-27.4759
G01 X9.6797 Y-27.4826
G01 X9.6843 Y-27.4898
G01 X9.6883 Y-27.4944
G01 X9.7285 Y-27.5355
G01 X9.7321 Y-27.5388
G01 X9.7369 Y-27.5423
G01 X9.7443 Y-27.5463
G01 X9.7522 Y-27.5490
G01 X9.8991 Y-27.5816
G01 X10.1645 Y-27.6056
G01 X10.5616 Y-27.6228
G01 X11.1099 Y-27.6351
G01 X11.2964 Y-27.6378
G01 X11.8801 Y-27.6384
G01 X12.3208 Y-27.6220
G01 X12.6327 Y-27.5857
G01 X12.6411 Y-27.5840
G01 X12.8399 Y-27.5253
G01 X12.8466 Y-27.5227
G01 X12.8519 Y-27.5199
G01 X12.8568 Y-27.5164
G01 X12.9630 Y-27.4320
G01 X12.9683 Y-27.4271
G01 X12.9729 Y-27.4215
G01 X12.9766 Y-27.4153
G01 X12.9797 Y-27.4074
G01 X13.0115 Y-27.2932
G01 X13.0132 Y-27.2836
G01 X13.0131 Y-27.2751
G01 X13.0071 Y-27.2127
G01 X13.0057 Y-27.2054
G01 X13.0032 Y-27.1983
G01 X12.8951 Y-27.0088
G01 X12.8893 Y-27.0010
G01 X12.8821 Y-26.9945
G01 X12.6325 Y-26.8273
G01 X12.6252 Y-26.8232
G01 X12.2179 Y-26.6639
G01 X11.7599 Y-26.5028
G01 X11.3112 Y-26.3134
G01 X10.9724 Y-26.1331
G01 X10.7719 Y-25.9768
G01 X10.7656 Y-25.9693
G01 X10.6214 Y-25.6809
G01 X10.5849 Y-25.3311
G01 X10.6641 Y-24.9756
G01 X10.6677 Y-24.9671
G01 X10.7781 Y-24.7704
G01 X10.9274 Y-24.6302
G01 X11.1455 Y-24.5318
G01 X11.4625 Y-24.4686
G01 X11.9028 Y-24.4356
G01 X12.4898 Y-24.4263
G01 X12.6149 Y-24.4258
G01 X13.0180 Y-24.4182
G01 X13.3467 Y-24.4022
G01 X13.5686 Y-24.3798
G01 X13.5768 Y-24.3778
G01 X13.6564 Y-24.3515
G01 X13.6631 Y-24.3487
G01 X13.6714 Y-24.3435
G01 X13.6785 Y-24.3367
G01 X13.6841 Y-24.3287
G01 X13.6881 Y-24.3198
G01 X13.6899 Y-24.3127
G01 X13.6906 Y-24.3054
G01 X13.6901 Y-24.2968
G01 X13.6885 Y-24.2897
G01 X13.6409 Y-24.1651
G01 X13.6373 Y-24.1588
G01 X13.4986 Y-23.9489
G01 X13.2973 Y-23.6952
G01 X13.0679 Y-23.4407
G01 X12.8375 Y-23.2207
G01 X12.2494 Y-22.7980
G01 X12.2450 Y-22.7952
G01 X11.5041 Y-22.4470
G01 X10.7161 Y-22.2499
G01 X9.9093 Y-22.2103
G01 X9.9018 Y-22.2108
G01 X9.1038 Y-22.3338
G01 X9.0987 Y-22.3351
G01 X8.6931 Y-22.4647
G01 X8.6871 Y-22.4670
G01 X7.9749 Y-22.8216
G01 X7.3503 Y-23.3021
G01 X6.8300 Y-23.8869
G01 X6.4273 Y-24.5561
G01 X6.1556 Y-25.2899
G01 X6.0290 Y-26.0634
G01 X6.0285 Y-26.0683
G01 X6.0588 Y-26.8662
G01 X6.0593 Y-26.8713
G01 X6.1104 Y-27.1870
G01 X6.1618 Y-27.4338
G01 X6.2057 Y-27.5704
G01 X6.2104 Y-27.5789
G01 X6.2158 Y-27.5855
G01 X6.2223 Y-27.5911
G01 X6.2297 Y-27.5955
G00 Z2.0000
G00 X6.8953 Y-28.9668
G01 F60.00
G01 Z0.0000
G01 F120.00
G01 X7.3415 Y-29.3587
G01 X7.5865 Y-29.5591
G01 X8.3216 Y-30.0134
G01 X8.3303 Y-30.0177
G01 X9.1358 Y-30.3192
G01 X9.1418 Y-30.3210
G01 X9.5468 Y-30.4063
G01 X9.5519 Y-30.4071
G01 X10.3173 Y-30.4479
G01 X10.3247 Y-30.4477
G01 X11.0686 Y-30.3386
G01 X11.7682 Y-30.0949
G01 X11.7753 Y-30.0918
G01 X12.4142 Y-29.7285
G01 X12.4184 Y-29.7258
G01 X12.9899 Y-29.2511
G01 X13.4689 Y-28.6871
G01 X13.4720 Y-28.6831
G01 X13.8465 Y-28.0404
G01 X13.8489 Y-28.0358
G01 X14.1047 Y-27.3240
G01 X14.2239 Y-26.5620
G01 X14.2240 Y-26.5558
G01 X14.1909 Y-25.7626
G01 X14.1456 Y-25.4742
G01 X14.0995 Y-25.2390
G01 X14.0636 Y-25.1168
G01 X14.0599 Y-25.1077
G01 X14.0560 Y-25.1014
G01 X14.0512 Y-25.0958
G01 X14.0446 Y-25.0902
G01 X14.0383 Y-25.0864
G01 X13.9693 Y-25.0593
G01 X13.9633 Y-25.0574
G01 X13.9571 Y-25.0562
G01 X13.7494 Y-25.0313
G01 X13.4383 Y-25.0153
G01 X13.0634 Y-25.0080
G01 X12.6602 Y-25.0091
G01 X12.2673 Y-25.0184
G01 X11.9196 Y-25.0358
G01 X11.6536 Y-25.0613
G01 X11.6483 Y-25.0623
G01 X11.5071 Y-25.0951
G01 X11.5011 Y-25.0969
G01 X11.4965 Y-25.0989
G01 X11.4910 Y-25.1020
G01 X11.4324 Y-25.1404
G01 X11.4257 Y-25.1459
G01 X11.4216 Y-25.1505
G01 X11.4181 Y-25.1556
G01 X11.3184 Y-25.3200
G01 X11.3150 Y-25.3278
G01 X11.3128 Y-25.3374
G01 X11.3125 Y-25.3459
G01 X11.3138 Y-25.3556
G01 X11.3583 Y-25.5386
G01 X11.3613 Y-25.5467
G01 X11.3649 Y-25.5532
G01 X11.3695 Y-25.5591
G01 X11.3739 Y-25.5634
G01 X11.5549 Y-25.7193
G01 X11.5589 Y-25.7224
G01 X11.5632 Y-25.7251
G01 X11.5678 Y-25.7274
G01 X11.7663 Y-25.8123
G01 X12.0647 Y-25.9203
G01 X12.3974 Y-26.0272
G01 X12.7998 Y-26.1620
G01 X13.1981 Y-26.3461
G01 X13.4692 Y-26.5494
G01 X13.6440 Y-26.7890
G01 X13.6931 Y-26.9052
G01 X13.7385 Y-27.2636
G01 X13.6524 Y-27.6128
G01 X13.4511 Y-27.9116
G01 X13.1505 Y-28.1172
G01 X13.0231 Y-28.1478
G01 X12.7467 Y-28.1801
G01 X12.3662 Y-28.2061
G01 X11.9102 Y-28.2254
G01 X11.4062 Y-28.2380
G01 X10.8816 Y-28.2437
G01 X10.3636 Y-28.2423
G01 X9.8794 Y-28.2340
G01 X9.4563 Y-28.2184
G01 X9.1223 Y-28.1958
G01 X8.9101 Y-28.1669
G01 X8.8690 Y-28.1474
G01 X8.8714 Y-28.1191
G01 X8.8967 Y-27.9090
G01 X8.9381 Y-27.5983
G01 X8.9902 Y-27.2288
G01 X9.0442 Y-26.8277
G01 X9.0967 Y-26.2778
G01 X9.0977 Y-25.8526
G01 X9.0970 Y-25.8476
G01 X9.0417 Y-25.5384
G01 X9.0406 Y-25.5334
G01 X9.0389 Y-25.5286
G01 X9.0368 Y-25.5240
G01 X8.9203 Y-25.3021
G01 X8.9158 Y-25.2950
G01 X8.9094 Y-25.2881
G01 X8.7258 Y-25.1313
G01 X8.7189 Y-25.1263
G01 X8.7135 Y-25.1235
G01 X8.4597 Y-25.0120
G01 X8.4531 Y-25.0097
G01 X8.3567 Y-24.9850
G01 X8.3507 Y-24.9838
G01 X8.3457 Y-24.9834
G01 X7.9970 Y-24.9911
G01 X7.9909 Y-24.9916
G01 X7.9849 Y-24.9929
G01 X7.9791 Y-24.9948
G01 X7.6497 Y-25.1298
G01 X7.6435 Y-25.1337
G01 X7.6380 Y-25.1384
G01 X7.3981 Y-25.3741
G01 X7.3927 Y-25.3803
G01 X7.3887 Y-25.3868
G01 X7.3857 Y-25.3935
G01 X7.3236 Y-25.5682
G01 X7.2530 Y-25.8952
G01 X7.1765 Y-26.3559
G01 X7.0968 Y-26.9318
G01 X7.0159 Y-27.6091
G01 X6.9365 Y-28.3695
G01 X6.8820 Y-28.9278
G01 X6.8818 Y-28.9326
G01 X6.8821 Y-28.9387
G01 X6.8830 Y-28.9435
G01 X6.8846 Y-28.9493
G01 X6.8870 Y-28.9549
G01 X6.8894 Y-28.9591
G01 X6.8953 Y-28.9668
G00 Z2.0000
M05
G00 Z2.0000
G00 Z15.00


